(G-CODE GENERATED BY FLATCAM v8.991 - www.flatcam.org - Version Date: 2019/12/27)

(Name: Corte)
(Type: G-code from Geometry)
(Units: MM)

(Created on Wednesday, 22 November 2023 at 16:37)

(TOOL DIAMETER: 0.9 mm)
(Feedrate: 60.0 mm/min)
(Feedrate_Z: 60.0 mm/min)
(Feedrate rapids 1500.0 mm/min)

(Z_Cut: -2.0 mm)
(DepthPerCut: 0.5 mm <=>4 passes)
(Z_Move: 2.0 mm)
(Z Toolchange: 15.0 mm)
(X,Y Toolchange: 0.0000, 0.0000 mm)
(Z Start: None mm)
(Z End: 15.0 mm)
(Steps per circle: 64)
(Preprocessor Geometry: default)

(X range:    0.2232 ...   48.4413  mm)
(Y range:    0.2661 ...   31.1551  mm)

(Spindle Speed: 800 RPM)
G21
G90
G94




G01 F60.00
G00 Z2.0000

M03 S800
G00 X0.2232 Y15.0606
G01 F60.00
G01 Z-0.5000
G01 F60.00
G01 X0.2232 Y1.0161
G01 X0.2268 Y0.9426
G01 X0.2376 Y0.8698
G01 X0.2555 Y0.7984
G01 X0.2803 Y0.7291
G01 X0.3118 Y0.6626
G01 X0.3496 Y0.5994
G01 X0.3934 Y0.5403
G01 X0.4429 Y0.4858
G01 X0.4974 Y0.4363
G01 X0.5565 Y0.3925
G01 X0.6197 Y0.3547
G01 X0.6862 Y0.3232
G01 X0.7555 Y0.2984
G01 X0.8269 Y0.2805
G01 X0.8997 Y0.2697
G01 X0.9732 Y0.2661
G01 X47.6913 Y0.2661
G00 X47.6913 Y0.2661
G01 F60.00
G01 Z-1.0000
G01 F60.00
G01 X0.9732 Y0.2661
G01 X0.8997 Y0.2697
G01 X0.8269 Y0.2805
G01 X0.7555 Y0.2984
G01 X0.6862 Y0.3232
G01 X0.6197 Y0.3547
G01 X0.5565 Y0.3925
G01 X0.4974 Y0.4363
G01 X0.4429 Y0.4858
G01 X0.3934 Y0.5403
G01 X0.3496 Y0.5994
G01 X0.3118 Y0.6626
G01 X0.2803 Y0.7291
G01 X0.2555 Y0.7984
G01 X0.2376 Y0.8698
G01 X0.2268 Y0.9426
G01 X0.2232 Y1.0161
G01 X0.2232 Y15.0606
G00 X0.2232 Y15.0606
G01 F60.00
G01 Z-1.5000
G01 F60.00
G01 X0.2232 Y1.0161
G01 X0.2268 Y0.9426
G01 X0.2376 Y0.8698
G01 X0.2555 Y0.7984
G01 X0.2803 Y0.7291
G01 X0.3118 Y0.6626
G01 X0.3496 Y0.5994
G01 X0.3934 Y0.5403
G01 X0.4429 Y0.4858
G01 X0.4974 Y0.4363
G01 X0.5565 Y0.3925
G01 X0.6197 Y0.3547
G01 X0.6862 Y0.3232
G01 X0.7555 Y0.2984
G01 X0.8269 Y0.2805
G01 X0.8997 Y0.2697
G01 X0.9732 Y0.2661
G01 X47.6913 Y0.2661
G00 X47.6913 Y0.2661
G01 F60.00
G01 Z-2.0000
G01 F60.00
G01 X0.9732 Y0.2661
G01 X0.8997 Y0.2697
G01 X0.8269 Y0.2805
G01 X0.7555 Y0.2984
G01 X0.6862 Y0.3232
G01 X0.6197 Y0.3547
G01 X0.5565 Y0.3925
G01 X0.4974 Y0.4363
G01 X0.4429 Y0.4858
G01 X0.3934 Y0.5403
G01 X0.3496 Y0.5994
G01 X0.3118 Y0.6626
G01 X0.2803 Y0.7291
G01 X0.2555 Y0.7984
G01 X0.2376 Y0.8698
G01 X0.2268 Y0.9426
G01 X0.2232 Y1.0161
G01 X0.2232 Y15.0606
G00 Z2.0000
G00 X0.2232 Y16.9606
G01 F60.00
G01 Z-0.5000
G01 F60.00
G01 X0.2232 Y30.4051
G01 X0.2268 Y30.4786
G01 X0.2376 Y30.5514
G01 X0.2555 Y30.6228
G01 X0.2803 Y30.6921
G01 X0.3118 Y30.7586
G01 X0.3496 Y30.8218
G01 X0.3934 Y30.8809
G01 X0.4429 Y30.9354
G01 X0.4974 Y30.9849
G01 X0.5565 Y31.0287
G01 X0.6197 Y31.0665
G01 X0.6862 Y31.0980
G01 X0.7555 Y31.1228
G01 X0.8269 Y31.1407
G01 X0.8997 Y31.1515
G01 X0.9732 Y31.1551
G01 X47.6913 Y31.1551
G01 X47.7648 Y31.1515
G01 X47.8376 Y31.1407
G01 X47.9090 Y31.1228
G01 X47.9783 Y31.0980
G01 X48.0448 Y31.0665
G01 X48.1080 Y31.0287
G01 X48.1671 Y30.9849
G01 X48.2216 Y30.9354
G01 X48.2711 Y30.8809
G01 X48.3149 Y30.8218
G01 X48.3527 Y30.7586
G01 X48.3842 Y30.6921
G01 X48.4090 Y30.6228
G01 X48.4269 Y30.5514
G01 X48.4377 Y30.4786
G01 X48.4413 Y30.4051
G01 X48.4413 Y16.9606
G00 X48.4413 Y16.9606
G01 F60.00
G01 Z-1.0000
G01 F60.00
G01 X48.4413 Y30.4051
G01 X48.4377 Y30.4786
G01 X48.4269 Y30.5514
G01 X48.4090 Y30.6228
G01 X48.3842 Y30.6921
G01 X48.3527 Y30.7586
G01 X48.3149 Y30.8218
G01 X48.2711 Y30.8809
G01 X48.2216 Y30.9354
G01 X48.1671 Y30.9849
G01 X48.1080 Y31.0287
G01 X48.0448 Y31.0665
G01 X47.9783 Y31.0980
G01 X47.9090 Y31.1228
G01 X47.8376 Y31.1407
G01 X47.7648 Y31.1515
G01 X47.6913 Y31.1551
G01 X0.9732 Y31.1551
G01 X0.8997 Y31.1515
G01 X0.8269 Y31.1407
G01 X0.7555 Y31.1228
G01 X0.6862 Y31.0980
G01 X0.6197 Y31.0665
G01 X0.5565 Y31.0287
G01 X0.4974 Y30.9849
G01 X0.4429 Y30.9354
G01 X0.3934 Y30.8809
G01 X0.3496 Y30.8218
G01 X0.3118 Y30.7586
G01 X0.2803 Y30.6921
G01 X0.2555 Y30.6228
G01 X0.2376 Y30.5514
G01 X0.2268 Y30.4786
G01 X0.2232 Y30.4051
G01 X0.2232 Y16.9606
G00 X0.2232 Y16.9606
G01 F60.00
G01 Z-1.5000
G01 F60.00
G01 X0.2232 Y30.4051
G01 X0.2268 Y30.4786
G01 X0.2376 Y30.5514
G01 X0.2555 Y30.6228
G01 X0.2803 Y30.6921
G01 X0.3118 Y30.7586
G01 X0.3496 Y30.8218
G01 X0.3934 Y30.8809
G01 X0.4429 Y30.9354
G01 X0.4974 Y30.9849
G01 X0.5565 Y31.0287
G01 X0.6197 Y31.0665
G01 X0.6862 Y31.0980
G01 X0.7555 Y31.1228
G01 X0.8269 Y31.1407
G01 X0.8997 Y31.1515
G01 X0.9732 Y31.1551
G01 X47.6913 Y31.1551
G01 X47.7648 Y31.1515
G01 X47.8376 Y31.1407
G01 X47.9090 Y31.1228
G01 X47.9783 Y31.0980
G01 X48.0448 Y31.0665
G01 X48.1080 Y31.0287
G01 X48.1671 Y30.9849
G01 X48.2216 Y30.9354
G01 X48.2711 Y30.8809
G01 X48.3149 Y30.8218
G01 X48.3527 Y30.7586
G01 X48.3842 Y30.6921
G01 X48.4090 Y30.6228
G01 X48.4269 Y30.5514
G01 X48.4377 Y30.4786
G01 X48.4413 Y30.4051
G01 X48.4413 Y16.9606
G00 X48.4413 Y16.9606
G01 F60.00
G01 Z-2.0000
G01 F60.00
G01 X48.4413 Y30.4051
G01 X48.4377 Y30.4786
G01 X48.4269 Y30.5514
G01 X48.4090 Y30.6228
G01 X48.3842 Y30.6921
G01 X48.3527 Y30.7586
G01 X48.3149 Y30.8218
G01 X48.2711 Y30.8809
G01 X48.2216 Y30.9354
G01 X48.1671 Y30.9849
G01 X48.1080 Y31.0287
G01 X48.0448 Y31.0665
G01 X47.9783 Y31.0980
G01 X47.9090 Y31.1228
G01 X47.8376 Y31.1407
G01 X47.7648 Y31.1515
G01 X47.6913 Y31.1551
G01 X0.9732 Y31.1551
G01 X0.8997 Y31.1515
G01 X0.8269 Y31.1407
G01 X0.7555 Y31.1228
G01 X0.6862 Y31.0980
G01 X0.6197 Y31.0665
G01 X0.5565 Y31.0287
G01 X0.4974 Y30.9849
G01 X0.4429 Y30.9354
G01 X0.3934 Y30.8809
G01 X0.3496 Y30.8218
G01 X0.3118 Y30.7586
G01 X0.2803 Y30.6921
G01 X0.2555 Y30.6228
G01 X0.2376 Y30.5514
G01 X0.2268 Y30.4786
G01 X0.2232 Y30.4051
G01 X0.2232 Y16.9606
G00 Z2.0000
G00 X48.4413 Y15.0606
G01 F60.00
G01 Z-0.5000
G01 F60.00
G01 X48.4413 Y1.0161
G01 X48.4377 Y0.9426
G01 X48.4269 Y0.8698
G01 X48.4090 Y0.7984
G01 X48.3842 Y0.7291
G01 X48.3527 Y0.6626
G01 X48.3149 Y0.5994
G01 X48.2711 Y0.5403
G01 X48.2216 Y0.4858
G01 X48.1671 Y0.4363
G01 X48.1080 Y0.3925
G01 X48.0448 Y0.3547
G01 X47.9783 Y0.3232
G01 X47.9090 Y0.2984
G01 X47.8376 Y0.2805
G01 X47.7648 Y0.2697
G01 X47.6913 Y0.2661
G00 X47.6913 Y0.2661
G01 F60.00
G01 Z-1.0000
G01 F60.00
G01 X47.7648 Y0.2697
G01 X47.8376 Y0.2805
G01 X47.9090 Y0.2984
G01 X47.9783 Y0.3232
G01 X48.0448 Y0.3547
G01 X48.1080 Y0.3925
G01 X48.1671 Y0.4363
G01 X48.2216 Y0.4858
G01 X48.2711 Y0.5403
G01 X48.3149 Y0.5994
G01 X48.3527 Y0.6626
G01 X48.3842 Y0.7291
G01 X48.4090 Y0.7984
G01 X48.4269 Y0.8698
G01 X48.4377 Y0.9426
G01 X48.4413 Y1.0161
G01 X48.4413 Y15.0606
G00 X48.4413 Y15.0606
G01 F60.00
G01 Z-1.5000
G01 F60.00
G01 X48.4413 Y1.0161
G01 X48.4377 Y0.9426
G01 X48.4269 Y0.8698
G01 X48.4090 Y0.7984
G01 X48.3842 Y0.7291
G01 X48.3527 Y0.6626
G01 X48.3149 Y0.5994
G01 X48.2711 Y0.5403
G01 X48.2216 Y0.4858
G01 X48.1671 Y0.4363
G01 X48.1080 Y0.3925
G01 X48.0448 Y0.3547
G01 X47.9783 Y0.3232
G01 X47.9090 Y0.2984
G01 X47.8376 Y0.2805
G01 X47.7648 Y0.2697
G01 X47.6913 Y0.2661
G00 X47.6913 Y0.2661
G01 F60.00
G01 Z-2.0000
G01 F60.00
G01 X47.7648 Y0.2697
G01 X47.8376 Y0.2805
G01 X47.9090 Y0.2984
G01 X47.9783 Y0.3232
G01 X48.0448 Y0.3547
G01 X48.1080 Y0.3925
G01 X48.1671 Y0.4363
G01 X48.2216 Y0.4858
G01 X48.2711 Y0.5403
G01 X48.3149 Y0.5994
G01 X48.3527 Y0.6626
G01 X48.3842 Y0.7291
G01 X48.4090 Y0.7984
G01 X48.4269 Y0.8698
G01 X48.4377 Y0.9426
G01 X48.4413 Y1.0161
G01 X48.4413 Y15.0606
G00 Z2.0000
M05
G00 Z2.0000
G00 Z15.00
G00 X0.0 Y0.0

