(G-CODE GENERATED BY FLATCAM v8.991 - www.flatcam.org - Version Date: 2019/12/27)

(Name: Drills_1.0)
(Type: G-code from Excellon)
(Units: MM)

(Created on Wednesday, 22 November 2023 at 16:36)

(Feedrate: 60.0 mm/min)
(Feedrate rapids 1500.0 mm/min)

(Z_Cut: -2.1 mm)
(Z_Move: 2.0 mm)
(Z Toolchange: 15.0 mm)
(X,Y Toolchange: 0.0000, 0.0000 mm)
(Z Start: None mm)
(Z End: 2.0 mm)
(Steps per circle: 64)
(Preprocessor Excellon: default)

(X range:    3.4440 ...   45.1080  mm)
(Y range:    2.6200 ...   27.6265  mm)

(Spindle Speed: 800.0 RPM)
G21
G90
G94




G01 F60.00
G00 Z2.0000

M03 S800.0
G00 X25.7205 Y5.6680
G01 Z-2.1000
G01 Z0
G00 Z2.0000
G00 X25.7205 Y3.1280
G01 Z-2.1000
G01 Z0
G00 Z2.0000
G00 X11.3405 Y11.1680
G01 Z-2.1000
G01 Z0
G00 Z2.0000
G00 X8.5385 Y22.2930
G01 Z-2.1000
G01 Z0
G00 Z2.0000
G00 X16.1505 Y24.0380
G01 Z-2.1000
G01 Z0
G00 Z2.0000
G00 X25.7205 Y8.2080
G01 Z-2.1000
G01 Z0
G00 Z2.0000
M05
G00 Z2.00
G00 X0.0 Y0.0

