(G-CODE GENERATED BY FLATCAM v8.991 - www.flatcam.org - Version Date: 2019/12/27)

(Name: Drills_.8)
(Type: G-code from Excellon)
(Units: MM)

(Created on Wednesday, 22 November 2023 at 16:36)

(Feedrate: 60.0 mm/min)
(Feedrate rapids 1500.0 mm/min)

(Z_Cut: -2.1 mm)
(Z_Move: 2.0 mm)
(Z Toolchange: 15.0 mm)
(X,Y Toolchange: 0.0000, 0.0000 mm)
(Z Start: None mm)
(Z End: 2.0 mm)
(Steps per circle: 64)
(Preprocessor Excellon: default)

(X range:    3.4440 ...   45.1080  mm)
(Y range:    2.6200 ...   27.6265  mm)

(Spindle Speed: 800.0 RPM)
G21
G90
G94




G01 F60.00
G00 Z2.0000

M03 S800.0
G00 X40.2805 Y20.2350
G01 Z-2.1000
G01 Z0
G00 Z2.0000
G00 X37.7405 Y20.2350
G01 Z-2.1000
G01 Z0
G00 Z2.0000
G00 X37.1055 Y15.7900
G01 Z-2.1000
G01 Z0
G00 Z2.0000
G00 X35.2005 Y12.6150
G01 Z-2.1000
G01 Z0
G00 Z2.0000
G00 X39.6455 Y15.7900
G01 Z-2.1000
G01 Z0
G00 Z2.0000
G00 X42.8205 Y12.6150
G01 Z-2.1000
G01 Z0
G00 Z2.0000
G00 X42.0455 Y7.3880
G01 Z-2.1000
G01 Z0
G00 Z2.0000
G00 X40.2805 Y4.9950
G01 Z-2.1000
G01 Z0
G00 Z2.0000
G00 X34.4255 Y7.3880
G01 Z-2.1000
G01 Z0
G00 Z2.0000
G00 X32.6605 Y4.9950
G01 Z-2.1000
G01 Z0
G00 Z2.0000
G00 X30.3725 Y8.4030
G01 Z-2.1000
G01 Z0
G00 Z2.0000
G00 X30.3725 Y10.9430
G01 Z-2.1000
G01 Z0
G00 Z2.0000
G00 X27.6755 Y12.5150
G01 Z-2.1000
G01 Z0
G00 Z2.0000
G00 X24.9845 Y11.4080
G01 Z-2.1000
G01 Z0
G00 Z2.0000
G00 X17.3645 Y11.4080
G01 Z-2.1000
G01 Z0
G00 Z2.0000
G00 X15.0125 Y8.7740
G01 Z-2.1000
G01 Z0
G00 Z2.0000
G00 X17.2845 Y4.2710
G01 Z-2.1000
G01 Z0
G00 Z2.0000
G00 X14.7445 Y4.2710
G01 Z-2.1000
G01 Z0
G00 Z2.0000
G00 X8.5835 Y5.5120
G01 Z-2.1000
G01 Z0
G00 Z2.0000
G00 X4.7795 Y8.7530
G01 Z-2.1000
G01 Z0
G00 Z2.0000
G00 X4.7795 Y11.2930
G01 Z-2.1000
G01 Z0
G00 Z2.0000
G00 X3.8505 Y19.1160
G01 Z-2.1000
G01 Z0
G00 Z2.0000
G00 X8.5835 Y13.1320
G01 Z-2.1000
G01 Z0
G00 Z2.0000
G00 X9.1465 Y15.8630
G01 Z-2.1000
G01 Z0
G00 Z2.0000
G00 X11.6865 Y15.8630
G01 Z-2.1000
G01 Z0
G00 Z2.0000
G00 X15.0125 Y16.3940
G01 Z-2.1000
G01 Z0
G00 Z2.0000
G00 X11.4705 Y19.1160
G01 Z-2.1000
G01 Z0
G00 Z2.0000
G00 X12.9755 Y27.2200
G01 Z-2.1000
G01 Z0
G00 Z2.0000
G00 X15.5155 Y27.2200
G01 Z-2.1000
G01 Z0
G00 Z2.0000
G00 X20.5955 Y25.3150
G01 Z-2.1000
G01 Z0
G00 Z2.0000
G00 X23.1355 Y25.3150
G01 Z-2.1000
G01 Z0
G00 Z2.0000
G00 X26.9455 Y26.5850
G01 Z-2.1000
G01 Z0
G00 Z2.0000
G00 X27.6755 Y20.1350
G01 Z-2.1000
G01 Z0
G00 Z2.0000
G00 X32.0255 Y17.6950
G01 Z-2.1000
G01 Z0
G00 Z2.0000
G00 X32.0255 Y20.2350
G01 Z-2.1000
G01 Z0
G00 Z2.0000
G00 X34.5655 Y26.5850
G01 Z-2.1000
G01 Z0
G00 Z2.0000
G00 X38.2645 Y24.8090
G01 Z-2.1000
G01 Z0
G00 Z2.0000
G00 X40.8045 Y24.8090
G01 Z-2.1000
G01 Z0
G00 Z2.0000
G00 X44.7015 Y26.6050
G01 Z-2.1000
G01 Z0
G00 Z2.0000
G00 X44.7015 Y18.9850
G01 Z-2.1000
G01 Z0
G00 Z2.0000
M05
G00 Z2.00
G00 X0.0 Y0.0

