(G-CODE GENERATED BY FLATCAM v8.991 - www.flatcam.org - Version Date: 2019/12/27)

(Name: Pistas)
(Type: G-code from Geometry)
(Units: MM)

(Created on Wednesday, 22 November 2023 at 16:35)

(TOOL DIAMETER: 0.13 mm)
(Feedrate: 60.0 mm/min)
(Feedrate_Z: 60.0 mm/min)
(Feedrate rapids 1500.0 mm/min)

(Z_Cut: -0.0851 mm)
(Z_Move: 2.0 mm)
(Z Toolchange: 15.0 mm)
(X,Y Toolchange: 0.0000, 0.0000 mm)
(Z Start: None mm)
(Z End: 2.0 mm)
(Steps per circle: 64)
(Preprocessor Geometry: default)

(X range:    0.9082 ...   47.7563  mm)
(Y range:    0.9511 ...   30.4701  mm)

(Spindle Speed: 800 RPM)
G21
G90
G94




G01 F60.00
G00 Z2.0000

M03 S800
G00 X5.1520 Y10.3928
G01 F60.00
G01 Z-0.0851
G01 F60.00
G01 X5.5157 Y10.7567
G01 X5.5316 Y10.7701
G01 X5.5470 Y10.7840
G01 X5.5592 Y10.7929
G01 X5.5942 Y10.8141
G01 X5.6084 Y10.8210
G01 X5.6137 Y10.8232
G01 X5.6277 Y10.8282
G01 X5.6469 Y10.8357
G01 X5.6539 Y10.8375
G01 X5.6613 Y10.8399
G01 X5.6819 Y10.8435
G01 X5.7011 Y10.8475
G01 X5.7176 Y10.8491
G01 X5.7413 Y10.8500
G01 X6.0265 Y10.8500
G01 X6.1894 Y10.9175
G01 X7.6317 Y12.3599
G01 X7.6422 Y12.3696
G01 X7.6752 Y12.3962
G01 X7.6873 Y12.4040
G01 X7.7191 Y12.4216
G01 X7.7322 Y12.4277
G01 X7.7376 Y12.4297
G01 X7.7772 Y12.4430
G01 X7.7916 Y12.4462
G01 X7.8337 Y12.4524
G01 X7.8478 Y12.4529
G01 X7.8842 Y12.4519
G01 X7.8990 Y12.4505
G01 X7.9397 Y12.4422
G01 X7.9459 Y12.4407
G01 X7.9589 Y12.4364
G01 X7.9929 Y12.4228
G01 X8.0064 Y12.4162
G01 X8.0415 Y12.3944
G01 X8.0464 Y12.3912
G01 X8.0565 Y12.3833
G01 X8.0828 Y12.3599
G01 X8.2105 Y12.2321
G01 X8.9563 Y12.2321
G01 X9.4837 Y12.7595
G01 X9.4837 Y13.5053
G01 X9.1968 Y13.7921
G01 X9.1834 Y13.8078
G01 X9.1734 Y13.8186
G01 X9.1696 Y13.8231
G01 X9.1606 Y13.8354
G01 X9.1501 Y13.8533
G01 X9.1392 Y13.8708
G01 X9.1325 Y13.8847
G01 X9.1254 Y13.9039
G01 X9.1198 Y13.9175
G01 X9.1176 Y13.9235
G01 X9.1159 Y13.9307
G01 X9.1137 Y13.9375
G01 X9.1124 Y13.9435
G01 X9.1099 Y13.9583
G01 X9.1068 Y13.9729
G01 X9.1055 Y13.9822
G01 X9.1044 Y13.9935
G01 X9.1034 Y14.0176
G01 X9.1034 Y14.6434
G01 X9.1039 Y14.6578
G01 X9.1077 Y14.6941
G01 X9.1101 Y14.7084
G01 X9.1234 Y14.7545
G01 X9.1289 Y14.7676
G01 X9.1475 Y14.8053
G01 X9.1554 Y14.8175
G01 X9.1807 Y14.8515
G01 X9.1904 Y14.8619
G01 X9.2214 Y14.8911
G01 X9.2327 Y14.8996
G01 X9.2480 Y14.9093
G01 X9.2630 Y14.9194
G01 X9.2758 Y14.9266
G01 X9.3144 Y14.9433
G01 X9.3200 Y14.9454
G01 X9.3332 Y14.9494
G01 X9.3689 Y14.9577
G01 X9.3747 Y14.9588
G01 X9.3872 Y14.9603
G01 X9.4224 Y14.9623
G01 X9.5190 Y14.9623
G01 X10.0463 Y15.4897
G01 X10.0463 Y16.2355
G01 X9.5190 Y16.7629
G01 X8.7731 Y16.7629
G01 X8.2458 Y16.2355
G01 X8.2458 Y15.7929
G01 X8.2431 Y15.7518
G01 X8.2408 Y15.7366
G01 X8.2355 Y15.7165
G01 X8.2308 Y15.6963
G01 X8.2280 Y15.6891
G01 X8.2259 Y15.6821
G01 X8.2091 Y15.6445
G01 X8.2006 Y15.6294
G01 X8.1157 Y15.4244
G01 X8.1157 Y14.3010
G01 X8.1141 Y14.2804
G01 X8.1130 Y14.2596
G01 X8.1116 Y14.2521
G01 X8.1107 Y14.2449
G01 X8.1094 Y14.2391
G01 X8.1055 Y14.2246
G01 X8.1008 Y14.2046
G01 X8.0958 Y14.1900
G01 X8.0872 Y14.1714
G01 X8.0790 Y14.1523
G01 X8.0750 Y14.1457
G01 X8.0716 Y14.1391
G01 X8.0598 Y14.1221
G01 X8.0516 Y14.1095
G01 X8.0487 Y14.1053
G01 X8.0386 Y14.0930
G01 X8.0319 Y14.0862
G01 X8.0223 Y14.0754
G01 X7.9028 Y13.9560
G01 X7.8762 Y13.8919
G01 X7.8697 Y13.8789
G01 X7.8638 Y13.8654
G01 X7.8567 Y13.8539
G01 X7.8501 Y13.8418
G01 X7.8412 Y13.8300
G01 X7.8338 Y13.8188
G01 X7.8152 Y13.7968
G01 X5.9013 Y11.8828
G01 X5.8640 Y11.8525
G01 X5.8520 Y11.8448
G01 X5.8360 Y11.8362
G01 X5.8202 Y11.8272
G01 X5.8067 Y11.8208
G01 X5.7673 Y11.8073
G01 X5.7612 Y11.8054
G01 X5.7477 Y11.8025
G01 X5.7116 Y11.7971
G01 X5.6976 Y11.7958
G01 X5.6551 Y11.7968
G01 X5.6403 Y11.7982
G01 X5.5938 Y11.8079
G01 X5.5799 Y11.8124
G01 X5.5633 Y11.8194
G01 X5.5464 Y11.8260
G01 X5.5336 Y11.8321
G01 X5.5283 Y11.8352
G01 X5.4928 Y11.8577
G01 X5.4828 Y11.8654
G01 X5.4594 Y11.8861
G01 X5.1520 Y12.1934
G01 X4.4062 Y12.1934
G01 X3.8788 Y11.6660
G01 X3.8788 Y10.9202
G01 X4.4062 Y10.3928
G01 X5.1520 Y10.3928
G00 Z2.0000
G00 X7.8217 Y12.7969
G01 F60.00
G01 Z-0.0851
G01 F60.00
G01 X7.8262 Y12.7918
G01 X8.2428 Y12.3752
G01 X8.2476 Y12.3710
G01 X8.2527 Y12.3672
G01 X8.2582 Y12.3639
G01 X8.2639 Y12.3611
G01 X8.2699 Y12.3590
G01 X8.2761 Y12.3575
G01 X8.2824 Y12.3565
G01 X8.2888 Y12.3562
G01 X8.8780 Y12.3562
G01 X8.8844 Y12.3565
G01 X8.8907 Y12.3575
G01 X8.8969 Y12.3590
G01 X8.9029 Y12.3611
G01 X8.9086 Y12.3639
G01 X8.9141 Y12.3672
G01 X8.9192 Y12.3710
G01 X8.9240 Y12.3752
G01 X9.3406 Y12.7918
G01 X9.3448 Y12.7966
G01 X9.3486 Y12.8017
G01 X9.3519 Y12.8072
G01 X9.3547 Y12.8129
G01 X9.3568 Y12.8189
G01 X9.3583 Y12.8251
G01 X9.3593 Y12.8314
G01 X9.3596 Y12.8378
G01 X9.3596 Y13.4270
G01 X9.3593 Y13.4334
G01 X9.3583 Y13.4397
G01 X9.3568 Y13.4459
G01 X9.3547 Y13.4519
G01 X9.3519 Y13.4576
G01 X9.3486 Y13.4631
G01 X9.3448 Y13.4682
G01 X9.3406 Y13.4730
G01 X8.9204 Y13.8928
G01 X8.9231 Y13.9052
G01 X8.9268 Y13.9299
G01 X8.9274 Y13.9362
G01 X8.9287 Y13.9643
G01 X8.9287 Y15.0864
G01 X9.4406 Y15.0864
G01 X9.4470 Y15.0867
G01 X9.4533 Y15.0877
G01 X9.4595 Y15.0892
G01 X9.4655 Y15.0913
G01 X9.4712 Y15.0941
G01 X9.4767 Y15.0974
G01 X9.4818 Y15.1012
G01 X9.4866 Y15.1054
G01 X9.9032 Y15.5220
G01 X9.9074 Y15.5268
G01 X9.9112 Y15.5319
G01 X9.9145 Y15.5374
G01 X9.9173 Y15.5431
G01 X9.9194 Y15.5491
G01 X9.9209 Y15.5553
G01 X9.9219 Y15.5616
G01 X9.9222 Y15.5680
G01 X9.9222 Y16.1572
G01 X9.9219 Y16.1636
G01 X9.9209 Y16.1699
G01 X9.9194 Y16.1761
G01 X9.9173 Y16.1821
G01 X9.9145 Y16.1878
G01 X9.9112 Y16.1933
G01 X9.9074 Y16.1984
G01 X9.9032 Y16.2032
G01 X9.4866 Y16.6198
G01 X9.4818 Y16.6240
G01 X9.4767 Y16.6278
G01 X9.4712 Y16.6311
G01 X9.4655 Y16.6339
G01 X9.4595 Y16.6360
G01 X9.4533 Y16.6375
G01 X9.4470 Y16.6385
G01 X9.4406 Y16.6388
G01 X8.8514 Y16.6388
G01 X8.8450 Y16.6385
G01 X8.8387 Y16.6375
G01 X8.8325 Y16.6360
G01 X8.8265 Y16.6339
G01 X8.8208 Y16.6311
G01 X8.8153 Y16.6278
G01 X8.8102 Y16.6240
G01 X8.8054 Y16.6198
G01 X8.3888 Y16.2032
G01 X8.3846 Y16.1984
G01 X8.3808 Y16.1933
G01 X8.3775 Y16.1878
G01 X8.3747 Y16.1821
G01 X8.3726 Y16.1761
G01 X8.3711 Y16.1699
G01 X8.3701 Y16.1636
G01 X8.3698 Y16.1572
G01 X8.3698 Y15.5680
G01 X8.3701 Y15.5616
G01 X8.3711 Y15.5553
G01 X8.3726 Y15.5491
G01 X8.3752 Y15.5422
G01 X8.3629 Y15.5285
G01 X8.3442 Y15.5034
G01 X8.3281 Y15.4765
G01 X8.3148 Y15.4482
G01 X8.3042 Y15.4187
G01 X8.2966 Y15.3884
G01 X8.2920 Y15.3574
G01 X8.2906 Y15.3293
G01 X8.2905 Y14.0965
G01 X8.0958 Y13.9019
G01 X8.0769 Y13.8811
G01 X8.0728 Y13.8761
G01 X8.0544 Y13.8508
G01 X8.0386 Y13.8238
G01 X8.0255 Y13.7953
G01 X8.0171 Y13.7719
G01 X8.0098 Y13.7439
G01 X5.8273 Y11.5614
G01 X5.5553 Y11.5614
G01 X5.5553 Y11.5877
G01 X5.5550 Y11.5941
G01 X5.5540 Y11.6004
G01 X5.5525 Y11.6066
G01 X5.5504 Y11.6126
G01 X5.5476 Y11.6183
G01 X5.5443 Y11.6238
G01 X5.5405 Y11.6289
G01 X5.5363 Y11.6337
G01 X5.1197 Y12.0503
G01 X5.1149 Y12.0545
G01 X5.1098 Y12.0583
G01 X5.1043 Y12.0616
G01 X5.0986 Y12.0644
G01 X5.0926 Y12.0665
G01 X5.0864 Y12.0680
G01 X5.0801 Y12.0690
G01 X5.0737 Y12.0693
G01 X4.4845 Y12.0693
G01 X4.4781 Y12.0690
G01 X4.4718 Y12.0680
G01 X4.4656 Y12.0665
G01 X4.4596 Y12.0644
G01 X4.4539 Y12.0616
G01 X4.4484 Y12.0583
G01 X4.4433 Y12.0545
G01 X4.4385 Y12.0503
G01 X4.0219 Y11.6337
G01 X4.0177 Y11.6289
G01 X4.0139 Y11.6238
G01 X4.0106 Y11.6183
G01 X4.0078 Y11.6126
G01 X4.0057 Y11.6066
G01 X4.0042 Y11.6004
G01 X4.0032 Y11.5941
G01 X4.0029 Y11.5877
G01 X4.0029 Y10.9985
G01 X4.0032 Y10.9921
G01 X4.0042 Y10.9858
G01 X4.0057 Y10.9796
G01 X4.0078 Y10.9736
G01 X4.0106 Y10.9679
G01 X4.0139 Y10.9624
G01 X4.0177 Y10.9573
G01 X4.0219 Y10.9525
G01 X4.4385 Y10.5359
G01 X4.4433 Y10.5317
G01 X4.4484 Y10.5279
G01 X4.4539 Y10.5246
G01 X4.4596 Y10.5218
G01 X4.4656 Y10.5197
G01 X4.4718 Y10.5182
G01 X4.4781 Y10.5172
G01 X4.4845 Y10.5169
G01 X5.0737 Y10.5169
G01 X5.0801 Y10.5172
G01 X5.0864 Y10.5182
G01 X5.0926 Y10.5197
G01 X5.0986 Y10.5218
G01 X5.1043 Y10.5246
G01 X5.1098 Y10.5279
G01 X5.1149 Y10.5317
G01 X5.1197 Y10.5359
G01 X5.5363 Y10.9525
G01 X5.5405 Y10.9573
G01 X5.5443 Y10.9624
G01 X5.5476 Y10.9679
G01 X5.5504 Y10.9736
G01 X5.5525 Y10.9796
G01 X5.5540 Y10.9858
G01 X5.5550 Y10.9921
G01 X5.5553 Y10.9985
G01 X5.5553 Y11.0248
G01 X5.9384 Y11.0248
G01 X5.9615 Y11.0259
G01 X5.9679 Y11.0265
G01 X5.9939 Y11.0307
G01 X6.0132 Y11.0355
G01 X6.0193 Y11.0374
G01 X6.0440 Y11.0465
G01 X6.0677 Y11.0581
G01 X6.0848 Y11.0683
G01 X6.1061 Y11.0837
G01 X6.1110 Y11.0878
G01 X6.1281 Y11.1034
G01 X7.8217 Y12.7969
G00 Z2.0000
G00 X12.0280 Y16.6183
G01 F60.00
G01 Z-0.0851
G01 F60.00
G01 X12.0218 Y16.6240
G01 X12.0167 Y16.6278
G01 X12.0112 Y16.6311
G01 X12.0055 Y16.6339
G01 X11.9995 Y16.6360
G01 X11.9933 Y16.6375
G01 X11.9870 Y16.6385
G01 X11.9806 Y16.6388
G01 X11.3914 Y16.6388
G01 X11.3850 Y16.6385
G01 X11.3787 Y16.6375
G01 X11.3725 Y16.6360
G01 X11.3665 Y16.6339
G01 X11.3608 Y16.6311
G01 X11.3553 Y16.6278
G01 X11.3502 Y16.6240
G01 X11.3454 Y16.6198
G01 X10.9288 Y16.2032
G01 X10.9246 Y16.1984
G01 X10.9208 Y16.1933
G01 X10.9175 Y16.1878
G01 X10.9147 Y16.1821
G01 X10.9126 Y16.1761
G01 X10.9111 Y16.1699
G01 X10.9101 Y16.1636
G01 X10.9098 Y16.1572
G01 X10.9098 Y15.5680
G01 X10.9101 Y15.5616
G01 X10.9111 Y15.5553
G01 X10.9126 Y15.5491
G01 X10.9147 Y15.5431
G01 X10.9175 Y15.5374
G01 X10.9208 Y15.5319
G01 X10.9246 Y15.5268
G01 X10.9288 Y15.5220
G01 X11.3454 Y15.1054
G01 X11.3502 Y15.1012
G01 X11.3553 Y15.0974
G01 X11.3608 Y15.0941
G01 X11.3665 Y15.0913
G01 X11.3725 Y15.0892
G01 X11.3787 Y15.0877
G01 X11.3850 Y15.0867
G01 X11.3914 Y15.0864
G01 X11.9806 Y15.0864
G01 X11.9870 Y15.0867
G01 X11.9933 Y15.0877
G01 X11.9995 Y15.0892
G01 X12.0055 Y15.0913
G01 X12.0112 Y15.0941
G01 X12.0167 Y15.0974
G01 X12.0218 Y15.1012
G01 X12.0266 Y15.1054
G01 X12.4432 Y15.5220
G01 X12.4474 Y15.5268
G01 X12.4512 Y15.5319
G01 X12.4545 Y15.5374
G01 X12.4573 Y15.5431
G01 X12.4594 Y15.5491
G01 X12.4609 Y15.5553
G01 X12.4619 Y15.5616
G01 X12.4622 Y15.5680
G01 X12.4622 Y16.1003
G01 X14.2367 Y16.1003
G01 X14.2370 Y16.0930
G01 X14.2380 Y16.0867
G01 X14.2395 Y16.0805
G01 X14.2416 Y16.0745
G01 X14.2444 Y16.0688
G01 X14.2477 Y16.0633
G01 X14.2515 Y16.0582
G01 X14.2557 Y16.0534
G01 X14.6723 Y15.6368
G01 X14.6771 Y15.6326
G01 X14.6822 Y15.6288
G01 X14.6877 Y15.6255
G01 X14.6934 Y15.6227
G01 X14.6994 Y15.6206
G01 X14.7056 Y15.6191
G01 X14.7119 Y15.6181
G01 X14.7183 Y15.6178
G01 X15.3075 Y15.6178
G01 X15.3139 Y15.6181
G01 X15.3202 Y15.6191
G01 X15.3264 Y15.6206
G01 X15.3324 Y15.6227
G01 X15.3381 Y15.6255
G01 X15.3436 Y15.6288
G01 X15.3487 Y15.6326
G01 X15.3535 Y15.6368
G01 X15.7701 Y16.0534
G01 X15.7743 Y16.0582
G01 X15.7781 Y16.0633
G01 X15.7814 Y16.0688
G01 X15.7842 Y16.0745
G01 X15.7863 Y16.0805
G01 X15.7878 Y16.0867
G01 X15.7888 Y16.0930
G01 X15.7891 Y16.1003
G01 X17.4708 Y16.1003
G01 X17.4734 Y16.0949
G01 X17.4767 Y16.0894
G01 X17.4805 Y16.0843
G01 X17.4847 Y16.0795
G01 X17.4895 Y16.0753
G01 X17.4946 Y16.0715
G01 X17.5001 Y16.0682
G01 X17.5058 Y16.0654
G01 X17.5118 Y16.0633
G01 X17.5180 Y16.0617
G01 X17.5243 Y16.0608
G01 X17.5307 Y16.0605
G01 X19.7307 Y16.0605
G01 X19.7371 Y16.0608
G01 X19.7434 Y16.0617
G01 X19.7496 Y16.0633
G01 X19.7556 Y16.0654
G01 X19.7613 Y16.0682
G01 X19.7668 Y16.0715
G01 X19.7719 Y16.0753
G01 X19.7767 Y16.0795
G01 X19.7809 Y16.0843
G01 X19.7847 Y16.0894
G01 X19.7880 Y16.0949
G01 X19.7908 Y16.1006
G01 X19.7929 Y16.1066
G01 X19.7945 Y16.1128
G01 X19.7954 Y16.1191
G01 X19.7957 Y16.1255
G01 X19.7957 Y16.7255
G01 X19.7954 Y16.7319
G01 X19.7945 Y16.7382
G01 X19.7929 Y16.7444
G01 X19.7908 Y16.7504
G01 X19.7880 Y16.7561
G01 X19.7847 Y16.7616
G01 X19.7809 Y16.7667
G01 X19.7767 Y16.7715
G01 X19.7719 Y16.7757
G01 X19.7668 Y16.7795
G01 X19.7613 Y16.7828
G01 X19.7556 Y16.7856
G01 X19.7496 Y16.7877
G01 X19.7434 Y16.7893
G01 X19.7371 Y16.7902
G01 X19.7307 Y16.7905
G01 X17.5307 Y16.7905
G01 X17.5243 Y16.7902
G01 X17.5180 Y16.7893
G01 X17.5118 Y16.7877
G01 X17.5058 Y16.7856
G01 X17.5001 Y16.7828
G01 X17.4946 Y16.7795
G01 X17.4895 Y16.7757
G01 X17.4847 Y16.7715
G01 X17.4805 Y16.7667
G01 X17.4767 Y16.7616
G01 X17.4734 Y16.7561
G01 X17.4706 Y16.7504
G01 X17.4685 Y16.7444
G01 X17.4669 Y16.7382
G01 X17.4660 Y16.7319
G01 X17.4657 Y16.7255
G01 X17.4657 Y16.6877
G01 X15.7891 Y16.6877
G01 X15.7888 Y16.6950
G01 X15.7878 Y16.7013
G01 X15.7863 Y16.7075
G01 X15.7842 Y16.7135
G01 X15.7814 Y16.7192
G01 X15.7781 Y16.7247
G01 X15.7743 Y16.7298
G01 X15.7701 Y16.7346
G01 X15.3535 Y17.1512
G01 X15.3487 Y17.1554
G01 X15.3436 Y17.1592
G01 X15.3381 Y17.1625
G01 X15.3324 Y17.1653
G01 X15.3264 Y17.1674
G01 X15.3202 Y17.1689
G01 X15.3139 Y17.1699
G01 X15.3075 Y17.1702
G01 X14.7183 Y17.1702
G01 X14.7119 Y17.1699
G01 X14.7056 Y17.1689
G01 X14.6994 Y17.1674
G01 X14.6934 Y17.1653
G01 X14.6877 Y17.1625
G01 X14.6822 Y17.1592
G01 X14.6771 Y17.1554
G01 X14.6723 Y17.1512
G01 X14.2557 Y16.7346
G01 X14.2515 Y16.7298
G01 X14.2477 Y16.7247
G01 X14.2444 Y16.7192
G01 X14.2416 Y16.7135
G01 X14.2395 Y16.7075
G01 X14.2380 Y16.7013
G01 X14.2370 Y16.6950
G01 X14.2367 Y16.6877
G01 X12.2143 Y16.6876
G01 X12.1919 Y16.6865
G01 X12.1633 Y16.6826
G01 X12.1353 Y16.6759
G01 X12.1081 Y16.6665
G01 X12.0819 Y16.6545
G01 X12.0570 Y16.6399
G01 X12.0337 Y16.6230
G01 X12.0280 Y16.6183
G00 Z2.0000
G00 X11.0052 Y21.8970
G01 F60.00
G01 Z-0.0851
G01 F60.00
G01 X11.0127 Y21.8985
G01 X11.0544 Y21.9039
G01 X11.0628 Y21.9046
G01 X11.0691 Y21.9046
G01 X11.1107 Y21.9026
G01 X11.1180 Y21.9020
G01 X11.1254 Y21.9007
G01 X11.1660 Y21.8915
G01 X11.1712 Y21.8901
G01 X11.1801 Y21.8869
G01 X11.2186 Y21.8706
G01 X11.2264 Y21.8667
G01 X11.2666 Y21.8408
G01 X11.2742 Y21.8351
G01 X11.2851 Y21.8258
G01 X11.3007 Y21.8115
G01 X12.5645 Y20.5477
G01 X12.5740 Y20.5367
G01 X12.5842 Y20.5261
G01 X12.5921 Y20.5151
G01 X12.6008 Y20.5043
G01 X12.6181 Y20.4761
G01 X12.6289 Y20.4550
G01 X12.6347 Y20.4415
G01 X12.7665 Y20.3097
G01 X12.9386 Y20.2384
G01 X15.2520 Y20.2384
G01 X15.2932 Y20.2358
G01 X15.3085 Y20.2333
G01 X15.3481 Y20.2236
G01 X15.3630 Y20.2185
G01 X15.3684 Y20.2162
G01 X15.3816 Y20.2099
G01 X15.4005 Y20.2017
G01 X15.4141 Y20.1941
G01 X15.4475 Y20.1715
G01 X15.4596 Y20.1615
G01 X15.4775 Y20.1450
G01 X15.6695 Y19.9529
G01 X15.6801 Y19.9408
G01 X15.6915 Y19.9286
G01 X15.6984 Y19.9189
G01 X15.7057 Y19.9097
G01 X15.7141 Y19.8957
G01 X15.7231 Y19.8817
G01 X15.7281 Y19.8711
G01 X15.7339 Y19.8605
G01 X15.7395 Y19.8452
G01 X15.7460 Y19.8302
G01 X15.7490 Y19.8187
G01 X15.7528 Y19.8075
G01 X15.7557 Y19.7911
G01 X15.7594 Y19.7750
G01 X15.7603 Y19.7632
G01 X15.7620 Y19.7516
G01 X15.7622 Y19.7456
G01 X15.7620 Y19.7351
G01 X15.7628 Y19.7189
G01 X15.7617 Y19.7070
G01 X15.7613 Y19.6949
G01 X15.7604 Y19.6889
G01 X15.7584 Y19.6788
G01 X15.7562 Y19.6625
G01 X15.7530 Y19.6510
G01 X15.7505 Y19.6396
G01 X15.7449 Y19.6242
G01 X15.7418 Y19.6138
G01 X15.7398 Y19.6082
G01 X15.7346 Y19.5976
G01 X15.7302 Y19.5868
G01 X15.7219 Y19.5724
G01 X15.7142 Y19.5580
G01 X15.7073 Y19.5485
G01 X15.7007 Y19.5382
G01 X15.6901 Y19.5258
G01 X15.6837 Y19.5174
G01 X15.6799 Y19.5129
G01 X15.6714 Y19.5048
G01 X15.6635 Y19.4961
G01 X15.6506 Y19.4855
G01 X15.6384 Y19.4746
G01 X15.6285 Y19.4680
G01 X15.6189 Y19.4608
G01 X15.6048 Y19.4530
G01 X15.5908 Y19.4443
G01 X15.5796 Y19.4395
G01 X15.5690 Y19.4341
G01 X15.5537 Y19.4289
G01 X15.5386 Y19.4229
G01 X15.5266 Y19.4200
G01 X15.5152 Y19.4166
G01 X15.4992 Y19.4141
G01 X15.4840 Y19.4111
G01 X15.4690 Y19.4100
G01 X15.4596 Y19.4089
G01 X15.4440 Y19.4086
G01 X12.5775 Y19.4088
G01 X12.5625 Y19.4101
G01 X12.5417 Y19.4112
G01 X12.5267 Y19.4135
G01 X12.5066 Y19.4188
G01 X12.4864 Y19.4235
G01 X12.4792 Y19.4263
G01 X12.4722 Y19.4284
G01 X12.4343 Y19.4453
G01 X12.4209 Y19.4527
G01 X12.4041 Y19.4645
G01 X12.3877 Y19.4753
G01 X12.3747 Y19.4859
G01 X12.3682 Y19.4923
G01 X12.3574 Y19.5019
G01 X11.8430 Y20.0165
G01 X11.0971 Y20.0165
G01 X10.5698 Y19.4891
G01 X10.5698 Y18.7433
G01 X11.0971 Y18.2159
G01 X11.8430 Y18.2159
G01 X12.0560 Y18.4290
G01 X12.0872 Y18.4563
G01 X12.0995 Y18.4652
G01 X12.1171 Y18.4757
G01 X12.1299 Y18.4838
G01 X12.1480 Y18.4931
G01 X12.1539 Y18.4956
G01 X12.1680 Y18.5006
G01 X12.1871 Y18.5081
G01 X12.2021 Y18.5123
G01 X12.2220 Y18.5159
G01 X12.2414 Y18.5199
G01 X12.2579 Y18.5215
G01 X12.2816 Y18.5224
G01 X17.0228 Y18.5224
G01 X17.0372 Y18.5219
G01 X17.0791 Y18.5174
G01 X17.0931 Y18.5143
G01 X17.1334 Y18.5026
G01 X17.1471 Y18.4970
G01 X17.1633 Y18.4887
G01 X17.1797 Y18.4809
G01 X17.1922 Y18.4736
G01 X17.2261 Y18.4488
G01 X17.2308 Y18.4451
G01 X17.2413 Y18.4354
G01 X17.2663 Y18.4090
G01 X17.2759 Y18.3975
G01 X17.2989 Y18.3626
G01 X17.3060 Y18.3501
G01 X17.3244 Y18.3068
G01 X17.3289 Y18.2923
G01 X17.3327 Y18.2745
G01 X17.3370 Y18.2569
G01 X17.3381 Y18.2511
G01 X17.3397 Y18.2387
G01 X17.3417 Y18.2035
G01 X17.3417 Y17.2290
G01 X17.3427 Y17.2175
G01 X17.3444 Y17.2056
G01 X17.3444 Y17.1891
G01 X17.3452 Y17.1727
G01 X17.3441 Y17.1610
G01 X17.3437 Y17.1490
G01 X17.3408 Y17.1328
G01 X17.3386 Y17.1165
G01 X17.3354 Y17.1049
G01 X17.3329 Y17.0937
G01 X17.3274 Y17.0783
G01 X17.3223 Y17.0625
G01 X17.3170 Y17.0515
G01 X17.3125 Y17.0406
G01 X17.3043 Y17.0266
G01 X17.2966 Y17.0120
G01 X17.2897 Y17.0026
G01 X17.2832 Y16.9923
G01 X17.2795 Y16.9877
G01 X17.2725 Y16.9798
G01 X17.2623 Y16.9669
G01 X17.2540 Y16.9589
G01 X17.2460 Y16.9501
G01 X17.2329 Y16.9394
G01 X17.2208 Y16.9286
G01 X17.2110 Y16.9221
G01 X17.2016 Y16.9150
G01 X17.1871 Y16.9068
G01 X17.1730 Y16.8982
G01 X17.1623 Y16.8936
G01 X17.1517 Y16.8881
G01 X17.1361 Y16.8828
G01 X17.1209 Y16.8768
G01 X17.1091 Y16.8740
G01 X17.0978 Y16.8706
G01 X17.0818 Y16.8682
G01 X17.0666 Y16.8650
G01 X17.0416 Y16.8629
G01 X17.0264 Y16.8625
G01 X15.9497 Y16.8625
G01 X15.9292 Y16.8641
G01 X15.9082 Y16.8652
G01 X15.9008 Y16.8666
G01 X15.8937 Y16.8675
G01 X15.8879 Y16.8688
G01 X15.8734 Y16.8727
G01 X15.8532 Y16.8775
G01 X15.8390 Y16.8824
G01 X15.8010 Y16.8993
G01 X15.7878 Y16.9067
G01 X15.7708 Y16.9185
G01 X15.7544 Y16.9293
G01 X15.7418 Y16.9397
G01 X15.7242 Y16.9559
G01 X15.3859 Y17.2943
G01 X14.6400 Y17.2943
G01 X14.3017 Y16.9559
G01 X14.2859 Y16.9425
G01 X14.2706 Y16.9287
G01 X14.2582 Y16.9197
G01 X14.2406 Y16.9092
G01 X14.2278 Y16.9011
G01 X14.2227 Y16.8982
G01 X14.2090 Y16.8916
G01 X14.1707 Y16.8769
G01 X14.1556 Y16.8726
G01 X14.1357 Y16.8690
G01 X14.1159 Y16.8650
G01 X14.1005 Y16.8634
G01 X14.0761 Y16.8625
G01 X12.1243 Y16.8625
G01 X11.9424 Y16.7871
G01 X11.9283 Y16.7825
G01 X11.9147 Y16.7772
G01 X11.9017 Y16.7741
G01 X11.8883 Y16.7702
G01 X11.8738 Y16.7681
G01 X11.8604 Y16.7654
G01 X11.8332 Y16.7632
G01 X11.8203 Y16.7629
G01 X11.3131 Y16.7629
G01 X10.7858 Y16.2355
G01 X10.7858 Y15.4897
G01 X11.3131 Y14.9623
G01 X12.0590 Y14.9623
G01 X12.5863 Y15.4897
G01 X12.5864 Y15.6153
G01 X12.5906 Y15.6573
G01 X12.5930 Y15.6716
G01 X12.6045 Y15.7120
G01 X12.6092 Y15.7255
G01 X12.6117 Y15.7310
G01 X12.6200 Y15.7472
G01 X12.6278 Y15.7636
G01 X12.6351 Y15.7761
G01 X12.6636 Y15.8147
G01 X12.6733 Y15.8252
G01 X12.7044 Y15.8543
G01 X12.7156 Y15.8628
G01 X12.7509 Y15.8857
G01 X12.7638 Y15.8923
G01 X12.8018 Y15.9083
G01 X12.8164 Y15.9128
G01 X12.8576 Y15.9220
G01 X12.8699 Y15.9235
G01 X12.9052 Y15.9256
G01 X14.0761 Y15.9256
G01 X14.1172 Y15.9229
G01 X14.1324 Y15.9206
G01 X14.1383 Y15.9192
G01 X14.1525 Y15.9153
G01 X14.1727 Y15.9106
G01 X14.1799 Y15.9078
G01 X14.1869 Y15.9057
G01 X14.2245 Y15.8889
G01 X14.2382 Y15.8814
G01 X14.2431 Y15.8781
G01 X14.2550 Y15.8696
G01 X14.2716 Y15.8587
G01 X14.2841 Y15.8485
G01 X14.2909 Y15.8418
G01 X14.3017 Y15.8322
G01 X14.6400 Y15.4938
G01 X15.3859 Y15.4938
G01 X15.7242 Y15.8322
G01 X15.7399 Y15.8456
G01 X15.7550 Y15.8592
G01 X15.7678 Y15.8686
G01 X15.7727 Y15.8717
G01 X15.7854 Y15.8789
G01 X15.8029 Y15.8898
G01 X15.8168 Y15.8965
G01 X15.8360 Y15.9036
G01 X15.8551 Y15.9112
G01 X15.8701 Y15.9155
G01 X15.8905 Y15.9191
G01 X15.9052 Y15.9222
G01 X15.9255 Y15.9247
G01 X15.9497 Y15.9256
G01 X17.0228 Y15.9256
G01 X17.0372 Y15.9251
G01 X17.0734 Y15.9213
G01 X17.0877 Y15.9189
G01 X17.0934 Y15.9175
G01 X17.1334 Y15.9057
G01 X17.1471 Y15.9001
G01 X17.1632 Y15.8918
G01 X17.1794 Y15.8842
G01 X17.1846 Y15.8815
G01 X17.1968 Y15.8736
G01 X17.2261 Y15.8520
G01 X17.2308 Y15.8483
G01 X17.2413 Y15.8386
G01 X17.2663 Y15.8122
G01 X17.2755 Y15.8012
G01 X17.2989 Y15.7658
G01 X17.3057 Y15.7538
G01 X17.3226 Y15.7146
G01 X17.3274 Y15.7010
G01 X17.3370 Y15.6601
G01 X17.3381 Y15.6543
G01 X17.3397 Y15.6418
G01 X17.3417 Y15.6066
G01 X17.3417 Y14.6983
G01 X17.3412 Y14.6839
G01 X17.3367 Y14.6419
G01 X17.3335 Y14.6275
G01 X17.3220 Y14.5880
G01 X17.3163 Y14.5742
G01 X17.2975 Y14.5363
G01 X17.2897 Y14.5242
G01 X17.2644 Y14.4902
G01 X17.2547 Y14.4797
G01 X17.2283 Y14.4547
G01 X17.2177 Y14.4458
G01 X17.2124 Y14.4421
G01 X17.1771 Y14.4192
G01 X17.1642 Y14.4126
G01 X17.1307 Y14.3984
G01 X17.1179 Y14.3938
G01 X17.0762 Y14.3840
G01 X17.0704 Y14.3829
G01 X17.0579 Y14.3814
G01 X17.0228 Y14.3794
G01 X16.6875 Y14.3794
G01 X16.6235 Y14.3529
G01 X16.6096 Y14.3483
G01 X16.5958 Y14.3428
G01 X16.5825 Y14.3397
G01 X16.5697 Y14.3359
G01 X16.5639 Y14.3349
G01 X16.5549 Y14.3338
G01 X16.5460 Y14.3319
G01 X16.5368 Y14.3306
G01 X16.5134 Y14.3287
G01 X13.9700 Y14.3286
G01 X13.8071 Y14.2611
G01 X11.8096 Y12.2634
G01 X11.7938 Y12.2500
G01 X11.7783 Y12.2360
G01 X11.7720 Y12.2318
G01 X11.7663 Y12.2273
G01 X11.7483 Y12.2167
G01 X11.7357 Y12.2087
G01 X11.7310 Y12.2060
G01 X11.7169 Y12.1991
G01 X11.7118 Y12.1970
G01 X11.6976 Y12.1919
G01 X11.6785 Y12.1844
G01 X11.6640 Y12.1802
G01 X11.6434 Y12.1765
G01 X11.6286 Y12.1734
G01 X11.6077 Y12.1710
G01 X11.5840 Y12.1701
G01 X10.9258 Y12.1701
G01 X10.3390 Y11.5832
G01 X10.3390 Y10.9250
G01 X10.3374 Y10.9045
G01 X10.3369 Y10.8898
G01 X10.3363 Y10.8835
G01 X10.3349 Y10.8761
G01 X10.3340 Y10.8690
G01 X10.3327 Y10.8632
G01 X10.3288 Y10.8487
G01 X10.3240 Y10.8285
G01 X10.3191 Y10.8142
G01 X10.3022 Y10.7763
G01 X10.2948 Y10.7631
G01 X10.2830 Y10.7461
G01 X10.2722 Y10.7297
G01 X10.2618 Y10.7171
G01 X10.2456 Y10.6995
G01 X8.2078 Y8.6617
G01 X8.1403 Y8.4989
G01 X8.1403 Y6.4746
G01 X8.1377 Y6.4334
G01 X8.1352 Y6.4181
G01 X8.1255 Y6.3785
G01 X8.1204 Y6.3636
G01 X8.1118 Y6.3450
G01 X8.1061 Y6.3314
G01 X8.1034 Y6.3257
G01 X8.0931 Y6.3081
G01 X8.0844 Y6.2957
G01 X8.0760 Y6.2830
G01 X8.0631 Y6.2667
G01 X8.0469 Y6.2491
G01 X7.6831 Y5.8853
G01 X7.6831 Y5.1395
G01 X8.2105 Y4.6121
G01 X8.9563 Y4.6121
G01 X9.4837 Y5.1395
G01 X9.4837 Y5.8853
G01 X9.1198 Y6.2491
G01 X9.1064 Y6.2648
G01 X9.0928 Y6.2799
G01 X9.0834 Y6.2927
G01 X9.0731 Y6.3103
G01 X9.0652 Y6.3228
G01 X9.0622 Y6.3278
G01 X9.0555 Y6.3417
G01 X9.0533 Y6.3470
G01 X9.0483 Y6.3610
G01 X9.0408 Y6.3802
G01 X9.0390 Y6.3872
G01 X9.0367 Y6.3944
G01 X9.0329 Y6.4152
G01 X9.0298 Y6.4300
G01 X9.0285 Y6.4392
G01 X9.0274 Y6.4510
G01 X9.0265 Y6.4746
G01 X9.0265 Y8.0951
G01 X9.0291 Y8.1362
G01 X9.0314 Y8.1513
G01 X9.0367 Y8.1714
G01 X9.0414 Y8.1917
G01 X9.0442 Y8.1989
G01 X9.0463 Y8.2059
G01 X9.0549 Y8.2247
G01 X9.0608 Y8.2386
G01 X9.0632 Y8.2438
G01 X9.0706 Y8.2570
G01 X9.0738 Y8.2619
G01 X9.0824 Y8.2740
G01 X9.0932 Y8.2904
G01 X9.1069 Y8.3066
G01 X9.1198 Y8.3206
G01 X10.8721 Y10.0729
G01 X10.8879 Y10.0863
G01 X10.9032 Y10.1001
G01 X10.9156 Y10.1091
G01 X10.9332 Y10.1196
G01 X10.9460 Y10.1277
G01 X10.9507 Y10.1304
G01 X10.9648 Y10.1373
G01 X10.9701 Y10.1395
G01 X10.9841 Y10.1445
G01 X11.0032 Y10.1520
G01 X11.0179 Y10.1562
G01 X11.0383 Y10.1598
G01 X11.0575 Y10.1638
G01 X11.0740 Y10.1654
G01 X11.0977 Y10.1663
G01 X11.7559 Y10.1663
G01 X12.3427 Y10.7532
G01 X12.3427 Y11.4114
G01 X12.3443 Y11.4321
G01 X12.3450 Y11.4470
G01 X12.3454 Y11.4526
G01 X12.3477 Y11.4676
G01 X12.3491 Y11.4735
G01 X12.3530 Y11.4877
G01 X12.3576 Y11.5077
G01 X12.3626 Y11.5221
G01 X12.3795 Y11.5601
G01 X12.3869 Y11.5733
G01 X12.3987 Y11.5903
G01 X12.4068 Y11.6027
G01 X12.4095 Y11.6067
G01 X12.4199 Y11.6193
G01 X12.4361 Y11.6369
G01 X14.1482 Y13.3490
G01 X14.1640 Y13.3624
G01 X14.1793 Y13.3762
G01 X14.1917 Y13.3852
G01 X14.2093 Y13.3957
G01 X14.2221 Y13.4038
G01 X14.2272 Y13.4067
G01 X14.2339 Y13.4097
G01 X14.2404 Y13.4132
G01 X14.2793 Y13.4281
G01 X14.2943 Y13.4323
G01 X14.3142 Y13.4359
G01 X14.3336 Y13.4399
G01 X14.3501 Y13.4415
G01 X14.3738 Y13.4424
G01 X16.5014 Y13.4424
G01 X16.5161 Y13.4414
G01 X16.5308 Y13.4410
G01 X16.5441 Y13.4389
G01 X16.5579 Y13.4374
G01 X16.5721 Y13.4337
G01 X16.5855 Y13.4311
G01 X16.6124 Y13.4225
G01 X16.6875 Y13.3916
G01 X18.7525 Y13.3916
G01 X18.7639 Y13.3939
G01 X18.7690 Y13.3944
G01 X18.7922 Y13.3962
G01 X18.8040 Y13.3964
G01 X19.8091 Y13.3964
G01 X19.9198 Y13.5071
G01 X19.9198 Y14.2638
G01 X19.8826 Y14.3012
G01 X19.8558 Y14.3338
G01 X19.8523 Y14.3385
G01 X19.8447 Y14.3502
G01 X19.8245 Y14.3871
G01 X19.8188 Y14.4008
G01 X19.8071 Y14.4352
G01 X19.8032 Y14.4498
G01 X19.7969 Y14.4908
G01 X19.7956 Y14.5049
G01 X19.7956 Y14.5110
G01 X19.7966 Y14.5474
G01 X19.7980 Y14.5622
G01 X19.8063 Y14.6029
G01 X19.8100 Y14.6166
G01 X19.8122 Y14.6226
G01 X19.8280 Y14.6612
G01 X19.8348 Y14.6740
G01 X19.8541 Y14.7048
G01 X19.8574 Y14.7097
G01 X19.8652 Y14.7197
G01 X19.8886 Y14.7460
G01 X19.9198 Y14.7771
G01 X19.9198 Y15.5338
G01 X19.8826 Y15.5712
G01 X19.8523 Y15.6085
G01 X19.8446 Y15.6205
G01 X19.8360 Y15.6365
G01 X19.8270 Y15.6523
G01 X19.8206 Y15.6658
G01 X19.8055 Y15.7104
G01 X19.8023 Y15.7248
G01 X19.7969 Y15.7608
G01 X19.7956 Y15.7749
G01 X19.7956 Y15.7810
G01 X19.7966 Y15.8174
G01 X19.7980 Y15.8322
G01 X19.8063 Y15.8729
G01 X19.8100 Y15.8865
G01 X19.8258 Y15.9262
G01 X19.8323 Y15.9396
G01 X19.8448 Y15.9593
G01 X19.8540 Y15.9746
G01 X19.8573 Y15.9795
G01 X19.8652 Y15.9897
G01 X19.8886 Y16.0160
G01 X19.9198 Y16.0471
G01 X19.9198 Y16.3039
G01 X19.9210 Y16.3204
G01 X19.9215 Y16.3366
G01 X19.9235 Y16.3481
G01 X19.9248 Y16.3601
G01 X19.9289 Y16.3761
G01 X19.9323 Y16.3923
G01 X19.9364 Y16.4035
G01 X19.9397 Y16.4146
G01 X19.9464 Y16.4294
G01 X19.9502 Y16.4395
G01 X19.9526 Y16.4448
G01 X19.9587 Y16.4553
G01 X19.9641 Y16.4661
G01 X19.9733 Y16.4792
G01 X19.9820 Y16.4932
G01 X19.9898 Y16.5023
G01 X19.9967 Y16.5116
G01 X20.0084 Y16.5234
G01 X20.0195 Y16.5356
G01 X20.0287 Y16.5432
G01 X20.0375 Y16.5513
G01 X20.0510 Y16.5608
G01 X20.0637 Y16.5705
G01 X20.0741 Y16.5764
G01 X20.0844 Y16.5830
G01 X20.0894 Y16.5855
G01 X20.0991 Y16.5898
G01 X20.1135 Y16.5972
G01 X20.1251 Y16.6013
G01 X20.1363 Y16.6059
G01 X20.1518 Y16.6100
G01 X20.1675 Y16.6148
G01 X20.1791 Y16.6166
G01 X20.1909 Y16.6193
G01 X20.2072 Y16.6205
G01 X20.2235 Y16.6225
G01 X20.2354 Y16.6223
G01 X20.2474 Y16.6228
G01 X20.2639 Y16.6211
G01 X20.2746 Y16.6206
G01 X20.2800 Y16.6202
G01 X20.2915 Y16.6179
G01 X20.3037 Y16.6162
G01 X20.3193 Y16.6117
G01 X20.3352 Y16.6080
G01 X20.3464 Y16.6035
G01 X20.3578 Y16.5998
G01 X20.3724 Y16.5927
G01 X20.3874 Y16.5861
G01 X20.3976 Y16.5798
G01 X20.4081 Y16.5742
G01 X20.4213 Y16.5645
G01 X20.4341 Y16.5560
G01 X20.4533 Y16.5399
G01 X20.4643 Y16.5295
G01 X20.6689 Y16.3249
G01 X20.6962 Y16.2937
G01 X20.7052 Y16.2813
G01 X20.7155 Y16.2637
G01 X20.7266 Y16.2460
G01 X20.7332 Y16.2322
G01 X20.7479 Y16.1939
G01 X20.7522 Y16.1788
G01 X20.7558 Y16.1589
G01 X20.7598 Y16.1391
G01 X20.7614 Y16.1237
G01 X20.7623 Y16.0993
G01 X20.7623 Y9.0285
G01 X20.7612 Y9.0138
G01 X20.7609 Y8.9993
G01 X20.7588 Y8.9858
G01 X20.7572 Y8.9719
G01 X20.7536 Y8.9579
G01 X20.7510 Y8.9445
G01 X20.7425 Y8.9180
G01 X20.7369 Y8.9039
G01 X20.7369 Y8.7072
G01 X20.8121 Y8.5257
G01 X23.8865 Y5.4514
G01 X23.8962 Y5.4401
G01 X23.9062 Y5.4297
G01 X23.9141 Y5.4187
G01 X23.9228 Y5.4079
G01 X23.9303 Y5.3954
G01 X23.9379 Y5.3839
G01 X23.9509 Y5.3586
G01 X24.0580 Y5.1006
G01 X24.3398 Y4.8188
G01 X24.6441 Y4.6928
G01 X24.6586 Y4.6855
G01 X24.6735 Y4.6788
G01 X24.6836 Y4.6724
G01 X24.6941 Y4.6667
G01 X24.7072 Y4.6568
G01 X24.7207 Y4.6477
G01 X24.7296 Y4.6395
G01 X24.7389 Y4.6320
G01 X24.7500 Y4.6201
G01 X24.7618 Y4.6085
G01 X24.7690 Y4.5990
G01 X24.7767 Y4.5901
G01 X24.7855 Y4.5764
G01 X24.7918 Y4.5678
G01 X24.7950 Y4.5630
G01 X24.8006 Y4.5522
G01 X24.8067 Y4.5419
G01 X24.8129 Y4.5269
G01 X24.8198 Y4.5121
G01 X24.8233 Y4.5008
G01 X24.8275 Y4.4896
G01 X24.8311 Y4.4734
G01 X24.8352 Y4.4578
G01 X24.8367 Y4.4460
G01 X24.8389 Y4.4339
G01 X24.8393 Y4.4282
G01 X24.8395 Y4.4177
G01 X24.8409 Y4.4013
G01 X24.8402 Y4.3896
G01 X24.8403 Y4.3777
G01 X24.8380 Y4.3613
G01 X24.8365 Y4.3451
G01 X24.8337 Y4.3334
G01 X24.8316 Y4.3216
G01 X24.8266 Y4.3061
G01 X24.8239 Y4.2958
G01 X24.8222 Y4.2903
G01 X24.8173 Y4.2792
G01 X24.8131 Y4.2679
G01 X24.8055 Y4.2539
G01 X24.7986 Y4.2393
G01 X24.7917 Y4.2289
G01 X24.7856 Y4.2187
G01 X24.7755 Y4.2059
G01 X24.7657 Y4.1925
G01 X24.7576 Y4.1841
G01 X24.7500 Y4.1752
G01 X24.7377 Y4.1643
G01 X24.7258 Y4.1528
G01 X24.7161 Y4.1458
G01 X24.7070 Y4.1383
G01 X24.6927 Y4.1296
G01 X24.6838 Y4.1236
G01 X24.6759 Y4.1190
G01 X24.6584 Y4.1099
G01 X24.6441 Y4.1034
G01 X24.3398 Y3.9775
G01 X24.0580 Y3.6957
G01 X23.9024 Y3.3198
G01 X23.8957 Y3.3065
G01 X23.8898 Y3.2933
G01 X23.8828 Y3.2818
G01 X23.8760 Y3.2696
G01 X23.8674 Y3.2580
G01 X23.8597 Y3.2464
G01 X23.8416 Y3.2252
G01 X23.8332 Y3.2163
G01 X23.6596 Y3.0427
G01 X23.6439 Y3.0293
G01 X23.6284 Y3.0154
G01 X23.6223 Y3.0112
G01 X23.6163 Y3.0065
G01 X23.5984 Y2.9960
G01 X23.5809 Y2.9851
G01 X23.5670 Y2.9784
G01 X23.5478 Y2.9713
G01 X23.5282 Y2.9635
G01 X23.5210 Y2.9618
G01 X23.5142 Y2.9596
G01 X23.4934 Y2.9558
G01 X23.4788 Y2.9527
G01 X23.4576 Y2.9503
G01 X23.4341 Y2.9494
G01 X19.4372 Y2.9494
G01 X19.3961 Y2.9520
G01 X19.3810 Y2.9543
G01 X19.3609 Y2.9596
G01 X19.3406 Y2.9643
G01 X19.3334 Y2.9671
G01 X19.3264 Y2.9692
G01 X19.2885 Y2.9861
G01 X19.2753 Y2.9935
G01 X19.2583 Y3.0053
G01 X19.2419 Y3.0161
G01 X19.2292 Y3.0264
G01 X19.2117 Y3.0427
G01 X18.2786 Y3.9758
G01 X18.2515 Y4.0067
G01 X18.2423 Y4.0192
G01 X18.2393 Y4.0240
G01 X18.2318 Y4.0370
G01 X18.2210 Y4.0547
G01 X18.2143 Y4.0684
G01 X18.2072 Y4.0876
G01 X18.1996 Y4.1067
G01 X18.1953 Y4.1216
G01 X18.1917 Y4.1417
G01 X18.1877 Y4.1615
G01 X18.1861 Y4.1770
G01 X18.1852 Y4.2013
G01 X18.1852 Y4.6440
G01 X17.6579 Y5.1713
G01 X16.9120 Y5.1713
G01 X16.3847 Y4.6440
G01 X16.3847 Y3.8981
G01 X16.9120 Y3.3708
G01 X17.3547 Y3.3708
G01 X17.3753 Y3.3692
G01 X17.3962 Y3.3681
G01 X17.4036 Y3.3667
G01 X17.4107 Y3.3658
G01 X17.4310 Y3.3606
G01 X17.4457 Y3.3573
G01 X17.4515 Y3.3558
G01 X17.4585 Y3.3530
G01 X17.4655 Y3.3509
G01 X17.5034 Y3.3340
G01 X17.5166 Y3.3266
G01 X17.5336 Y3.3148
G01 X17.5500 Y3.3040
G01 X17.5623 Y3.2939
G01 X17.5802 Y3.2774
G01 X18.8208 Y2.0368
G01 X19.0023 Y1.9616
G01 X23.8690 Y1.9616
G01 X24.0505 Y2.0368
G01 X24.1556 Y2.1420
G01 X24.1599 Y2.1459
G01 X24.1917 Y2.1728
G01 X24.1981 Y2.1776
G01 X24.2039 Y2.1813
G01 X24.2402 Y2.2023
G01 X24.2535 Y2.2084
G01 X24.2929 Y2.2227
G01 X24.3020 Y2.2254
G01 X24.3482 Y2.2335
G01 X24.3552 Y2.2343
G01 X24.3630 Y2.2347
G01 X24.4048 Y2.2343
G01 X24.4134 Y2.2338
G01 X24.4605 Y2.2251
G01 X24.4691 Y2.2231
G01 X24.5033 Y2.2111
G01 X24.7080 Y2.1263
G01 X26.7323 Y2.1263
G01 X27.1005 Y2.2788
G01 X27.3625 Y2.5409
G01 X27.3934 Y2.5680
G01 X27.4061 Y2.5773
G01 X27.4237 Y2.5876
G01 X27.4412 Y2.5985
G01 X27.4551 Y2.6052
G01 X27.4743 Y2.6123
G01 X27.4879 Y2.6179
G01 X27.4934 Y2.6199
G01 X27.5084 Y2.6242
G01 X27.5139 Y2.6253
G01 X27.5287 Y2.6278
G01 X27.5433 Y2.6309
G01 X27.5638 Y2.6334
G01 X27.5880 Y2.6343
G01 X30.8917 Y2.6343
G01 X31.0732 Y2.7094
G01 X32.3655 Y4.0018
G01 X32.3964 Y4.0289
G01 X32.4089 Y4.0381
G01 X32.4137 Y4.0411
G01 X32.4267 Y4.0486
G01 X32.4444 Y4.0594
G01 X32.4509 Y4.0624
G01 X32.4577 Y4.0660
G01 X32.4966 Y4.0809
G01 X32.5114 Y4.0851
G01 X32.5315 Y4.0887
G01 X32.5507 Y4.0927
G01 X32.5673 Y4.0943
G01 X32.5910 Y4.0952
G01 X33.0337 Y4.0952
G01 X33.5610 Y4.6226
G01 X33.5610 Y5.0652
G01 X33.5637 Y5.1063
G01 X33.5660 Y5.1213
G01 X33.5673 Y5.1272
G01 X33.5712 Y5.1415
G01 X33.5760 Y5.1620
G01 X33.5788 Y5.1690
G01 X33.5809 Y5.1760
G01 X33.5977 Y5.2136
G01 X33.6052 Y5.2273
G01 X33.6171 Y5.2442
G01 X33.6278 Y5.2605
G01 X33.6381 Y5.2732
G01 X33.6448 Y5.2800
G01 X33.6544 Y5.2908
G01 X34.8445 Y6.4808
G01 X34.8576 Y6.5123
G01 X34.8641 Y6.5253
G01 X34.8700 Y6.5389
G01 X34.8773 Y6.5507
G01 X34.8838 Y6.5624
G01 X34.8925 Y6.5741
G01 X34.8976 Y6.5819
G01 X34.9032 Y6.5893
G01 X34.9181 Y6.6068
G01 X34.9266 Y6.6158
G01 X35.3261 Y7.0151
G01 X35.3261 Y7.7610
G01 X34.7987 Y8.2883
G01 X34.0529 Y8.2883
G01 X33.5255 Y7.7610
G01 X33.5255 Y7.0152
G01 X33.5379 Y7.0020
G01 X33.5649 Y6.9687
G01 X33.5725 Y6.9568
G01 X33.5925 Y6.9202
G01 X33.5981 Y6.9066
G01 X33.6114 Y6.8670
G01 X33.6146 Y6.8526
G01 X33.6200 Y6.8166
G01 X33.6213 Y6.8023
G01 X33.6203 Y6.7600
G01 X33.6189 Y6.7452
G01 X33.6091 Y6.6983
G01 X33.6048 Y6.6851
G01 X33.5890 Y6.6463
G01 X33.5820 Y6.6333
G01 X33.5596 Y6.5978
G01 X33.5517 Y6.5877
G01 X33.5283 Y6.5614
G01 X32.9560 Y5.9891
G01 X32.9403 Y5.9757
G01 X32.9248 Y5.9618
G01 X32.9187 Y5.9576
G01 X32.9127 Y5.9529
G01 X32.8948 Y5.9424
G01 X32.8773 Y5.9315
G01 X32.8634 Y5.9248
G01 X32.8442 Y5.9177
G01 X32.8246 Y5.9099
G01 X32.8174 Y5.9082
G01 X32.8106 Y5.9060
G01 X32.7898 Y5.9022
G01 X32.7752 Y5.8991
G01 X32.7542 Y5.8967
G01 X32.7305 Y5.8958
G01 X32.2878 Y5.8958
G01 X31.7605 Y5.3684
G01 X31.7605 Y4.9258
G01 X31.7578 Y4.8845
G01 X31.7555 Y4.8697
G01 X31.7542 Y4.8639
G01 X31.7503 Y4.8494
G01 X31.7455 Y4.8292
G01 X31.7405 Y4.8149
G01 X31.7237 Y4.7771
G01 X31.7163 Y4.7637
G01 X31.7045 Y4.7469
G01 X31.6937 Y4.7305
G01 X31.6833 Y4.7178
G01 X31.6671 Y4.7002
G01 X30.6823 Y3.7154
G01 X30.6511 Y3.6881
G01 X30.6450 Y3.6839
G01 X30.6391 Y3.6793
G01 X30.6033 Y3.6577
G01 X30.5964 Y3.6546
G01 X30.5899 Y3.6512
G01 X30.5705 Y3.6440
G01 X30.5566 Y3.6383
G01 X30.5513 Y3.6364
G01 X30.5362 Y3.6321
G01 X30.5163 Y3.6285
G01 X30.4965 Y3.6245
G01 X30.4811 Y3.6229
G01 X30.4567 Y3.6220
G01 X27.5880 Y3.6220
G01 X27.5675 Y3.6236
G01 X27.5465 Y3.6247
G01 X27.5391 Y3.6261
G01 X27.5320 Y3.6270
G01 X27.5117 Y3.6322
G01 X27.4970 Y3.6355
G01 X27.4915 Y3.6370
G01 X27.4772 Y3.6419
G01 X27.4393 Y3.6588
G01 X27.4261 Y3.6662
G01 X27.4091 Y3.6780
G01 X27.3927 Y3.6888
G01 X27.3801 Y3.6992
G01 X27.3625 Y3.7154
G01 X27.1005 Y3.9775
G01 X26.7962 Y4.1034
G01 X26.7815 Y4.1109
G01 X26.7668 Y4.1175
G01 X26.7567 Y4.1239
G01 X26.7462 Y4.1296
G01 X26.7331 Y4.1395
G01 X26.7196 Y4.1486
G01 X26.7107 Y4.1568
G01 X26.7014 Y4.1643
G01 X26.6903 Y4.1762
G01 X26.6787 Y4.1876
G01 X26.6713 Y4.1973
G01 X26.6635 Y4.2064
G01 X26.6548 Y4.2199
G01 X26.6485 Y4.2285
G01 X26.6453 Y4.2333
G01 X26.6397 Y4.2441
G01 X26.6336 Y4.2544
G01 X26.6275 Y4.2692
G01 X26.6204 Y4.2840
G01 X26.6169 Y4.2957
G01 X26.6127 Y4.3068
G01 X26.6092 Y4.3227
G01 X26.6063 Y4.3327
G01 X26.6049 Y4.3386
G01 X26.6035 Y4.3507
G01 X26.6014 Y4.3624
G01 X26.6008 Y4.3786
G01 X26.5994 Y4.3946
G01 X26.6001 Y4.4067
G01 X26.6000 Y4.4190
G01 X26.6023 Y4.4349
G01 X26.6038 Y4.4511
G01 X26.6066 Y4.4629
G01 X26.6087 Y4.4747
G01 X26.6137 Y4.4902
G01 X26.6164 Y4.5005
G01 X26.6181 Y4.5060
G01 X26.6229 Y4.5169
G01 X26.6271 Y4.5283
G01 X26.6349 Y4.5426
G01 X26.6417 Y4.5570
G01 X26.6486 Y4.5674
G01 X26.6548 Y4.5778
G01 X26.6648 Y4.5903
G01 X26.6709 Y4.5990
G01 X26.6743 Y4.6035
G01 X26.6826 Y4.6122
G01 X26.6905 Y4.6213
G01 X26.7027 Y4.6321
G01 X26.7144 Y4.6434
G01 X26.7240 Y4.6503
G01 X26.7335 Y4.6581
G01 X26.7387 Y4.6614
G01 X26.7475 Y4.6665
G01 X26.7601 Y4.6750
G01 X26.7825 Y4.6867
G01 X26.7962 Y4.6928
G01 X27.1005 Y4.8188
G01 X27.3823 Y5.1006
G01 X27.5348 Y5.4688
G01 X27.5348 Y5.8675
G01 X27.3823 Y6.2357
G01 X27.1005 Y6.5175
G01 X26.7813 Y6.6500
G01 X26.7425 Y6.6703
G01 X26.7347 Y6.6751
G01 X26.6970 Y6.7043
G01 X26.6909 Y6.7096
G01 X26.6586 Y6.7453
G01 X26.6538 Y6.7512
G01 X26.6278 Y6.7929
G01 X26.6249 Y6.7981
G01 X26.6222 Y6.8040
G01 X26.6054 Y6.8463
G01 X26.6023 Y6.8571
G01 X26.5927 Y6.9059
G01 X26.5922 Y6.9125
G01 X26.5912 Y6.9568
G01 X26.5921 Y6.9690
G01 X26.6000 Y7.0185
G01 X26.6018 Y7.0247
G01 X26.6162 Y7.0665
G01 X26.6214 Y7.0779
G01 X26.6428 Y7.1161
G01 X26.6467 Y7.1224
G01 X26.6500 Y7.1267
G01 X26.6780 Y7.1607
G01 X26.6822 Y7.1654
G01 X26.7201 Y7.1981
G01 X26.7253 Y7.2021
G01 X26.7306 Y7.2055
G01 X26.7685 Y7.2275
G01 X26.7783 Y7.2323
G01 X26.8110 Y7.2450
G01 X26.9175 Y7.2796
G01 X27.0580 Y7.3513
G01 X27.1857 Y7.4440
G01 X27.2971 Y7.5554
G01 X27.3898 Y7.6831
G01 X27.4615 Y7.8236
G01 X27.4828 Y7.8892
G01 X27.3505 Y7.8892
G01 X27.3430 Y7.8691
G01 X27.3088 Y7.7970
G01 X27.3058 Y7.7913
G01 X27.2648 Y7.7229
G01 X27.2613 Y7.7176
G01 X27.2137 Y7.6535
G01 X27.2097 Y7.6486
G01 X27.1561 Y7.5894
G01 X27.1516 Y7.5849
G01 X27.0924 Y7.5313
G01 X27.0875 Y7.5273
G01 X27.0234 Y7.4797
G01 X27.0181 Y7.4762
G01 X26.9497 Y7.4352
G01 X26.9440 Y7.4322
G01 X26.8719 Y7.3980
G01 X26.8660 Y7.3956
G01 X26.7909 Y7.3687
G01 X26.7848 Y7.3669
G01 X26.7073 Y7.3475
G01 X26.7011 Y7.3462
G01 X26.6221 Y7.3345
G01 X26.6158 Y7.3339
G01 X26.5329 Y7.3299
G01 X24.9073 Y7.3299
G01 X24.8244 Y7.3339
G01 X24.8181 Y7.3345
G01 X24.7391 Y7.3462
G01 X24.7329 Y7.3475
G01 X24.6554 Y7.3669
G01 X24.6493 Y7.3687
G01 X24.5742 Y7.3956
G01 X24.5683 Y7.3980
G01 X24.4962 Y7.4322
G01 X24.4905 Y7.4352
G01 X24.4221 Y7.4762
G01 X24.4168 Y7.4797
G01 X24.3527 Y7.5273
G01 X24.3478 Y7.5313
G01 X24.2886 Y7.5849
G01 X24.2841 Y7.5894
G01 X24.2305 Y7.6486
G01 X24.2265 Y7.6535
G01 X24.1789 Y7.7176
G01 X24.1754 Y7.7229
G01 X24.1344 Y7.7913
G01 X24.1314 Y7.7970
G01 X24.0972 Y7.8691
G01 X24.0897 Y7.8892
G01 X23.9575 Y7.8892
G01 X23.9788 Y7.8236
G01 X24.0505 Y7.6831
G01 X24.1432 Y7.5554
G01 X24.2546 Y7.4440
G01 X24.3823 Y7.3513
G01 X24.5228 Y7.2796
G01 X24.6308 Y7.2446
G01 X24.6761 Y7.2254
G01 X24.6828 Y7.2220
G01 X24.6871 Y7.2195
G01 X24.7267 Y7.1933
G01 X24.7338 Y7.1874
G01 X24.7657 Y7.1570
G01 X24.7709 Y7.1516
G01 X24.8000 Y7.1122
G01 X24.8040 Y7.1062
G01 X24.8260 Y7.0616
G01 X24.8287 Y7.0553
G01 X24.8437 Y7.0030
G01 X24.8448 Y6.9958
G01 X24.8493 Y6.9519
G01 X24.8496 Y6.9452
G01 X24.8494 Y6.9392
G01 X24.8456 Y6.8914
G01 X24.8440 Y6.8831
G01 X24.8329 Y6.8404
G01 X24.8309 Y6.8339
G01 X24.8103 Y6.7887
G01 X24.8072 Y6.7829
G01 X24.8040 Y6.7778
G01 X24.7788 Y6.7417
G01 X24.7749 Y6.7366
G01 X24.7707 Y6.7321
G01 X24.7358 Y6.6975
G01 X24.7301 Y6.6931
G01 X24.6889 Y6.6649
G01 X24.6564 Y6.6488
G01 X24.4500 Y6.5631
G01 X24.4446 Y6.5612
G01 X24.4048 Y6.5485
G01 X24.3958 Y6.5462
G01 X24.3490 Y6.5397
G01 X24.3421 Y6.5391
G01 X24.3341 Y6.5391
G01 X24.2924 Y6.5411
G01 X24.2851 Y6.5417
G01 X24.2777 Y6.5430
G01 X24.2371 Y6.5522
G01 X24.2278 Y6.5549
G01 X24.1796 Y6.5755
G01 X24.1715 Y6.5800
G01 X24.1320 Y6.6061
G01 X24.1282 Y6.6091
G01 X24.1024 Y6.6322
G01 X21.7889 Y8.9462
G01 X21.7792 Y8.9577
G01 X21.7653 Y8.9732
G01 X21.7564 Y8.9853
G01 X21.7459 Y9.0032
G01 X21.7350 Y9.0207
G01 X21.7283 Y9.0346
G01 X21.7212 Y9.0538
G01 X21.7136 Y9.0729
G01 X21.7093 Y9.0881
G01 X21.7057 Y9.1080
G01 X21.7017 Y9.1278
G01 X21.7001 Y9.1432
G01 X21.6992 Y9.1676
G01 X21.6992 Y16.5187
G01 X21.6279 Y16.6909
G01 X20.1903 Y18.1286
G01 X20.1630 Y18.1617
G01 X20.1549 Y18.1731
G01 X20.1340 Y18.2105
G01 X20.1280 Y18.2233
G01 X20.1143 Y18.2631
G01 X20.1105 Y18.2771
G01 X20.1040 Y18.3185
G01 X20.1028 Y18.3331
G01 X20.1037 Y18.3751
G01 X20.1050 Y18.3895
G01 X20.1135 Y18.4308
G01 X20.1175 Y18.4453
G01 X20.1328 Y18.4838
G01 X20.1394 Y18.4975
G01 X20.1613 Y18.5328
G01 X20.1646 Y18.5377
G01 X20.1724 Y18.5477
G01 X20.1958 Y18.5740
G01 X21.3899 Y19.7681
G01 X21.4010 Y19.7776
G01 X21.4117 Y19.7879
G01 X21.4227 Y19.7958
G01 X21.4332 Y19.8043
G01 X21.4461 Y19.8119
G01 X21.4574 Y19.8195
G01 X21.4819 Y19.8322
G01 X21.4961 Y19.8384
G01 X21.6279 Y19.9701
G01 X21.6992 Y20.1423
G01 X21.6992 Y23.0843
G01 X21.7019 Y23.1254
G01 X21.7042 Y23.1404
G01 X21.7094 Y23.1607
G01 X21.7127 Y23.1754
G01 X21.7143 Y23.1811
G01 X21.7170 Y23.1881
G01 X21.7191 Y23.1951
G01 X21.7359 Y23.2327
G01 X21.7434 Y23.2464
G01 X21.7552 Y23.2632
G01 X21.7661 Y23.2798
G01 X21.7763 Y23.2923
G01 X21.7830 Y23.2991
G01 X21.7926 Y23.3099
G01 X22.8045 Y24.3218
G01 X22.8355 Y24.3489
G01 X22.8480 Y24.3581
G01 X22.8657 Y24.3685
G01 X22.8783 Y24.3765
G01 X22.8834 Y24.3795
G01 X22.8902 Y24.3825
G01 X22.8968 Y24.3860
G01 X22.9025 Y24.3884
G01 X22.9165 Y24.3934
G01 X22.9357 Y24.4009
G01 X22.9504 Y24.4051
G01 X22.9705 Y24.4087
G01 X22.9899 Y24.4127
G01 X23.0064 Y24.4143
G01 X23.0301 Y24.4152
G01 X23.5087 Y24.4152
G01 X24.0360 Y24.9426
G01 X24.0360 Y25.6884
G01 X23.4335 Y26.2908
G01 X23.4229 Y26.3032
G01 X23.4117 Y26.3151
G01 X23.4049 Y26.3247
G01 X23.3973 Y26.3341
G01 X23.3889 Y26.3483
G01 X23.3801 Y26.3618
G01 X23.3749 Y26.3727
G01 X23.3691 Y26.3836
G01 X23.3635 Y26.3987
G01 X23.3572 Y26.4135
G01 X23.3541 Y26.4252
G01 X23.3503 Y26.4367
G01 X23.3474 Y26.4527
G01 X23.3437 Y26.4685
G01 X23.3427 Y26.4807
G01 X23.3411 Y26.4927
G01 X23.3411 Y26.5088
G01 X23.3403 Y26.5251
G01 X23.3414 Y26.5368
G01 X23.3418 Y26.5489
G01 X23.3447 Y26.5651
G01 X23.3468 Y26.5810
G01 X23.3500 Y26.5925
G01 X23.3525 Y26.6045
G01 X23.3582 Y26.6199
G01 X23.3632 Y26.6353
G01 X23.3684 Y26.6462
G01 X23.3730 Y26.6573
G01 X23.3811 Y26.6712
G01 X23.3889 Y26.6858
G01 X23.3960 Y26.6955
G01 X23.4024 Y26.7056
G01 X23.4129 Y26.7178
G01 X23.4228 Y26.7306
G01 X23.4318 Y26.7393
G01 X23.4400 Y26.7481
G01 X23.4523 Y26.7582
G01 X23.4646 Y26.7692
G01 X23.4746 Y26.7757
G01 X23.4840 Y26.7830
G01 X23.4984 Y26.7910
G01 X23.5124 Y26.7996
G01 X23.5235 Y26.8043
G01 X23.5340 Y26.8097
G01 X23.5493 Y26.8149
G01 X23.5591 Y26.8190
G01 X23.5646 Y26.8210
G01 X23.5765 Y26.8238
G01 X23.5879 Y26.8272
G01 X23.6037 Y26.8296
G01 X23.6189 Y26.8328
G01 X23.6440 Y26.8349
G01 X23.6591 Y26.8353
G01 X25.7354 Y26.8352
G01 X25.7772 Y26.8310
G01 X25.7915 Y26.8286
G01 X25.7972 Y26.8272
G01 X25.8146 Y26.8218
G01 X25.8319 Y26.8171
G01 X25.8419 Y26.8136
G01 X25.8506 Y26.8099
G01 X25.8835 Y26.7938
G01 X25.8885 Y26.7911
G01 X25.9006 Y26.7833
G01 X25.9346 Y26.7580
G01 X25.9451 Y26.7483
G01 X25.9737 Y26.7178
G01 X25.9826 Y26.7062
G01 X26.0027 Y26.6755
G01 X26.0095 Y26.6635
G01 X26.0122 Y26.6578
G01 X26.0264 Y26.6243
G01 X26.0312 Y26.6107
G01 X26.0408 Y26.5698
G01 X26.0429 Y26.5570
G01 X26.0455 Y26.5164
G01 X26.0455 Y26.2126
G01 X26.3585 Y25.8996
G01 X26.3719 Y25.8839
G01 X26.3821 Y25.8728
G01 X26.3856 Y25.8687
G01 X26.3949 Y25.8560
G01 X26.4052 Y25.8384
G01 X26.4161 Y25.8209
G01 X26.4228 Y25.8070
G01 X26.4299 Y25.7878
G01 X26.4355 Y25.7742
G01 X26.4375 Y25.7687
G01 X26.4418 Y25.7537
G01 X26.4454 Y25.7336
G01 X26.4494 Y25.7140
G01 X26.4510 Y25.6983
G01 X26.4519 Y25.6741
G01 X26.4519 Y25.0172
G01 X26.4516 Y25.0113
G01 X26.4503 Y24.9965
G01 X26.4492 Y24.9759
G01 X26.4469 Y24.9611
G01 X26.4417 Y24.9408
G01 X26.4384 Y24.9261
G01 X26.4368 Y24.9204
G01 X26.4341 Y24.9134
G01 X26.4320 Y24.9064
G01 X26.4151 Y24.8685
G01 X26.4077 Y24.8551
G01 X26.3959 Y24.8383
G01 X26.3851 Y24.8219
G01 X26.3747 Y24.8092
G01 X26.3585 Y24.7916
G01 X23.6548 Y22.0879
G01 X23.6391 Y22.0745
G01 X23.6236 Y22.0606
G01 X23.6175 Y22.0564
G01 X23.6115 Y22.0517
G01 X23.5936 Y22.0412
G01 X23.5761 Y22.0303
G01 X23.5622 Y22.0236
G01 X23.5430 Y22.0165
G01 X23.5294 Y22.0109
G01 X23.5234 Y22.0087
G01 X23.5162 Y22.0070
G01 X23.5094 Y22.0048
G01 X23.5034 Y22.0035
G01 X23.4886 Y22.0010
G01 X23.4740 Y21.9979
G01 X23.4528 Y21.9955
G01 X23.4293 Y21.9946
G01 X22.6524 Y21.9946
G01 X22.5417 Y21.8838
G01 X22.5417 Y21.1271
G01 X22.5789 Y21.0898
G01 X22.6057 Y21.0572
G01 X22.6092 Y21.0525
G01 X22.6169 Y21.0405
G01 X22.6371 Y21.0037
G01 X22.6427 Y20.9902
G01 X22.6544 Y20.9558
G01 X22.6582 Y20.9415
G01 X22.6646 Y20.9002
G01 X22.6659 Y20.8861
G01 X22.6659 Y20.8800
G01 X22.6646 Y20.8383
G01 X22.6626 Y20.8237
G01 X22.6587 Y20.8060
G01 X22.6552 Y20.7881
G01 X22.6537 Y20.7819
G01 X22.6493 Y20.7685
G01 X22.6336 Y20.7300
G01 X22.6266 Y20.7169
G01 X22.6167 Y20.7016
G01 X22.6074 Y20.6863
G01 X22.5996 Y20.6753
G01 X22.5729 Y20.6449
G01 X22.5417 Y20.6138
G01 X22.5417 Y19.8571
G01 X22.5790 Y19.8197
G01 X22.6055 Y19.7874
G01 X22.6092 Y19.7826
G01 X22.6168 Y19.7706
G01 X22.6371 Y19.7337
G01 X22.6427 Y19.7201
G01 X22.6483 Y19.7029
G01 X22.6544 Y19.6859
G01 X22.6583 Y19.6712
G01 X22.6646 Y19.6302
G01 X22.6659 Y19.6161
G01 X22.6659 Y19.6100
G01 X22.6646 Y19.5683
G01 X22.6626 Y19.5537
G01 X22.6587 Y19.5360
G01 X22.6552 Y19.5181
G01 X22.6537 Y19.5119
G01 X22.6493 Y19.4985
G01 X22.6333 Y19.4593
G01 X22.6267 Y19.4470
G01 X22.6169 Y19.4318
G01 X22.6074 Y19.4162
G01 X22.5996 Y19.4053
G01 X22.5729 Y19.3749
G01 X22.5417 Y19.3438
G01 X22.5417 Y18.5871
G01 X22.5790 Y18.5497
G01 X22.6055 Y18.5174
G01 X22.6139 Y18.5057
G01 X22.6171 Y18.5002
G01 X22.6371 Y18.4637
G01 X22.6427 Y18.4501
G01 X22.6483 Y18.4329
G01 X22.6544 Y18.4159
G01 X22.6584 Y18.4008
G01 X22.6646 Y18.3602
G01 X22.6659 Y18.3458
G01 X22.6659 Y18.3399
G01 X22.6649 Y18.3035
G01 X22.6635 Y18.2888
G01 X22.6552 Y18.2480
G01 X22.6537 Y18.2418
G01 X22.6493 Y18.2285
G01 X22.6423 Y18.2118
G01 X22.6357 Y18.1948
G01 X22.6333 Y18.1893
G01 X22.6268 Y18.1772
G01 X22.6044 Y18.1418
G01 X22.5963 Y18.1312
G01 X22.5806 Y18.1135
G01 X22.5546 Y18.0685
G01 X22.5417 Y18.0204
G01 X22.5417 Y18.0144
G01 X22.6685 Y18.0144
G01 X22.6706 Y18.0204
G01 X22.6734 Y18.0261
G01 X22.6767 Y18.0316
G01 X22.6805 Y18.0367
G01 X22.6847 Y18.0415
G01 X22.6895 Y18.0457
G01 X22.6946 Y18.0495
G01 X22.7001 Y18.0528
G01 X22.7058 Y18.0556
G01 X22.7118 Y18.0577
G01 X22.7180 Y18.0593
G01 X22.7243 Y18.0602
G01 X22.7307 Y18.0605
G01 X24.9307 Y18.0605
G01 X24.9371 Y18.0602
G01 X24.9434 Y18.0593
G01 X24.9496 Y18.0577
G01 X24.9556 Y18.0556
G01 X24.9613 Y18.0528
G01 X24.9668 Y18.0495
G01 X24.9719 Y18.0457
G01 X24.9767 Y18.0415
G01 X24.9809 Y18.0367
G01 X24.9847 Y18.0316
G01 X24.9880 Y18.0261
G01 X24.9908 Y18.0204
G01 X24.9929 Y18.0144
G01 X25.1198 Y18.0144
G01 X25.1198 Y18.0204
G01 X25.1036 Y18.0810
G01 X25.0994 Y18.0899
G01 X25.0956 Y18.0999
G01 X25.0840 Y18.1445
G01 X25.0829 Y18.1498
G01 X25.0813 Y18.1612
G01 X25.0785 Y18.2007
G01 X25.0783 Y18.2074
G01 X25.0789 Y18.2181
G01 X25.0840 Y18.2636
G01 X25.0864 Y18.2739
G01 X25.0992 Y18.3169
G01 X25.1037 Y18.3275
G01 X25.1213 Y18.3630
G01 X25.1261 Y18.3711
G01 X25.1303 Y18.3776
G01 X25.1536 Y18.4090
G01 X25.1574 Y18.4137
G01 X25.1653 Y18.4220
G01 X25.1978 Y18.4524
G01 X25.2075 Y18.4595
G01 X25.2402 Y18.4809
G01 X25.2453 Y18.4840
G01 X25.2557 Y18.4890
G01 X25.2918 Y18.5043
G01 X25.2977 Y18.5065
G01 X25.3082 Y18.5095
G01 X25.3527 Y18.5193
G01 X25.3621 Y18.5204
G01 X25.3972 Y18.5224
G01 X26.0264 Y18.5224
G01 X26.0411 Y18.5214
G01 X26.0558 Y18.5210
G01 X26.0691 Y18.5189
G01 X26.0829 Y18.5174
G01 X26.0971 Y18.5137
G01 X26.1105 Y18.5111
G01 X26.1374 Y18.5025
G01 X26.2125 Y18.4716
G01 X26.4090 Y18.4716
G01 X26.5905 Y18.5468
G01 X27.1849 Y19.1413
G01 X27.2161 Y19.1686
G01 X27.2285 Y19.1776
G01 X27.2461 Y19.1879
G01 X27.2638 Y19.1990
G01 X27.2776 Y19.2056
G01 X27.2968 Y19.2127
G01 X27.3158 Y19.2203
G01 X27.3310 Y19.2246
G01 X27.3511 Y19.2282
G01 X27.3659 Y19.2313
G01 X27.3751 Y19.2326
G01 X27.3861 Y19.2338
G01 X27.4065 Y19.2346
G01 X28.0480 Y19.2347
G01 X28.5753 Y19.7620
G01 X28.5753 Y20.2047
G01 X28.5769 Y20.2252
G01 X28.5780 Y20.2462
G01 X28.5794 Y20.2536
G01 X28.5803 Y20.2607
G01 X28.5816 Y20.2665
G01 X28.5855 Y20.2810
G01 X28.5901 Y20.3008
G01 X28.5952 Y20.3157
G01 X28.6038 Y20.3343
G01 X28.6095 Y20.3479
G01 X28.6122 Y20.3536
G01 X28.6225 Y20.3712
G01 X28.6312 Y20.3836
G01 X28.6396 Y20.3963
G01 X28.6525 Y20.4126
G01 X28.6687 Y20.4302
G01 X32.0002 Y23.7617
G01 X32.0311 Y23.7888
G01 X32.0436 Y23.7980
G01 X32.0791 Y23.8193
G01 X32.0856 Y23.8223
G01 X32.0924 Y23.8259
G01 X32.0981 Y23.8283
G01 X32.1121 Y23.8333
G01 X32.1313 Y23.8408
G01 X32.1460 Y23.8450
G01 X32.1664 Y23.8486
G01 X32.1855 Y23.8526
G01 X32.2022 Y23.8542
G01 X32.2257 Y23.8551
G01 X37.9023 Y23.8551
G01 X37.9740 Y23.8848
G01 X37.9880 Y23.8895
G01 X38.0018 Y23.8948
G01 X38.0147 Y23.8979
G01 X38.0281 Y23.9018
G01 X38.0426 Y23.9039
G01 X38.0560 Y23.9066
G01 X38.0841 Y23.9089
G01 X38.6374 Y23.9091
G01 X39.1647 Y24.4365
G01 X39.1647 Y25.1823
G01 X38.6374 Y25.7097
G01 X37.8915 Y25.7097
G01 X37.3642 Y25.1823
G01 X37.3641 Y25.1531
G01 X37.3592 Y25.1054
G01 X37.3561 Y25.0912
G01 X37.3442 Y25.0507
G01 X37.3387 Y25.0376
G01 X37.3201 Y24.9999
G01 X37.3122 Y24.9877
G01 X37.2906 Y24.9584
G01 X37.2811 Y24.9472
G01 X37.2508 Y24.9182
G01 X37.2402 Y24.9093
G01 X37.1996 Y24.8827
G01 X37.1870 Y24.8764
G01 X37.1476 Y24.8598
G01 X37.1344 Y24.8558
G01 X37.0929 Y24.8464
G01 X37.0804 Y24.8449
G01 X37.0452 Y24.8429
G01 X31.7908 Y24.8429
G01 X31.6093 Y24.7677
G01 X27.9703 Y21.1286
G01 X27.9546 Y21.1152
G01 X27.9435 Y21.1050
G01 X27.9394 Y21.1015
G01 X27.9269 Y21.0923
G01 X27.9221 Y21.0893
G01 X27.9091 Y21.0818
G01 X27.8914 Y21.0710
G01 X27.8777 Y21.0643
G01 X27.8585 Y21.0572
G01 X27.8394 Y21.0496
G01 X27.8244 Y21.0453
G01 X27.8042 Y21.0417
G01 X27.7845 Y21.0377
G01 X27.7690 Y21.0361
G01 X27.7448 Y21.0352
G01 X27.3021 Y21.0352
G01 X26.7748 Y20.5079
G01 X26.7748 Y20.2600
G01 X26.7721 Y20.2188
G01 X26.7698 Y20.2038
G01 X26.7645 Y20.1837
G01 X26.7599 Y20.1637
G01 X26.7549 Y20.1492
G01 X26.7380 Y20.1113
G01 X26.7306 Y20.0981
G01 X26.7188 Y20.0811
G01 X26.7107 Y20.0687
G01 X26.7080 Y20.0647
G01 X26.6976 Y20.0521
G01 X26.6814 Y20.0345
G01 X26.1488 Y19.5019
G01 X26.1331 Y19.4885
G01 X26.1223 Y19.4785
G01 X26.1176 Y19.4746
G01 X26.1115 Y19.4704
G01 X26.1055 Y19.4657
G01 X26.1003 Y19.4624
G01 X26.0876 Y19.4552
G01 X26.0701 Y19.4443
G01 X26.0562 Y19.4376
G01 X26.0509 Y19.4354
G01 X26.0370 Y19.4305
G01 X26.0174 Y19.4227
G01 X26.0102 Y19.4210
G01 X26.0034 Y19.4188
G01 X25.9826 Y19.4150
G01 X25.9680 Y19.4119
G01 X25.9468 Y19.4095
G01 X25.9233 Y19.4086
G01 X25.4306 Y19.4086
G01 X25.3884 Y19.4127
G01 X25.3817 Y19.4137
G01 X25.3684 Y19.4167
G01 X25.3334 Y19.4267
G01 X25.3197 Y19.4316
G01 X25.2821 Y19.4499
G01 X25.2769 Y19.4526
G01 X25.2647 Y19.4605
G01 X25.2354 Y19.4821
G01 X25.2244 Y19.4913
G01 X25.1916 Y19.5260
G01 X25.1827 Y19.5376
G01 X25.1626 Y19.5683
G01 X25.1557 Y19.5804
G01 X25.1531 Y19.5861
G01 X25.1463 Y19.6029
G01 X25.1390 Y19.6194
G01 X25.1341 Y19.6332
G01 X25.1234 Y19.6798
G01 X25.1218 Y19.6923
G01 X25.1198 Y19.7275
G01 X25.1198 Y20.6138
G01 X25.0826 Y20.6512
G01 X25.0558 Y20.6838
G01 X25.0523 Y20.6885
G01 X25.0447 Y20.7002
G01 X25.0245 Y20.7371
G01 X25.0188 Y20.7508
G01 X25.0071 Y20.7852
G01 X25.0032 Y20.7998
G01 X24.9969 Y20.8408
G01 X24.9956 Y20.8549
G01 X24.9956 Y20.8610
G01 X24.9966 Y20.8974
G01 X24.9980 Y20.9122
G01 X25.0063 Y20.9529
G01 X25.0100 Y20.9666
G01 X25.0122 Y20.9726
G01 X25.0280 Y21.0112
G01 X25.0348 Y21.0240
G01 X25.0541 Y21.0548
G01 X25.0574 Y21.0597
G01 X25.0652 Y21.0697
G01 X25.0886 Y21.0960
G01 X25.1198 Y21.1271
G01 X25.1198 Y21.9755
G01 X25.1167 Y21.9955
G01 X25.1161 Y22.0102
G01 X25.1171 Y22.0468
G01 X25.1184 Y22.0608
G01 X25.1282 Y22.1081
G01 X25.1327 Y22.1217
G01 X25.1396 Y22.1383
G01 X25.1461 Y22.1552
G01 X25.1522 Y22.1681
G01 X25.1555 Y22.1737
G01 X25.1778 Y22.2090
G01 X25.1857 Y22.2192
G01 X25.2091 Y22.2455
G01 X27.3644 Y24.4007
G01 X27.4396 Y24.5822
G01 X27.4396 Y25.6741
G01 X27.4423 Y25.7153
G01 X27.4446 Y25.7301
G01 X27.4498 Y25.7504
G01 X27.4531 Y25.7651
G01 X27.4546 Y25.7706
G01 X27.4595 Y25.7849
G01 X27.4764 Y25.8228
G01 X27.4838 Y25.8360
G01 X27.4956 Y25.8530
G01 X27.5037 Y25.8654
G01 X27.5064 Y25.8694
G01 X27.5168 Y25.8820
G01 X27.5330 Y25.8996
G01 X27.8460 Y26.2126
G01 X27.8460 Y26.9584
G01 X27.3187 Y27.4858
G01 X26.8760 Y27.4858
G01 X26.8348 Y27.4884
G01 X26.8198 Y27.4907
G01 X26.7997 Y27.4960
G01 X26.7794 Y27.5007
G01 X26.7650 Y27.5057
G01 X26.7464 Y27.5143
G01 X26.7328 Y27.5200
G01 X26.7275 Y27.5225
G01 X26.7141 Y27.5299
G01 X26.6971 Y27.5417
G01 X26.6807 Y27.5525
G01 X26.6681 Y27.5629
G01 X26.6505 Y27.5791
G01 X26.4819 Y27.7478
G01 X26.3003 Y27.8230
G01 X19.3362 Y27.8230
G01 X19.1546 Y27.7478
G01 X19.0157 Y27.6089
G01 X18.9893 Y27.5450
G01 X18.9826 Y27.5316
G01 X18.9766 Y27.5181
G01 X18.9696 Y27.5068
G01 X18.9631 Y27.4949
G01 X18.9542 Y27.4829
G01 X18.9492 Y27.4753
G01 X18.9436 Y27.4679
G01 X18.9285 Y27.4502
G01 X18.9201 Y27.4414
G01 X16.6122 Y25.1334
G01 X16.5812 Y25.1063
G01 X16.5686 Y25.0971
G01 X16.5510 Y25.0868
G01 X16.5333 Y25.0757
G01 X16.5195 Y25.0691
G01 X16.5003 Y25.0620
G01 X16.4867 Y25.0564
G01 X16.4808 Y25.0542
G01 X16.4735 Y25.0525
G01 X16.4666 Y25.0502
G01 X16.4608 Y25.0490
G01 X16.4460 Y25.0465
G01 X16.4312 Y25.0434
G01 X16.4108 Y25.0410
G01 X16.3866 Y25.0400
G01 X15.7355 Y25.0400
G01 X15.1486 Y24.4532
G01 X15.1486 Y23.6232
G01 X15.7355 Y23.0363
G01 X16.5655 Y23.0363
G01 X17.1524 Y23.6232
G01 X17.1524 Y24.2884
G01 X17.1539 Y24.3089
G01 X17.1546 Y24.3240
G01 X17.1550 Y24.3296
G01 X17.1573 Y24.3446
G01 X17.1587 Y24.3505
G01 X17.1626 Y24.3647
G01 X17.1672 Y24.3847
G01 X17.1722 Y24.3992
G01 X17.1891 Y24.4371
G01 X17.1965 Y24.4503
G01 X17.2083 Y24.4673
G01 X17.2191 Y24.4837
G01 X17.2295 Y24.4963
G01 X17.2457 Y24.5139
G01 X19.4737 Y26.7419
G01 X19.5049 Y26.7692
G01 X19.5170 Y26.7781
G01 X19.5349 Y26.7886
G01 X19.5474 Y26.7965
G01 X19.5524 Y26.7995
G01 X19.5663 Y26.8062
G01 X19.5855 Y26.8133
G01 X19.6046 Y26.8209
G01 X19.6198 Y26.8252
G01 X19.6397 Y26.8288
G01 X19.6543 Y26.8319
G01 X19.6595 Y26.8328
G01 X19.6749 Y26.8344
G01 X19.6993 Y26.8353
G01 X20.0724 Y26.8353
G01 X20.0889 Y26.8341
G01 X20.1051 Y26.8336
G01 X20.1166 Y26.8316
G01 X20.1286 Y26.8303
G01 X20.1446 Y26.8262
G01 X20.1608 Y26.8228
G01 X20.1720 Y26.8187
G01 X20.1831 Y26.8154
G01 X20.1979 Y26.8087
G01 X20.2080 Y26.8049
G01 X20.2133 Y26.8025
G01 X20.2238 Y26.7964
G01 X20.2346 Y26.7910
G01 X20.2477 Y26.7818
G01 X20.2617 Y26.7731
G01 X20.2708 Y26.7653
G01 X20.2803 Y26.7583
G01 X20.2919 Y26.7467
G01 X20.3040 Y26.7357
G01 X20.3117 Y26.7264
G01 X20.3198 Y26.7176
G01 X20.3293 Y26.7041
G01 X20.3391 Y26.6911
G01 X20.3448 Y26.6810
G01 X20.3514 Y26.6710
G01 X20.3583 Y26.6560
G01 X20.3633 Y26.6467
G01 X20.3659 Y26.6413
G01 X20.3698 Y26.6300
G01 X20.3743 Y26.6191
G01 X20.3785 Y26.6033
G01 X20.3833 Y26.5876
G01 X20.3851 Y26.5760
G01 X20.3878 Y26.5642
G01 X20.3890 Y26.5479
G01 X20.3910 Y26.5316
G01 X20.3908 Y26.5193
G01 X20.3912 Y26.5073
G01 X20.3896 Y26.4915
G01 X20.3886 Y26.4751
G01 X20.3863 Y26.4633
G01 X20.3847 Y26.4516
G01 X20.3803 Y26.4360
G01 X20.3780 Y26.4256
G01 X20.3765 Y26.4199
G01 X20.3720 Y26.4087
G01 X20.3683 Y26.3973
G01 X20.3612 Y26.3827
G01 X20.3546 Y26.3677
G01 X20.3483 Y26.3575
G01 X20.3427 Y26.3470
G01 X20.3330 Y26.3338
G01 X20.3244 Y26.3208
G01 X20.3145 Y26.3095
G01 X20.3087 Y26.3021
G01 X20.2980 Y26.2908
G01 X19.6955 Y25.6884
G01 X19.6955 Y25.6344
G01 X19.8242 Y25.6344
G01 X19.8272 Y25.6407
G01 X19.8305 Y25.6462
G01 X19.8343 Y25.6513
G01 X19.8385 Y25.6561
G01 X20.2551 Y26.0727
G01 X20.2599 Y26.0769
G01 X20.2650 Y26.0807
G01 X20.2705 Y26.0840
G01 X20.2762 Y26.0868
G01 X20.2822 Y26.0889
G01 X20.2884 Y26.0904
G01 X20.2947 Y26.0914
G01 X20.3011 Y26.0917
G01 X20.8903 Y26.0917
G01 X20.8967 Y26.0914
G01 X20.9030 Y26.0904
G01 X20.9092 Y26.0889
G01 X20.9152 Y26.0868
G01 X20.9209 Y26.0840
G01 X20.9264 Y26.0807
G01 X20.9315 Y26.0769
G01 X20.9363 Y26.0727
G01 X21.3529 Y25.6561
G01 X21.3571 Y25.6513
G01 X21.3609 Y25.6462
G01 X21.3642 Y25.6407
G01 X21.3672 Y25.6344
G01 X21.4960 Y25.6344
G01 X21.4960 Y25.6884
G01 X20.8935 Y26.2908
G01 X20.8829 Y26.3032
G01 X20.8717 Y26.3151
G01 X20.8649 Y26.3247
G01 X20.8573 Y26.3341
G01 X20.8489 Y26.3483
G01 X20.8401 Y26.3618
G01 X20.8349 Y26.3727
G01 X20.8291 Y26.3836
G01 X20.8269 Y26.3889
G01 X20.8235 Y26.3987
G01 X20.8172 Y26.4135
G01 X20.8141 Y26.4252
G01 X20.8103 Y26.4367
G01 X20.8074 Y26.4527
G01 X20.8037 Y26.4685
G01 X20.8027 Y26.4807
G01 X20.8011 Y26.4927
G01 X20.8011 Y26.5088
G01 X20.8003 Y26.5251
G01 X20.8014 Y26.5368
G01 X20.8018 Y26.5489
G01 X20.8027 Y26.5548
G01 X20.8047 Y26.5651
G01 X20.8068 Y26.5810
G01 X20.8100 Y26.5925
G01 X20.8125 Y26.6045
G01 X20.8182 Y26.6199
G01 X20.8232 Y26.6353
G01 X20.8284 Y26.6462
G01 X20.8330 Y26.6573
G01 X20.8411 Y26.6712
G01 X20.8489 Y26.6858
G01 X20.8560 Y26.6955
G01 X20.8624 Y26.7056
G01 X20.8729 Y26.7178
G01 X20.8828 Y26.7306
G01 X20.8918 Y26.7393
G01 X20.9000 Y26.7481
G01 X20.9123 Y26.7582
G01 X20.9200 Y26.7653
G01 X20.9246 Y26.7692
G01 X20.9346 Y26.7757
G01 X20.9440 Y26.7830
G01 X20.9584 Y26.7910
G01 X20.9724 Y26.7996
G01 X20.9835 Y26.8043
G01 X20.9940 Y26.8097
G01 X21.0093 Y26.8149
G01 X21.0246 Y26.8210
G01 X21.0365 Y26.8238
G01 X21.0479 Y26.8272
G01 X21.0637 Y26.8296
G01 X21.0789 Y26.8328
G01 X21.1040 Y26.8349
G01 X21.1191 Y26.8353
G01 X22.6124 Y26.8353
G01 X22.6289 Y26.8341
G01 X22.6451 Y26.8336
G01 X22.6566 Y26.8316
G01 X22.6686 Y26.8303
G01 X22.6846 Y26.8262
G01 X22.7008 Y26.8228
G01 X22.7120 Y26.8187
G01 X22.7231 Y26.8154
G01 X22.7379 Y26.8087
G01 X22.7533 Y26.8025
G01 X22.7638 Y26.7964
G01 X22.7746 Y26.7910
G01 X22.7877 Y26.7818
G01 X22.8017 Y26.7731
G01 X22.8108 Y26.7653
G01 X22.8203 Y26.7583
G01 X22.8319 Y26.7467
G01 X22.8440 Y26.7357
G01 X22.8517 Y26.7264
G01 X22.8598 Y26.7176
G01 X22.8693 Y26.7041
G01 X22.8791 Y26.6911
G01 X22.8848 Y26.6810
G01 X22.8914 Y26.6710
G01 X22.8983 Y26.6560
G01 X22.9059 Y26.6413
G01 X22.9098 Y26.6300
G01 X22.9143 Y26.6191
G01 X22.9185 Y26.6033
G01 X22.9233 Y26.5876
G01 X22.9251 Y26.5760
G01 X22.9278 Y26.5642
G01 X22.9290 Y26.5479
G01 X22.9310 Y26.5316
G01 X22.9308 Y26.5193
G01 X22.9312 Y26.5073
G01 X22.9296 Y26.4915
G01 X22.9292 Y26.4810
G01 X22.9286 Y26.4751
G01 X22.9263 Y26.4633
G01 X22.9247 Y26.4516
G01 X22.9203 Y26.4360
G01 X22.9165 Y26.4199
G01 X22.9120 Y26.4087
G01 X22.9083 Y26.3973
G01 X22.9012 Y26.3827
G01 X22.8946 Y26.3677
G01 X22.8883 Y26.3575
G01 X22.8827 Y26.3470
G01 X22.8730 Y26.3338
G01 X22.8644 Y26.3208
G01 X22.8545 Y26.3095
G01 X22.8487 Y26.3021
G01 X22.8380 Y26.2908
G01 X22.2355 Y25.6884
G01 X22.2355 Y25.2098
G01 X22.2328 Y25.1686
G01 X22.2305 Y25.1538
G01 X22.2253 Y25.1335
G01 X22.2220 Y25.1188
G01 X22.2205 Y25.1133
G01 X22.2156 Y25.0990
G01 X22.2134 Y25.0937
G01 X22.2070 Y25.0802
G01 X22.1987 Y25.0611
G01 X22.1913 Y25.0479
G01 X22.1795 Y25.0309
G01 X22.1687 Y25.0145
G01 X22.1583 Y25.0019
G01 X22.1421 Y24.9843
G01 X22.0363 Y24.8789
G01 X22.0281 Y24.8720
G01 X22.0163 Y24.8609
G01 X22.0066 Y24.8540
G01 X21.9972 Y24.8465
G01 X21.9830 Y24.8380
G01 X21.9693 Y24.8292
G01 X21.9588 Y24.8243
G01 X21.9480 Y24.8183
G01 X21.9424 Y24.8160
G01 X21.9326 Y24.8126
G01 X21.9175 Y24.8062
G01 X21.9058 Y24.8032
G01 X21.8949 Y24.7995
G01 X21.8786 Y24.7965
G01 X21.8626 Y24.7929
G01 X21.8509 Y24.7919
G01 X21.8390 Y24.7902
G01 X21.8225 Y24.7902
G01 X21.8062 Y24.7894
G01 X21.7945 Y24.7905
G01 X21.7824 Y24.7909
G01 X21.7662 Y24.7938
G01 X21.7499 Y24.7960
G01 X21.7385 Y24.7992
G01 X21.7268 Y24.8017
G01 X21.7117 Y24.8073
G01 X21.7018 Y24.8103
G01 X21.6959 Y24.8123
G01 X21.6851 Y24.8176
G01 X21.6741 Y24.8221
G01 X21.6599 Y24.8304
G01 X21.6457 Y24.8379
G01 X21.6360 Y24.8449
G01 X21.6257 Y24.8515
G01 X21.6133 Y24.8621
G01 X21.6006 Y24.8721
G01 X21.5922 Y24.8808
G01 X21.5834 Y24.8889
G01 X21.5730 Y24.9016
G01 X21.5621 Y24.9138
G01 X21.5557 Y24.9235
G01 X21.5483 Y24.9332
G01 X21.5403 Y24.9477
G01 X21.5318 Y24.9615
G01 X21.5270 Y24.9725
G01 X21.5216 Y24.9832
G01 X21.5170 Y24.9965
G01 X21.3671 Y24.9965
G01 X21.3642 Y24.9903
G01 X21.3609 Y24.9848
G01 X21.3571 Y24.9797
G01 X21.3529 Y24.9749
G01 X20.9363 Y24.5583
G01 X20.9315 Y24.5541
G01 X20.9264 Y24.5503
G01 X20.9209 Y24.5470
G01 X20.9147 Y24.5441
G01 X20.9147 Y24.3950
G01 X20.9288 Y24.3885
G01 X20.9441 Y24.3823
G01 X20.9544 Y24.3763
G01 X20.9648 Y24.3711
G01 X20.9783 Y24.3618
G01 X20.9921 Y24.3531
G01 X21.0012 Y24.3454
G01 X21.0111 Y24.3380
G01 X21.0225 Y24.3266
G01 X21.0346 Y24.3156
G01 X21.0423 Y24.3063
G01 X21.0503 Y24.2976
G01 X21.0598 Y24.2842
G01 X21.0697 Y24.2711
G01 X21.0755 Y24.2608
G01 X21.0821 Y24.2506
G01 X21.0888 Y24.2360
G01 X21.0964 Y24.2213
G01 X21.1003 Y24.2100
G01 X21.1049 Y24.1992
G01 X21.1091 Y24.1832
G01 X21.1123 Y24.1732
G01 X21.1139 Y24.1676
G01 X21.1157 Y24.1558
G01 X21.1183 Y24.1442
G01 X21.1196 Y24.1277
G01 X21.1215 Y24.1114
G01 X21.1213 Y24.0996
G01 X21.1218 Y24.0877
G01 X21.1202 Y24.0715
G01 X21.1193 Y24.0551
G01 X21.1169 Y24.0432
G01 X21.1153 Y24.0317
G01 X21.1108 Y24.0157
G01 X21.1070 Y23.9999
G01 X21.1027 Y23.9888
G01 X21.0989 Y23.9772
G01 X21.0965 Y23.9721
G01 X21.0918 Y23.9627
G01 X21.0853 Y23.9478
G01 X21.0790 Y23.9376
G01 X21.0732 Y23.9268
G01 X21.0635 Y23.9136
G01 X21.0550 Y23.9008
G01 X21.0452 Y23.8895
G01 X21.0393 Y23.8820
G01 X21.0286 Y23.8707
G01 X20.8336 Y23.6759
G01 X20.7623 Y23.5037
G01 X20.7623 Y20.5257
G01 X20.7596 Y20.4846
G01 X20.7573 Y20.4697
G01 X20.7521 Y20.4494
G01 X20.7488 Y20.4347
G01 X20.7473 Y20.4289
G01 X20.7445 Y20.4219
G01 X20.7424 Y20.4149
G01 X20.7402 Y20.4096
G01 X20.7338 Y20.3961
G01 X20.7255 Y20.3770
G01 X20.7182 Y20.3640
G01 X20.6980 Y20.3341
G01 X20.6851 Y20.3178
G01 X20.6689 Y20.3002
G01 X20.4643 Y20.0956
G01 X20.4520 Y20.0850
G01 X20.4400 Y20.0737
G01 X20.4302 Y20.0667
G01 X20.4210 Y20.0594
G01 X20.4070 Y20.0510
G01 X20.3930 Y20.0420
G01 X20.3824 Y20.0370
G01 X20.3718 Y20.0312
G01 X20.3564 Y20.0255
G01 X20.3414 Y20.0191
G01 X20.3300 Y20.0161
G01 X20.3186 Y20.0123
G01 X20.3024 Y20.0094
G01 X20.2863 Y20.0057
G01 X20.2744 Y20.0048
G01 X20.2628 Y20.0031
G01 X20.2568 Y20.0029
G01 X20.2463 Y20.0031
G01 X20.2300 Y20.0023
G01 X20.2183 Y20.0034
G01 X20.2062 Y20.0038
G01 X20.1900 Y20.0067
G01 X20.1737 Y20.0089
G01 X20.1623 Y20.0121
G01 X20.1509 Y20.0146
G01 X20.1355 Y20.0202
G01 X20.1195 Y20.0253
G01 X20.1089 Y20.0305
G01 X20.0981 Y20.0349
G01 X20.0837 Y20.0432
G01 X20.0693 Y20.0509
G01 X20.0598 Y20.0578
G01 X20.0495 Y20.0644
G01 X20.0371 Y20.0750
G01 X20.0244 Y20.0850
G01 X20.0160 Y20.0937
G01 X20.0072 Y20.1018
G01 X20.0035 Y20.1061
G01 X19.9968 Y20.1145
G01 X19.9859 Y20.1267
G01 X19.9795 Y20.1364
G01 X19.9721 Y20.1461
G01 X19.9641 Y20.1605
G01 X19.9556 Y20.1743
G01 X19.9508 Y20.1855
G01 X19.9454 Y20.1961
G01 X19.9402 Y20.2114
G01 X19.9342 Y20.2265
G01 X19.9313 Y20.2385
G01 X19.9279 Y20.2499
G01 X19.9255 Y20.2657
G01 X19.9223 Y20.2809
G01 X19.9202 Y20.3060
G01 X19.9198 Y20.3211
G01 X19.9198 Y20.6138
G01 X19.8826 Y20.6512
G01 X19.8558 Y20.6838
G01 X19.8523 Y20.6885
G01 X19.8446 Y20.7005
G01 X19.8246 Y20.7370
G01 X19.8188 Y20.7508
G01 X19.8055 Y20.7904
G01 X19.8023 Y20.8048
G01 X19.7969 Y20.8408
G01 X19.7956 Y20.8549
G01 X19.7966 Y20.8974
G01 X19.7980 Y20.9122
G01 X19.7989 Y20.9173
G01 X19.8063 Y20.9529
G01 X19.8100 Y20.9665
G01 X19.8258 Y21.0062
G01 X19.8323 Y21.0196
G01 X19.8573 Y21.0595
G01 X19.8652 Y21.0697
G01 X19.8859 Y21.0931
G01 X19.9198 Y21.1271
G01 X19.9198 Y21.8838
G01 X19.8091 Y21.9946
G01 X17.4377 Y21.9946
G01 X17.4210 Y21.9842
G01 X17.4072 Y21.9776
G01 X17.3684 Y21.9627
G01 X17.3612 Y21.9610
G01 X17.3543 Y21.9587
G01 X17.3337 Y21.9550
G01 X17.3189 Y21.9519
G01 X17.2980 Y21.9495
G01 X17.2743 Y21.9486
G01 X16.2526 Y21.9486
G01 X16.0898 Y21.8811
G01 X15.4775 Y21.2687
G01 X15.4618 Y21.2553
G01 X15.4463 Y21.2414
G01 X15.4341 Y21.2325
G01 X15.3991 Y21.2114
G01 X15.3849 Y21.2044
G01 X15.3796 Y21.2022
G01 X15.3656 Y21.1972
G01 X15.3464 Y21.1897
G01 X15.3394 Y21.1879
G01 X15.3319 Y21.1855
G01 X15.3113 Y21.1819
G01 X15.2923 Y21.1779
G01 X15.2755 Y21.1763
G01 X15.2520 Y21.1754
G01 X13.3221 Y21.1754
G01 X13.2810 Y21.1780
G01 X13.2655 Y21.1805
G01 X13.2257 Y21.1903
G01 X13.2111 Y21.1953
G01 X13.1925 Y21.2039
G01 X13.1738 Y21.2119
G01 X13.1598 Y21.2198
G01 X13.1432 Y21.2313
G01 X13.1264 Y21.2424
G01 X13.1144 Y21.2523
G01 X13.0996 Y21.2658
G01 X11.8691 Y22.4962
G01 X11.8593 Y22.5067
G01 X11.8363 Y22.5350
G01 X11.8282 Y22.5464
G01 X11.8073 Y22.5838
G01 X11.8013 Y22.5966
G01 X11.7859 Y22.6418
G01 X11.7827 Y22.6561
G01 X11.7773 Y22.6922
G01 X11.7761 Y22.7064
G01 X11.7770 Y22.7484
G01 X11.7774 Y22.7546
G01 X11.7794 Y22.7688
G01 X11.7834 Y22.7864
G01 X11.7868 Y22.8041
G01 X11.7907 Y22.8185
G01 X11.8062 Y22.8574
G01 X11.8086 Y22.8629
G01 X11.8152 Y22.8750
G01 X11.8379 Y22.9110
G01 X11.8457 Y22.9210
G01 X11.8691 Y22.9473
G01 X15.1486 Y26.2268
G01 X15.1644 Y26.2402
G01 X15.1752 Y26.2502
G01 X15.1797 Y26.2540
G01 X15.1921 Y26.2630
G01 X15.2097 Y26.2735
G01 X15.2225 Y26.2816
G01 X15.2276 Y26.2845
G01 X15.2343 Y26.2875
G01 X15.2408 Y26.2910
G01 X15.2464 Y26.2933
G01 X15.2606 Y26.2984
G01 X15.2797 Y26.3059
G01 X15.2947 Y26.3101
G01 X15.3146 Y26.3137
G01 X15.3340 Y26.3177
G01 X15.3505 Y26.3193
G01 X15.3742 Y26.3202
G01 X15.8887 Y26.3202
G01 X16.4160 Y26.8476
G01 X16.4160 Y27.5934
G01 X16.0208 Y27.9885
G01 X16.0106 Y28.0004
G01 X16.0001 Y28.0115
G01 X15.9928 Y28.0216
G01 X15.9846 Y28.0318
G01 X15.9814 Y28.0368
G01 X15.9766 Y28.0453
G01 X15.9681 Y28.0583
G01 X15.9627 Y28.0697
G01 X15.9565 Y28.0809
G01 X15.9511 Y28.0955
G01 X15.9451 Y28.1095
G01 X15.9416 Y28.1222
G01 X15.9375 Y28.1345
G01 X15.9348 Y28.1495
G01 X15.9313 Y28.1646
G01 X15.9301 Y28.1776
G01 X15.9284 Y28.1902
G01 X15.9283 Y28.2055
G01 X15.9275 Y28.2210
G01 X15.9287 Y28.2339
G01 X15.9291 Y28.2467
G01 X15.9318 Y28.2619
G01 X15.9329 Y28.2718
G01 X15.9338 Y28.2773
G01 X15.9371 Y28.2895
G01 X15.9398 Y28.3022
G01 X15.9453 Y28.3168
G01 X15.9498 Y28.3314
G01 X15.9554 Y28.3431
G01 X15.9603 Y28.3549
G01 X15.9680 Y28.3682
G01 X15.9752 Y28.3820
G01 X15.9828 Y28.3925
G01 X15.9897 Y28.4033
G01 X15.9996 Y28.4149
G01 X16.0091 Y28.4272
G01 X16.0185 Y28.4363
G01 X16.0272 Y28.4457
G01 X16.0391 Y28.4554
G01 X16.0506 Y28.4659
G01 X16.0612 Y28.4729
G01 X16.0713 Y28.4806
G01 X16.0763 Y28.4837
G01 X16.0849 Y28.4882
G01 X16.0982 Y28.4965
G01 X16.1101 Y28.5017
G01 X16.1214 Y28.5074
G01 X16.1358 Y28.5124
G01 X16.1502 Y28.5182
G01 X16.1627 Y28.5212
G01 X16.1751 Y28.5250
G01 X16.1905 Y28.5273
G01 X16.2047 Y28.5302
G01 X16.2311 Y28.5326
G01 X16.2447 Y28.5330
G01 X41.8482 Y28.6679
G01 X41.8639 Y28.6666
G01 X41.8856 Y28.6654
G01 X41.8992 Y28.6633
G01 X41.9197 Y28.6581
G01 X41.9351 Y28.6547
G01 X41.9407 Y28.6531
G01 X41.9535 Y28.6488
G01 X41.9729 Y28.6400
G01 X41.9875 Y28.6339
G01 X41.9932 Y28.6312
G01 X42.0047 Y28.6248
G01 X42.0396 Y28.6012
G01 X42.0511 Y28.5920
G01 X42.0581 Y28.5851
G01 X42.0667 Y28.5775
G01 X43.7081 Y26.9365
G01 X43.7215 Y26.9206
G01 X43.7354 Y26.9052
G01 X43.7396 Y26.8991
G01 X43.7442 Y26.8932
G01 X43.7548 Y26.8752
G01 X43.7628 Y26.8626
G01 X43.7655 Y26.8579
G01 X43.7724 Y26.8438
G01 X43.7746 Y26.8385
G01 X43.7796 Y26.8245
G01 X43.7871 Y26.8054
G01 X43.7913 Y26.7909
G01 X43.7950 Y26.7703
G01 X43.7981 Y26.7555
G01 X43.8005 Y26.7346
G01 X43.8014 Y26.7109
G01 X43.8014 Y26.2323
G01 X44.3288 Y25.7050
G01 X45.0746 Y25.7050
G01 X45.6020 Y26.2323
G01 X45.6020 Y26.9782
G01 X45.0746 Y27.5055
G01 X44.5961 Y27.5055
G01 X44.5550 Y27.5082
G01 X44.5398 Y27.5105
G01 X44.5339 Y27.5119
G01 X44.5197 Y27.5158
G01 X44.4995 Y27.5205
G01 X44.4923 Y27.5233
G01 X44.4853 Y27.5254
G01 X44.4477 Y27.5422
G01 X44.4340 Y27.5497
G01 X44.4172 Y27.5615
G01 X44.4008 Y27.5723
G01 X44.3878 Y27.5829
G01 X44.3813 Y27.5893
G01 X44.3705 Y27.5989
G01 X42.6091 Y29.3603
G01 X42.6016 Y29.3690
G01 X42.4997 Y29.4698
G01 X42.4331 Y29.5364
G01 X42.3458 Y29.5719
G01 X42.2606 Y29.6072
G01 X42.1680 Y29.6068
G01 X42.0293 Y29.6068
G01 X42.0222 Y29.6061
G01 X42.0117 Y29.6059
G01 X12.9753 Y29.4527
G01 X12.8813 Y29.4527
G01 X12.7960 Y29.4168
G01 X12.7092 Y29.3809
G01 X12.5777 Y29.2487
G01 X12.5068 Y29.0762
G01 X12.5073 Y28.9821
G01 X12.5073 Y28.1573
G01 X12.5046 Y28.1162
G01 X12.5023 Y28.1012
G01 X12.4923 Y28.0605
G01 X12.4895 Y28.0535
G01 X12.4874 Y28.0465
G01 X12.4788 Y28.0277
G01 X12.4729 Y28.0138
G01 X12.4706 Y28.0089
G01 X12.4631 Y27.9952
G01 X12.4513 Y27.9784
G01 X12.4404 Y27.9618
G01 X12.4302 Y27.9493
G01 X12.4235 Y27.9425
G01 X12.4139 Y27.9317
G01 X12.2645 Y27.7823
G01 X12.2488 Y27.7689
G01 X12.2331 Y27.7548
G01 X12.2272 Y27.7508
G01 X12.2215 Y27.7463
G01 X12.2160 Y27.7428
G01 X12.2033 Y27.7356
G01 X12.1858 Y27.7247
G01 X12.1719 Y27.7180
G01 X12.1527 Y27.7109
G01 X12.1331 Y27.7031
G01 X12.1257 Y27.7013
G01 X12.1189 Y27.6991
G01 X12.0983 Y27.6954
G01 X12.0835 Y27.6923
G01 X12.0626 Y27.6899
G01 X12.0389 Y27.6890
G01 X7.1675 Y27.6890
G01 X6.9954 Y27.6176
G01 X3.4529 Y24.0752
G01 X3.3816 Y23.9030
G01 X3.3816 Y20.0530
G01 X3.3800 Y20.0324
G01 X3.3789 Y20.0116
G01 X3.3775 Y20.0041
G01 X3.3766 Y19.9969
G01 X3.3753 Y19.9910
G01 X3.3714 Y19.9767
G01 X3.3666 Y19.9562
G01 X3.3638 Y19.9492
G01 X3.3617 Y19.9422
G01 X3.3531 Y19.9234
G01 X3.3472 Y19.9095
G01 X3.3449 Y19.9046
G01 X3.3374 Y19.8909
G01 X3.3341 Y19.8860
G01 X3.3256 Y19.8741
G01 X3.3147 Y19.8575
G01 X3.3045 Y19.8450
G01 X3.2978 Y19.8382
G01 X3.2882 Y19.8274
G01 X2.9498 Y19.4891
G01 X2.9498 Y18.7433
G01 X3.4771 Y18.2159
G01 X4.2230 Y18.2159
G01 X4.7503 Y18.7433
G01 X4.7503 Y19.4891
G01 X4.4119 Y19.8274
G01 X4.3985 Y19.8431
G01 X4.3847 Y19.8584
G01 X4.3756 Y19.8710
G01 X4.3653 Y19.8886
G01 X4.3542 Y19.9063
G01 X4.3476 Y19.9201
G01 X4.3405 Y19.9393
G01 X4.3349 Y19.9529
G01 X4.3329 Y19.9583
G01 X4.3286 Y19.9735
G01 X4.3275 Y19.9788
G01 X4.3250 Y19.9936
G01 X4.3219 Y20.0084
G01 X4.3194 Y20.0286
G01 X4.3185 Y20.0530
G01 X4.3185 Y23.4836
G01 X4.3212 Y23.5247
G01 X4.3235 Y23.5399
G01 X4.3288 Y23.5600
G01 X4.3335 Y23.5802
G01 X4.3363 Y23.5874
G01 X4.3384 Y23.5944
G01 X4.3470 Y23.6132
G01 X4.3528 Y23.6271
G01 X4.3553 Y23.6323
G01 X4.3627 Y23.6457
G01 X4.3745 Y23.6625
G01 X4.3853 Y23.6789
G01 X4.3959 Y23.6919
G01 X4.4023 Y23.6984
G01 X4.4119 Y23.7092
G01 X7.3613 Y26.6586
G01 X7.3923 Y26.6857
G01 X7.4048 Y26.6949
G01 X7.4402 Y26.7163
G01 X7.4470 Y26.7193
G01 X7.4536 Y26.7228
G01 X7.4593 Y26.7252
G01 X7.4733 Y26.7302
G01 X7.4925 Y26.7377
G01 X7.5072 Y26.7419
G01 X7.5127 Y26.7430
G01 X7.5273 Y26.7455
G01 X7.5467 Y26.7495
G01 X7.5632 Y26.7511
G01 X7.5869 Y26.7520
G01 X12.0389 Y26.7520
G01 X12.0802 Y26.7494
G01 X12.0955 Y26.7469
G01 X12.1353 Y26.7371
G01 X12.1498 Y26.7322
G01 X12.1685 Y26.7235
G01 X12.1822 Y26.7178
G01 X12.1879 Y26.7151
G01 X12.2055 Y26.7048
G01 X12.2179 Y26.6961
G01 X12.2306 Y26.6877
G01 X12.2469 Y26.6748
G01 X12.2645 Y26.6586
G01 X12.6028 Y26.3202
G01 X13.2189 Y26.3202
G01 X13.2351 Y26.3191
G01 X13.2515 Y26.3186
G01 X13.2635 Y26.3165
G01 X13.2754 Y26.3151
G01 X13.2809 Y26.3139
G01 X13.2911 Y26.3111
G01 X13.3070 Y26.3078
G01 X13.3182 Y26.3038
G01 X13.3298 Y26.3003
G01 X13.3447 Y26.2935
G01 X13.3598 Y26.2874
G01 X13.3703 Y26.2813
G01 X13.3809 Y26.2760
G01 X13.3942 Y26.2668
G01 X13.4082 Y26.2580
G01 X13.4173 Y26.2502
G01 X13.4268 Y26.2431
G01 X13.4384 Y26.2316
G01 X13.4506 Y26.2205
G01 X13.4582 Y26.2113
G01 X13.4663 Y26.2025
G01 X13.4698 Y26.1979
G01 X13.4757 Y26.1891
G01 X13.4855 Y26.1763
G01 X13.4914 Y26.1658
G01 X13.4979 Y26.1557
G01 X13.5048 Y26.1409
G01 X13.5122 Y26.1265
G01 X13.5163 Y26.1150
G01 X13.5209 Y26.1039
G01 X13.5250 Y26.0882
G01 X13.5298 Y26.0726
G01 X13.5316 Y26.0608
G01 X13.5342 Y26.0492
G01 X13.5355 Y26.0329
G01 X13.5375 Y26.0167
G01 X13.5373 Y26.0046
G01 X13.5378 Y25.9927
G01 X13.5361 Y25.9762
G01 X13.5352 Y25.9602
G01 X13.5328 Y25.9482
G01 X13.5311 Y25.9363
G01 X13.5268 Y25.9210
G01 X13.5230 Y25.9048
G01 X13.5185 Y25.8935
G01 X13.5148 Y25.8822
G01 X13.5077 Y25.8677
G01 X13.5012 Y25.8528
G01 X13.4949 Y25.8426
G01 X13.4891 Y25.8318
G01 X13.4795 Y25.8188
G01 X13.4711 Y25.8060
G01 X13.4549 Y25.7867
G01 X13.4445 Y25.7757
G01 X10.4982 Y22.8294
G01 X10.4824 Y22.8160
G01 X10.4669 Y22.8020
G01 X10.4606 Y22.7978
G01 X10.4549 Y22.7933
G01 X10.4370 Y22.7828
G01 X10.4245 Y22.7748
G01 X10.4193 Y22.7717
G01 X10.4055 Y22.7651
G01 X10.3671 Y22.7504
G01 X10.3526 Y22.7462
G01 X10.3468 Y22.7450
G01 X10.3320 Y22.7425
G01 X10.3172 Y22.7394
G01 X10.2963 Y22.7370
G01 X10.2726 Y22.7361
G01 X9.6439 Y22.7361
G01 X9.6027 Y22.7387
G01 X9.5877 Y22.7410
G01 X9.5676 Y22.7463
G01 X9.5476 Y22.7509
G01 X9.5332 Y22.7559
G01 X9.4952 Y22.7728
G01 X9.4820 Y22.7802
G01 X9.4650 Y22.7920
G01 X9.4526 Y22.8001
G01 X9.4449 Y22.8059
G01 X9.4324 Y22.8165
G01 X9.4184 Y22.8294
G01 X8.9531 Y23.2949
G01 X8.1230 Y23.2949
G01 X7.5362 Y22.7080
G01 X7.5362 Y21.8780
G01 X8.1230 Y21.2911
G01 X8.9531 Y21.2911
G01 X9.4226 Y21.7602
G01 X9.4341 Y21.7699
G01 X9.4493 Y21.7836
G01 X9.4618 Y21.7928
G01 X9.4973 Y21.8141
G01 X9.5038 Y21.8171
G01 X9.5106 Y21.8207
G01 X9.5303 Y21.8281
G01 X9.5442 Y21.8337
G01 X9.5495 Y21.8356
G01 X9.5643 Y21.8398
G01 X9.5698 Y21.8409
G01 X9.5845 Y21.8434
G01 X9.6037 Y21.8474
G01 X9.6204 Y21.8490
G01 X9.6439 Y21.8499
G01 X10.8792 Y21.8499
G01 X10.9531 Y21.8805
G01 X10.9765 Y21.8887
G01 X10.9840 Y21.8905
G01 X10.9982 Y21.8952
G01 X11.0052 Y21.8970
G00 Z2.0000
G00 X13.4444 Y28.2046
G01 F60.00
G01 Z-0.0851
G01 F60.00
G01 X13.4442 Y28.1573
G01 X13.4451 Y28.1329
G01 X13.4467 Y28.1175
G01 X13.4507 Y28.0977
G01 X13.4543 Y28.0778
G01 X13.4586 Y28.0626
G01 X13.4662 Y28.0436
G01 X13.4733 Y28.0244
G01 X13.4799 Y28.0106
G01 X13.4910 Y27.9929
G01 X13.5013 Y27.9753
G01 X13.5104 Y27.9627
G01 X13.5242 Y27.9474
G01 X13.5376 Y27.9317
G01 X13.8760 Y27.5934
G01 X13.8760 Y26.9773
G01 X13.8764 Y26.9622
G01 X13.8785 Y26.9371
G01 X13.8817 Y26.9219
G01 X13.8841 Y26.9061
G01 X13.8875 Y26.8947
G01 X13.8904 Y26.8827
G01 X13.8964 Y26.8676
G01 X13.9016 Y26.8523
G01 X13.9070 Y26.8417
G01 X13.9118 Y26.8305
G01 X13.9203 Y26.8167
G01 X13.9283 Y26.8023
G01 X13.9357 Y26.7926
G01 X13.9421 Y26.7829
G01 X13.9530 Y26.7707
G01 X13.9634 Y26.7580
G01 X13.9722 Y26.7499
G01 X13.9806 Y26.7412
G01 X13.9933 Y26.7312
G01 X14.0057 Y26.7206
G01 X14.0160 Y26.7140
G01 X14.0255 Y26.7071
G01 X14.0399 Y26.6994
G01 X14.0492 Y26.6939
G01 X14.0543 Y26.6911
G01 X14.0651 Y26.6867
G01 X14.0757 Y26.6815
G01 X14.0917 Y26.6764
G01 X14.1071 Y26.6708
G01 X14.1185 Y26.6683
G01 X14.1299 Y26.6651
G01 X14.1462 Y26.6629
G01 X14.1624 Y26.6600
G01 X14.1745 Y26.6596
G01 X14.1862 Y26.6585
G01 X14.2025 Y26.6593
G01 X14.2190 Y26.6593
G01 X14.2306 Y26.6610
G01 X14.2425 Y26.6619
G01 X14.2589 Y26.6656
G01 X14.2745 Y26.6685
G01 X14.2858 Y26.6722
G01 X14.2978 Y26.6754
G01 X14.3126 Y26.6817
G01 X14.3280 Y26.6874
G01 X14.3386 Y26.6932
G01 X14.3492 Y26.6982
G01 X14.3632 Y26.7072
G01 X14.3772 Y26.7156
G01 X14.3864 Y26.7229
G01 X14.3962 Y26.7299
G01 X14.4082 Y26.7412
G01 X14.4163 Y26.7480
G01 X14.5221 Y26.8534
G01 X14.5383 Y26.8710
G01 X14.5487 Y26.8836
G01 X14.5595 Y26.9000
G01 X14.5713 Y26.9170
G01 X14.5787 Y26.9302
G01 X14.5811 Y26.9354
G01 X14.5870 Y26.9493
G01 X14.5956 Y26.9681
G01 X14.5977 Y26.9751
G01 X14.6005 Y26.9821
G01 X14.6105 Y27.0229
G01 X14.6128 Y27.0377
G01 X14.6155 Y27.0789
G01 X14.6155 Y27.5934
G01 X15.0029 Y27.9808
G01 X15.0147 Y27.9934
G01 X15.0294 Y28.0109
G01 X15.0384 Y28.0245
G01 X15.0484 Y28.0382
G01 X15.0537 Y28.0482
G01 X15.0595 Y28.0578
G01 X15.0663 Y28.0732
G01 X15.0739 Y28.0888
G01 X15.0774 Y28.0996
G01 X15.0814 Y28.1099
G01 X15.0853 Y28.1265
G01 X15.0901 Y28.1434
G01 X15.0915 Y28.1542
G01 X15.0936 Y28.1650
G01 X15.0942 Y28.1711
G01 X15.0946 Y28.1824
G01 X15.0962 Y28.1993
G01 X15.0957 Y28.2103
G01 X15.0959 Y28.2216
G01 X15.0938 Y28.2387
G01 X15.0924 Y28.2556
G01 X15.0900 Y28.2664
G01 X15.0882 Y28.2778
G01 X15.0866 Y28.2835
G01 X15.0831 Y28.2942
G01 X15.0788 Y28.3105
G01 X15.0744 Y28.3210
G01 X15.0707 Y28.3315
G01 X15.0629 Y28.3466
G01 X15.0557 Y28.3621
G01 X15.0496 Y28.3715
G01 X15.0440 Y28.3814
G01 X15.0406 Y28.3860
G01 X15.0336 Y28.3949
G01 X15.0237 Y28.4089
G01 X15.0159 Y28.4172
G01 X15.0089 Y28.4256
G01 X14.9963 Y28.4372
G01 X14.9839 Y28.4493
G01 X14.9751 Y28.4559
G01 X14.9665 Y28.4631
G01 X14.9521 Y28.4721
G01 X14.9429 Y28.4787
G01 X14.9380 Y28.4818
G01 X14.9278 Y28.4869
G01 X14.9183 Y28.4924
G01 X14.9025 Y28.4988
G01 X14.8863 Y28.5061
G01 X14.8756 Y28.5091
G01 X14.8657 Y28.5127
G01 X14.8489 Y28.5163
G01 X14.8376 Y28.5193
G01 X14.8319 Y28.5206
G01 X14.8209 Y28.5217
G01 X14.8100 Y28.5236
G01 X14.7927 Y28.5241
G01 X14.7757 Y28.5252
G01 X13.7615 Y28.5199
G01 X13.7262 Y28.5177
G01 X13.7150 Y28.5162
G01 X13.7096 Y28.5151
G01 X13.6670 Y28.5050
G01 X13.6551 Y28.5009
G01 X13.6153 Y28.4835
G01 X13.6040 Y28.4771
G01 X13.5670 Y28.4525
G01 X13.5576 Y28.4445
G01 X13.5263 Y28.4145
G01 X13.5178 Y28.4044
G01 X13.4922 Y28.3693
G01 X13.4857 Y28.3579
G01 X13.4667 Y28.3185
G01 X13.4624 Y28.3064
G01 X13.4520 Y28.2698
G01 X13.4491 Y28.2568
G01 X13.4447 Y28.2138
G01 X13.4444 Y28.2046
G00 Z2.0000
G00 X19.1227 Y27.3969
G01 F60.00
G01 Z-0.0851
G01 F60.00
G01 X16.5780 Y24.8521
G01 X16.5331 Y24.8970
G01 X16.5284 Y24.9012
G01 X16.5233 Y24.9050
G01 X16.5178 Y24.9083
G01 X16.5120 Y24.9111
G01 X16.5060 Y24.9132
G01 X16.4999 Y24.9147
G01 X16.4935 Y24.9157
G01 X16.4872 Y24.9160
G01 X15.8138 Y24.9160
G01 X15.8075 Y24.9157
G01 X15.8011 Y24.9147
G01 X15.7950 Y24.9132
G01 X15.7890 Y24.9111
G01 X15.7832 Y24.9083
G01 X15.7777 Y24.9050
G01 X15.7726 Y24.9012
G01 X15.7679 Y24.8970
G01 X15.2917 Y24.4208
G01 X15.2875 Y24.4161
G01 X15.2837 Y24.4110
G01 X15.2804 Y24.4055
G01 X15.2776 Y24.3997
G01 X15.2755 Y24.3937
G01 X15.2740 Y24.3876
G01 X15.2730 Y24.3812
G01 X15.2727 Y24.3749
G01 X15.2727 Y23.7015
G01 X15.2730 Y23.6952
G01 X15.2740 Y23.6888
G01 X15.2755 Y23.6827
G01 X15.2776 Y23.6767
G01 X15.2804 Y23.6709
G01 X15.2837 Y23.6654
G01 X15.2875 Y23.6603
G01 X15.2917 Y23.6556
G01 X15.7679 Y23.1794
G01 X15.7726 Y23.1752
G01 X15.7777 Y23.1714
G01 X15.7832 Y23.1681
G01 X15.7890 Y23.1653
G01 X15.7950 Y23.1632
G01 X15.8011 Y23.1617
G01 X15.8075 Y23.1607
G01 X15.8138 Y23.1604
G01 X16.4872 Y23.1604
G01 X16.4935 Y23.1607
G01 X16.4999 Y23.1617
G01 X16.5060 Y23.1632
G01 X16.5120 Y23.1653
G01 X16.5178 Y23.1681
G01 X16.5233 Y23.1714
G01 X16.5284 Y23.1752
G01 X16.5331 Y23.1794
G01 X17.0093 Y23.6556
G01 X17.0135 Y23.6603
G01 X17.0173 Y23.6654
G01 X17.0206 Y23.6709
G01 X17.0234 Y23.6767
G01 X17.0255 Y23.6827
G01 X17.0270 Y23.6888
G01 X17.0280 Y23.6952
G01 X17.0283 Y23.7015
G01 X17.0283 Y24.3749
G01 X17.0280 Y24.3812
G01 X17.0270 Y24.3876
G01 X17.0255 Y24.3937
G01 X17.0234 Y24.3997
G01 X17.0206 Y24.4055
G01 X17.0173 Y24.4110
G01 X17.0135 Y24.4161
G01 X17.0093 Y24.4208
G01 X16.9574 Y24.4727
G01 X19.4947 Y27.0101
G01 X26.0699 Y27.0101
G01 X26.1746 Y26.9053
G01 X26.1723 Y26.8990
G01 X26.1708 Y26.8928
G01 X26.1698 Y26.8865
G01 X26.1695 Y26.8801
G01 X26.1695 Y26.2909
G01 X26.1698 Y26.2845
G01 X26.1708 Y26.2782
G01 X26.1723 Y26.2720
G01 X26.1744 Y26.2660
G01 X26.1772 Y26.2603
G01 X26.1805 Y26.2548
G01 X26.1843 Y26.2497
G01 X26.1885 Y26.2449
G01 X26.6051 Y25.8283
G01 X26.6099 Y25.8241
G01 X26.6150 Y25.8203
G01 X26.6205 Y25.8170
G01 X26.6266 Y25.8141
G01 X26.6266 Y24.8127
G01 X23.6844 Y21.8705
G01 X22.7307 Y21.8705
G01 X22.7243 Y21.8702
G01 X22.7180 Y21.8693
G01 X22.7118 Y21.8677
G01 X22.7058 Y21.8656
G01 X22.7001 Y21.8628
G01 X22.6946 Y21.8595
G01 X22.6895 Y21.8557
G01 X22.6847 Y21.8515
G01 X22.6805 Y21.8467
G01 X22.6767 Y21.8416
G01 X22.6734 Y21.8361
G01 X22.6706 Y21.8304
G01 X22.6685 Y21.8244
G01 X22.6669 Y21.8182
G01 X22.6660 Y21.8119
G01 X22.6657 Y21.8055
G01 X22.6657 Y21.2055
G01 X22.6660 Y21.1991
G01 X22.6669 Y21.1928
G01 X22.6685 Y21.1866
G01 X22.6706 Y21.1806
G01 X22.6734 Y21.1749
G01 X22.6767 Y21.1694
G01 X22.6805 Y21.1643
G01 X22.6847 Y21.1595
G01 X22.6895 Y21.1553
G01 X22.6946 Y21.1515
G01 X22.7001 Y21.1482
G01 X22.7058 Y21.1454
G01 X22.7118 Y21.1433
G01 X22.7180 Y21.1417
G01 X22.7243 Y21.1408
G01 X22.7307 Y21.1405
G01 X23.5624 Y21.1405
G01 X23.5624 Y20.6005
G01 X22.7307 Y20.6005
G01 X22.7243 Y20.6002
G01 X22.7180 Y20.5993
G01 X22.7118 Y20.5977
G01 X22.7058 Y20.5956
G01 X22.7001 Y20.5928
G01 X22.6946 Y20.5895
G01 X22.6895 Y20.5857
G01 X22.6847 Y20.5815
G01 X22.6805 Y20.5767
G01 X22.6767 Y20.5716
G01 X22.6734 Y20.5661
G01 X22.6706 Y20.5604
G01 X22.6685 Y20.5544
G01 X22.6669 Y20.5482
G01 X22.6660 Y20.5419
G01 X22.6657 Y20.5355
G01 X22.6657 Y19.9355
G01 X22.6660 Y19.9291
G01 X22.6669 Y19.9228
G01 X22.6685 Y19.9166
G01 X22.6706 Y19.9106
G01 X22.6734 Y19.9049
G01 X22.6767 Y19.8994
G01 X22.6805 Y19.8943
G01 X22.6847 Y19.8895
G01 X22.6895 Y19.8853
G01 X22.6946 Y19.8815
G01 X22.7001 Y19.8782
G01 X22.7058 Y19.8754
G01 X22.7118 Y19.8733
G01 X22.7180 Y19.8717
G01 X22.7243 Y19.8708
G01 X22.7307 Y19.8705
G01 X24.9307 Y19.8705
G01 X24.9371 Y19.8708
G01 X24.9434 Y19.8717
G01 X24.9496 Y19.8733
G01 X24.9556 Y19.8754
G01 X24.9613 Y19.8782
G01 X24.9668 Y19.8815
G01 X24.9719 Y19.8853
G01 X24.9767 Y19.8895
G01 X24.9809 Y19.8943
G01 X24.9847 Y19.8994
G01 X24.9880 Y19.9049
G01 X24.9908 Y19.9106
G01 X24.9929 Y19.9166
G01 X24.9945 Y19.9228
G01 X24.9954 Y19.9291
G01 X24.9957 Y19.9355
G01 X24.9957 Y20.5355
G01 X24.9954 Y20.5419
G01 X24.9945 Y20.5482
G01 X24.9929 Y20.5544
G01 X24.9908 Y20.5604
G01 X24.9880 Y20.5661
G01 X24.9847 Y20.5716
G01 X24.9809 Y20.5767
G01 X24.9767 Y20.5815
G01 X24.9719 Y20.5857
G01 X24.9668 Y20.5895
G01 X24.9613 Y20.5928
G01 X24.9556 Y20.5956
G01 X24.9496 Y20.5977
G01 X24.9434 Y20.5993
G01 X24.9371 Y20.6002
G01 X24.9307 Y20.6005
G01 X24.0990 Y20.6005
G01 X24.0990 Y21.1405
G01 X24.9307 Y21.1405
G01 X24.9371 Y21.1408
G01 X24.9434 Y21.1417
G01 X24.9496 Y21.1433
G01 X24.9556 Y21.1454
G01 X24.9613 Y21.1482
G01 X24.9668 Y21.1515
G01 X24.9719 Y21.1553
G01 X24.9767 Y21.1595
G01 X24.9809 Y21.1643
G01 X24.9847 Y21.1694
G01 X24.9880 Y21.1749
G01 X24.9908 Y21.1806
G01 X24.9929 Y21.1866
G01 X24.9945 Y21.1928
G01 X24.9954 Y21.1991
G01 X24.9957 Y21.2055
G01 X24.9957 Y21.8055
G01 X24.9954 Y21.8119
G01 X24.9945 Y21.8182
G01 X24.9929 Y21.8244
G01 X24.9908 Y21.8304
G01 X24.9880 Y21.8361
G01 X24.9847 Y21.8416
G01 X24.9809 Y21.8467
G01 X24.9767 Y21.8515
G01 X24.9719 Y21.8557
G01 X24.9668 Y21.8595
G01 X24.9613 Y21.8628
G01 X24.9556 Y21.8656
G01 X24.9496 Y21.8677
G01 X24.9434 Y21.8693
G01 X24.9371 Y21.8702
G01 X24.9307 Y21.8705
G01 X24.5870 Y21.8705
G01 X27.1714 Y24.4548
G01 X27.1903 Y24.4756
G01 X27.1944 Y24.4806
G01 X27.2128 Y24.5059
G01 X27.2286 Y24.5329
G01 X27.2392 Y24.5555
G01 X27.2501 Y24.5848
G01 X27.2519 Y24.5909
G01 X27.2592 Y24.6214
G01 X27.2629 Y24.6461
G01 X27.2647 Y24.6773
G01 X27.2648 Y25.8141
G01 X27.2709 Y25.8170
G01 X27.2764 Y25.8203
G01 X27.2815 Y25.8241
G01 X27.2863 Y25.8283
G01 X27.7029 Y26.2449
G01 X27.7071 Y26.2497
G01 X27.7109 Y26.2548
G01 X27.7142 Y26.2603
G01 X27.7170 Y26.2660
G01 X27.7191 Y26.2720
G01 X27.7206 Y26.2782
G01 X27.7216 Y26.2845
G01 X27.7219 Y26.2909
G01 X27.7219 Y26.8801
G01 X27.7216 Y26.8865
G01 X27.7206 Y26.8928
G01 X27.7191 Y26.8990
G01 X27.7170 Y26.9050
G01 X27.7142 Y26.9107
G01 X27.7109 Y26.9162
G01 X27.7071 Y26.9213
G01 X27.7029 Y26.9261
G01 X27.2863 Y27.3427
G01 X27.2815 Y27.3469
G01 X27.2764 Y27.3507
G01 X27.2709 Y27.3540
G01 X27.2652 Y27.3568
G01 X27.2592 Y27.3589
G01 X27.2530 Y27.3604
G01 X27.2467 Y27.3614
G01 X27.2403 Y27.3617
G01 X26.6511 Y27.3617
G01 X26.6447 Y27.3614
G01 X26.6384 Y27.3604
G01 X26.6322 Y27.3589
G01 X26.6260 Y27.3566
G01 X26.4278 Y27.5548
G01 X26.4070 Y27.5738
G01 X26.3820 Y27.5927
G01 X26.3767 Y27.5962
G01 X26.3497 Y27.6121
G01 X26.3213 Y27.6252
G01 X26.2978 Y27.6336
G01 X26.2675 Y27.6415
G01 X26.2365 Y27.6464
G01 X26.2302 Y27.6470
G01 X26.2021 Y27.6483
G01 X19.4312 Y27.6482
G01 X19.4063 Y27.6470
G01 X19.3753 Y27.6427
G01 X19.3690 Y27.6415
G01 X19.3387 Y27.6336
G01 X19.3094 Y27.6227
G01 X19.2812 Y27.6091
G01 X19.2598 Y27.5963
G01 X19.2345 Y27.5779
G01 X19.2111 Y27.5571
G01 X19.1898 Y27.5341
G01 X19.1857 Y27.5291
G01 X19.1673 Y27.5038
G01 X19.1515 Y27.4768
G01 X19.1409 Y27.4542
G01 X19.1300 Y27.4249
G01 X19.1227 Y27.3969
G00 Z2.0000
G00 X19.8243 Y24.9965
G01 F60.00
G01 Z-0.0851
G01 F60.00
G01 X19.6955 Y24.9965
G01 X19.6955 Y24.9426
G01 X20.2228 Y24.4152
G01 X20.2768 Y24.4152
G01 X20.2768 Y24.5440
G01 X20.2705 Y24.5470
G01 X20.2650 Y24.5503
G01 X20.2599 Y24.5541
G01 X20.2551 Y24.5583
G01 X19.8385 Y24.9749
G01 X19.8343 Y24.9797
G01 X19.8305 Y24.9848
G01 X19.8272 Y24.9903
G01 X19.8243 Y24.9965
G00 Z2.0000
G00 X23.8929 Y24.9749
G01 F60.00
G01 Z-0.0851
G01 F60.00
G01 X23.8971 Y24.9797
G01 X23.9009 Y24.9848
G01 X23.9042 Y24.9903
G01 X23.9070 Y24.9960
G01 X23.9091 Y25.0020
G01 X23.9106 Y25.0082
G01 X23.9116 Y25.0145
G01 X23.9119 Y25.0209
G01 X23.9119 Y25.6101
G01 X23.9116 Y25.6165
G01 X23.9106 Y25.6228
G01 X23.9091 Y25.6290
G01 X23.9070 Y25.6350
G01 X23.9042 Y25.6407
G01 X23.9009 Y25.6462
G01 X23.8971 Y25.6513
G01 X23.8929 Y25.6561
G01 X23.4763 Y26.0727
G01 X23.4715 Y26.0769
G01 X23.4664 Y26.0807
G01 X23.4609 Y26.0840
G01 X23.4552 Y26.0868
G01 X23.4492 Y26.0889
G01 X23.4430 Y26.0904
G01 X23.4367 Y26.0914
G01 X23.4303 Y26.0917
G01 X22.8411 Y26.0917
G01 X22.8347 Y26.0914
G01 X22.8284 Y26.0904
G01 X22.8222 Y26.0889
G01 X22.8162 Y26.0868
G01 X22.8105 Y26.0840
G01 X22.8050 Y26.0807
G01 X22.7999 Y26.0769
G01 X22.7951 Y26.0727
G01 X22.3785 Y25.6561
G01 X22.3743 Y25.6513
G01 X22.3705 Y25.6462
G01 X22.3672 Y25.6407
G01 X22.3644 Y25.6350
G01 X22.3623 Y25.6290
G01 X22.3608 Y25.6228
G01 X22.3598 Y25.6165
G01 X22.3595 Y25.6101
G01 X22.3595 Y25.0209
G01 X22.3598 Y25.0145
G01 X22.3608 Y25.0082
G01 X22.3623 Y25.0020
G01 X22.3644 Y24.9960
G01 X22.3672 Y24.9903
G01 X22.3705 Y24.9848
G01 X22.3743 Y24.9797
G01 X22.3792 Y24.9743
G01 X21.0230 Y23.6182
G01 X21.0057 Y23.5992
G01 X21.0017 Y23.5943
G01 X20.9848 Y23.5710
G01 X20.9732 Y23.5517
G01 X20.9606 Y23.5258
G01 X20.9582 Y23.5199
G01 X20.9488 Y23.4927
G01 X20.9421 Y23.4647
G01 X20.9388 Y23.4425
G01 X20.9382 Y23.4361
G01 X20.9370 Y23.4105
G01 X20.9370 Y20.3212
G01 X19.8333 Y19.2174
G01 X19.7957 Y19.2174
G01 X19.7957 Y19.2655
G01 X19.7954 Y19.2719
G01 X19.7945 Y19.2782
G01 X19.7929 Y19.2844
G01 X19.7908 Y19.2904
G01 X19.7880 Y19.2961
G01 X19.7847 Y19.3016
G01 X19.7809 Y19.3067
G01 X19.7767 Y19.3115
G01 X19.7719 Y19.3157
G01 X19.7668 Y19.3195
G01 X19.7613 Y19.3228
G01 X19.7556 Y19.3256
G01 X19.7496 Y19.3277
G01 X19.7434 Y19.3293
G01 X19.7371 Y19.3302
G01 X19.7307 Y19.3305
G01 X17.5307 Y19.3305
G01 X17.5243 Y19.3302
G01 X17.5180 Y19.3293
G01 X17.5118 Y19.3277
G01 X17.5058 Y19.3256
G01 X17.5001 Y19.3228
G01 X17.4946 Y19.3195
G01 X17.4895 Y19.3157
G01 X17.4847 Y19.3115
G01 X17.4805 Y19.3067
G01 X17.4767 Y19.3016
G01 X17.4734 Y19.2961
G01 X17.4706 Y19.2904
G01 X17.4685 Y19.2844
G01 X17.4669 Y19.2782
G01 X17.4660 Y19.2719
G01 X17.4657 Y19.2655
G01 X17.4657 Y19.2338
G01 X12.2463 Y19.2338
G01 X12.2463 Y19.4108
G01 X12.2460 Y19.4172
G01 X12.2450 Y19.4235
G01 X12.2435 Y19.4297
G01 X12.2414 Y19.4357
G01 X12.2386 Y19.4414
G01 X12.2353 Y19.4469
G01 X12.2315 Y19.4520
G01 X12.2273 Y19.4568
G01 X11.8107 Y19.8734
G01 X11.8059 Y19.8776
G01 X11.8008 Y19.8814
G01 X11.7953 Y19.8847
G01 X11.7896 Y19.8875
G01 X11.7836 Y19.8896
G01 X11.7774 Y19.8911
G01 X11.7711 Y19.8921
G01 X11.7647 Y19.8924
G01 X11.1755 Y19.8924
G01 X11.1691 Y19.8921
G01 X11.1628 Y19.8911
G01 X11.1566 Y19.8896
G01 X11.1506 Y19.8875
G01 X11.1449 Y19.8847
G01 X11.1394 Y19.8814
G01 X11.1343 Y19.8776
G01 X11.1295 Y19.8734
G01 X10.7129 Y19.4568
G01 X10.7087 Y19.4520
G01 X10.7049 Y19.4469
G01 X10.7016 Y19.4414
G01 X10.6988 Y19.4357
G01 X10.6967 Y19.4297
G01 X10.6952 Y19.4235
G01 X10.6942 Y19.4172
G01 X10.6939 Y19.4108
G01 X10.6939 Y18.8216
G01 X10.6942 Y18.8152
G01 X10.6952 Y18.8089
G01 X10.6967 Y18.8027
G01 X10.6988 Y18.7967
G01 X10.7016 Y18.7910
G01 X10.7049 Y18.7855
G01 X10.7087 Y18.7804
G01 X10.7129 Y18.7756
G01 X11.1295 Y18.3590
G01 X11.1343 Y18.3548
G01 X11.1394 Y18.3510
G01 X11.1449 Y18.3477
G01 X11.1506 Y18.3449
G01 X11.1566 Y18.3428
G01 X11.1628 Y18.3413
G01 X11.1691 Y18.3403
G01 X11.1755 Y18.3400
G01 X11.7647 Y18.3400
G01 X11.7711 Y18.3403
G01 X11.7774 Y18.3413
G01 X11.7836 Y18.3428
G01 X11.7896 Y18.3449
G01 X11.7953 Y18.3477
G01 X11.8008 Y18.3510
G01 X11.8059 Y18.3548
G01 X11.8107 Y18.3590
G01 X12.1488 Y18.6972
G01 X17.4657 Y18.6972
G01 X17.4657 Y18.6655
G01 X17.4660 Y18.6591
G01 X17.4669 Y18.6528
G01 X17.4685 Y18.6466
G01 X17.4706 Y18.6406
G01 X17.4734 Y18.6349
G01 X17.4767 Y18.6294
G01 X17.4805 Y18.6243
G01 X17.4847 Y18.6195
G01 X17.4895 Y18.6153
G01 X17.4946 Y18.6115
G01 X17.5001 Y18.6082
G01 X17.5058 Y18.6054
G01 X17.5118 Y18.6033
G01 X17.5180 Y18.6017
G01 X17.5243 Y18.6008
G01 X17.5307 Y18.6005
G01 X19.7307 Y18.6005
G01 X19.7371 Y18.6008
G01 X19.7434 Y18.6017
G01 X19.7496 Y18.6033
G01 X19.7556 Y18.6054
G01 X19.7613 Y18.6082
G01 X19.7668 Y18.6115
G01 X19.7719 Y18.6153
G01 X19.7767 Y18.6195
G01 X19.7809 Y18.6243
G01 X19.7847 Y18.6294
G01 X19.7880 Y18.6349
G01 X19.7908 Y18.6406
G01 X19.7929 Y18.6466
G01 X19.7945 Y18.6528
G01 X19.7954 Y18.6591
G01 X19.7957 Y18.6808
G01 X19.9444 Y18.6808
G01 X19.9707 Y18.6821
G01 X19.9967 Y18.6860
G01 X20.0192 Y18.6915
G01 X20.0441 Y18.7001
G01 X20.0500 Y18.7025
G01 X20.0709 Y18.7125
G01 X20.0935 Y18.7260
G01 X20.1146 Y18.7417
G01 X20.1341 Y18.7594
G01 X21.3363 Y19.9616
G01 X21.3460 Y19.9654
G01 X21.3663 Y19.9750
G01 X21.3912 Y19.9896
G01 X21.4145 Y20.0065
G01 X21.4361 Y20.0256
G01 X21.4557 Y20.0468
G01 X21.4597 Y20.0517
G01 X21.4766 Y20.0750
G01 X21.4882 Y20.0943
G01 X21.5008 Y20.1202
G01 X21.5108 Y20.1472
G01 X21.5181 Y20.1751
G01 X21.5193 Y20.1813
G01 X21.5232 Y20.2099
G01 X21.5244 Y20.2355
G01 X21.5244 Y23.2888
G01 X22.7945 Y24.5590
G01 X22.7999 Y24.5541
G01 X22.8050 Y24.5503
G01 X22.8105 Y24.5470
G01 X22.8162 Y24.5442
G01 X22.8222 Y24.5421
G01 X22.8284 Y24.5406
G01 X22.8347 Y24.5396
G01 X22.8411 Y24.5393
G01 X23.4303 Y24.5393
G01 X23.4367 Y24.5396
G01 X23.4430 Y24.5406
G01 X23.4492 Y24.5421
G01 X23.4552 Y24.5442
G01 X23.4609 Y24.5470
G01 X23.4664 Y24.5503
G01 X23.4715 Y24.5541
G01 X23.4763 Y24.5583
G01 X23.8929 Y24.9749
G00 Z2.0000
G00 X19.7307 Y19.8705
G01 F60.00
G01 Z-0.0851
G01 F60.00
G01 X19.7371 Y19.8708
G01 X19.7434 Y19.8717
G01 X19.7496 Y19.8733
G01 X19.7556 Y19.8754
G01 X19.7613 Y19.8782
G01 X19.7668 Y19.8815
G01 X19.7719 Y19.8853
G01 X19.7767 Y19.8895
G01 X19.7809 Y19.8943
G01 X19.7847 Y19.8994
G01 X19.7880 Y19.9049
G01 X19.7908 Y19.9106
G01 X19.7929 Y19.9166
G01 X19.7945 Y19.9228
G01 X19.7954 Y19.9291
G01 X19.7957 Y19.9355
G01 X19.7957 Y20.5355
G01 X19.7954 Y20.5419
G01 X19.7945 Y20.5482
G01 X19.7929 Y20.5544
G01 X19.7908 Y20.5604
G01 X19.7880 Y20.5661
G01 X19.7847 Y20.5716
G01 X19.7809 Y20.5767
G01 X19.7767 Y20.5815
G01 X19.7719 Y20.5857
G01 X19.7668 Y20.5895
G01 X19.7613 Y20.5928
G01 X19.7556 Y20.5956
G01 X19.7496 Y20.5977
G01 X19.7434 Y20.5993
G01 X19.7371 Y20.6002
G01 X19.7307 Y20.6005
G01 X17.5307 Y20.6005
G01 X17.5243 Y20.6002
G01 X17.5180 Y20.5993
G01 X17.5118 Y20.5977
G01 X17.5058 Y20.5956
G01 X17.5001 Y20.5928
G01 X17.4946 Y20.5895
G01 X17.4895 Y20.5857
G01 X17.4847 Y20.5815
G01 X17.4805 Y20.5767
G01 X17.4767 Y20.5716
G01 X17.4734 Y20.5661
G01 X17.4706 Y20.5604
G01 X17.4685 Y20.5544
G01 X17.4669 Y20.5482
G01 X17.4660 Y20.5419
G01 X17.4657 Y20.5355
G01 X17.4657 Y20.5038
G01 X16.1247 Y20.5038
G01 X15.9216 Y20.7069
G01 X16.4519 Y21.2372
G01 X17.4657 Y21.2372
G01 X17.4657 Y21.2055
G01 X17.4660 Y21.1991
G01 X17.4669 Y21.1928
G01 X17.4685 Y21.1866
G01 X17.4706 Y21.1806
G01 X17.4734 Y21.1749
G01 X17.4767 Y21.1694
G01 X17.4805 Y21.1643
G01 X17.4847 Y21.1595
G01 X17.4895 Y21.1553
G01 X17.4946 Y21.1515
G01 X17.5001 Y21.1482
G01 X17.5058 Y21.1454
G01 X17.5118 Y21.1433
G01 X17.5180 Y21.1417
G01 X17.5243 Y21.1408
G01 X17.5307 Y21.1405
G01 X19.7307 Y21.1405
G01 X19.7371 Y21.1408
G01 X19.7434 Y21.1417
G01 X19.7496 Y21.1433
G01 X19.7556 Y21.1454
G01 X19.7613 Y21.1482
G01 X19.7668 Y21.1515
G01 X19.7719 Y21.1553
G01 X19.7767 Y21.1595
G01 X19.7809 Y21.1643
G01 X19.7847 Y21.1694
G01 X19.7880 Y21.1749
G01 X19.7908 Y21.1806
G01 X19.7929 Y21.1866
G01 X19.7945 Y21.1928
G01 X19.7954 Y21.1991
G01 X19.7957 Y21.2055
G01 X19.7957 Y21.8055
G01 X19.7954 Y21.8119
G01 X19.7945 Y21.8182
G01 X19.7929 Y21.8244
G01 X19.7908 Y21.8304
G01 X19.7880 Y21.8361
G01 X19.7847 Y21.8416
G01 X19.7809 Y21.8467
G01 X19.7767 Y21.8515
G01 X19.7719 Y21.8557
G01 X19.7668 Y21.8595
G01 X19.7613 Y21.8628
G01 X19.7556 Y21.8656
G01 X19.7496 Y21.8677
G01 X19.7434 Y21.8693
G01 X19.7371 Y21.8702
G01 X19.7307 Y21.8705
G01 X17.5307 Y21.8705
G01 X17.5243 Y21.8702
G01 X17.5180 Y21.8693
G01 X17.5118 Y21.8677
G01 X17.5058 Y21.8656
G01 X17.5001 Y21.8628
G01 X17.4946 Y21.8595
G01 X17.4895 Y21.8557
G01 X17.4847 Y21.8515
G01 X17.4805 Y21.8467
G01 X17.4767 Y21.8416
G01 X17.4734 Y21.8361
G01 X17.4706 Y21.8304
G01 X17.4685 Y21.8244
G01 X17.4669 Y21.8182
G01 X17.4660 Y21.8119
G01 X17.4657 Y21.8055
G01 X17.4657 Y21.7738
G01 X16.3408 Y21.7738
G01 X16.3177 Y21.7727
G01 X16.3113 Y21.7721
G01 X16.2916 Y21.7692
G01 X16.2660 Y21.7631
G01 X16.2411 Y21.7545
G01 X16.2352 Y21.7521
G01 X16.2115 Y21.7405
G01 X16.1944 Y21.7303
G01 X16.1731 Y21.7149
G01 X16.1682 Y21.7108
G01 X16.1511 Y21.6952
G01 X15.4565 Y21.0006
G01 X13.1175 Y21.0006
G01 X11.3965 Y22.7218
G01 X15.1566 Y26.4819
G01 X15.1751 Y26.4633
G01 X15.1799 Y26.4591
G01 X15.1850 Y26.4553
G01 X15.1905 Y26.4520
G01 X15.1962 Y26.4492
G01 X15.2022 Y26.4471
G01 X15.2084 Y26.4456
G01 X15.2147 Y26.4446
G01 X15.2211 Y26.4443
G01 X15.8103 Y26.4443
G01 X15.8167 Y26.4446
G01 X15.8230 Y26.4456
G01 X15.8292 Y26.4471
G01 X15.8352 Y26.4492
G01 X15.8409 Y26.4520
G01 X15.8464 Y26.4553
G01 X15.8515 Y26.4591
G01 X15.8563 Y26.4633
G01 X16.2729 Y26.8799
G01 X16.2771 Y26.8847
G01 X16.2809 Y26.8898
G01 X16.2842 Y26.8953
G01 X16.2870 Y26.9010
G01 X16.2891 Y26.9070
G01 X16.2906 Y26.9132
G01 X16.2916 Y26.9195
G01 X16.2919 Y26.9259
G01 X16.2919 Y27.5151
G01 X16.2916 Y27.5215
G01 X16.2906 Y27.5278
G01 X16.2891 Y27.5340
G01 X16.2870 Y27.5400
G01 X16.2842 Y27.5457
G01 X16.2809 Y27.5512
G01 X16.2771 Y27.5563
G01 X16.2729 Y27.5611
G01 X15.8563 Y27.9777
G01 X15.8515 Y27.9819
G01 X15.8464 Y27.9857
G01 X15.8409 Y27.9890
G01 X15.8352 Y27.9918
G01 X15.8292 Y27.9939
G01 X15.8230 Y27.9954
G01 X15.8167 Y27.9964
G01 X15.8103 Y27.9967
G01 X15.2211 Y27.9967
G01 X15.2147 Y27.9964
G01 X15.2084 Y27.9954
G01 X15.2022 Y27.9939
G01 X15.1962 Y27.9918
G01 X15.1905 Y27.9890
G01 X15.1850 Y27.9857
G01 X15.1799 Y27.9819
G01 X15.1751 Y27.9777
G01 X14.7585 Y27.5611
G01 X14.7543 Y27.5563
G01 X14.7505 Y27.5512
G01 X14.7472 Y27.5457
G01 X14.7444 Y27.5400
G01 X14.7423 Y27.5340
G01 X14.7408 Y27.5278
G01 X14.7398 Y27.5215
G01 X14.7395 Y27.5151
G01 X14.7395 Y26.9259
G01 X14.7398 Y26.9195
G01 X14.7408 Y26.9132
G01 X14.7423 Y26.9070
G01 X14.7444 Y26.9010
G01 X14.7472 Y26.8953
G01 X14.7505 Y26.8898
G01 X14.7543 Y26.8847
G01 X14.7585 Y26.8799
G01 X14.7771 Y26.8614
G01 X10.4772 Y22.5613
G01 X9.4158 Y22.5613
G01 X9.4158 Y22.6297
G01 X9.4155 Y22.6360
G01 X9.4145 Y22.6424
G01 X9.4130 Y22.6485
G01 X9.4109 Y22.6545
G01 X9.4081 Y22.6603
G01 X9.4048 Y22.6658
G01 X9.4010 Y22.6709
G01 X9.3968 Y22.6756
G01 X8.9206 Y23.1518
G01 X8.9159 Y23.1560
G01 X8.9108 Y23.1598
G01 X8.9053 Y23.1631
G01 X8.8995 Y23.1659
G01 X8.8935 Y23.1680
G01 X8.8874 Y23.1695
G01 X8.8810 Y23.1705
G01 X8.8747 Y23.1708
G01 X8.2013 Y23.1708
G01 X8.1950 Y23.1705
G01 X8.1886 Y23.1695
G01 X8.1825 Y23.1680
G01 X8.1765 Y23.1659
G01 X8.1707 Y23.1631
G01 X8.1652 Y23.1598
G01 X8.1601 Y23.1560
G01 X8.1554 Y23.1518
G01 X7.6792 Y22.6756
G01 X7.6750 Y22.6709
G01 X7.6712 Y22.6658
G01 X7.6679 Y22.6603
G01 X7.6651 Y22.6545
G01 X7.6630 Y22.6485
G01 X7.6615 Y22.6424
G01 X7.6605 Y22.6360
G01 X7.6602 Y22.6297
G01 X7.6602 Y21.9563
G01 X7.6605 Y21.9500
G01 X7.6615 Y21.9436
G01 X7.6630 Y21.9375
G01 X7.6651 Y21.9315
G01 X7.6679 Y21.9257
G01 X7.6712 Y21.9202
G01 X7.6750 Y21.9151
G01 X7.6792 Y21.9104
G01 X8.1554 Y21.4342
G01 X8.1601 Y21.4300
G01 X8.1652 Y21.4262
G01 X8.1707 Y21.4229
G01 X8.1765 Y21.4201
G01 X8.1825 Y21.4180
G01 X8.1886 Y21.4165
G01 X8.1950 Y21.4155
G01 X8.2013 Y21.4152
G01 X8.8747 Y21.4152
G01 X8.8810 Y21.4155
G01 X8.8874 Y21.4165
G01 X8.8935 Y21.4180
G01 X8.8995 Y21.4201
G01 X8.9053 Y21.4229
G01 X8.9108 Y21.4262
G01 X8.9159 Y21.4300
G01 X8.9206 Y21.4342
G01 X9.3968 Y21.9104
G01 X9.4010 Y21.9151
G01 X9.4048 Y21.9202
G01 X9.4081 Y21.9257
G01 X9.4109 Y21.9315
G01 X9.4130 Y21.9375
G01 X9.4145 Y21.9436
G01 X9.4155 Y21.9500
G01 X9.4158 Y21.9563
G01 X9.4158 Y22.0247
G01 X10.7910 Y22.0247
G01 X10.8141 Y22.0258
G01 X10.8205 Y22.0264
G01 X10.8402 Y22.0293
G01 X10.8658 Y22.0354
G01 X10.8907 Y22.0440
G01 X10.9146 Y22.0549
G01 X10.9203 Y22.0580
G01 X10.9427 Y22.0718
G01 X10.9636 Y22.0877
G01 X10.9807 Y22.1033
G01 X11.1184 Y22.2410
G01 X12.7579 Y20.6014
G01 X12.7617 Y20.5916
G01 X12.7713 Y20.5713
G01 X12.7859 Y20.5464
G01 X12.7894 Y20.5411
G01 X12.8068 Y20.5182
G01 X12.8264 Y20.4970
G01 X12.8480 Y20.4779
G01 X12.8713 Y20.4610
G01 X12.8906 Y20.4494
G01 X12.9165 Y20.4368
G01 X12.9224 Y20.4344
G01 X12.9496 Y20.4250
G01 X12.9776 Y20.4183
G01 X12.9998 Y20.4150
G01 X13.0062 Y20.4144
G01 X13.0318 Y20.4132
G01 X15.4565 Y20.4132
G01 X15.8239 Y20.0458
G01 X15.8410 Y20.0302
G01 X15.8619 Y20.0143
G01 X15.8843 Y20.0005
G01 X15.8900 Y19.9974
G01 X15.9139 Y19.9865
G01 X15.9388 Y19.9779
G01 X15.9581 Y19.9731
G01 X15.9841 Y19.9689
G01 X15.9905 Y19.9683
G01 X16.0136 Y19.9672
G01 X17.4657 Y19.9672
G01 X17.4657 Y19.9355
G01 X17.4660 Y19.9291
G01 X17.4669 Y19.9228
G01 X17.4685 Y19.9166
G01 X17.4706 Y19.9106
G01 X17.4734 Y19.9049
G01 X17.4767 Y19.8994
G01 X17.4805 Y19.8943
G01 X17.4847 Y19.8895
G01 X17.4895 Y19.8853
G01 X17.4946 Y19.8815
G01 X17.5001 Y19.8782
G01 X17.5058 Y19.8754
G01 X17.5118 Y19.8733
G01 X17.5180 Y19.8717
G01 X17.5243 Y19.8708
G01 X17.5307 Y19.8705
G01 X19.7307 Y19.8705
G00 Z2.0000
G00 X23.8733 Y16.7905
G01 F60.00
G01 Z-0.0851
G01 F60.00
G01 X22.7307 Y16.7905
G01 X22.7243 Y16.7902
G01 X22.7180 Y16.7893
G01 X22.7118 Y16.7877
G01 X22.7058 Y16.7856
G01 X22.7001 Y16.7828
G01 X22.6946 Y16.7795
G01 X22.6895 Y16.7757
G01 X22.6847 Y16.7715
G01 X22.6805 Y16.7667
G01 X22.6767 Y16.7616
G01 X22.6734 Y16.7561
G01 X22.6706 Y16.7504
G01 X22.6685 Y16.7444
G01 X22.6669 Y16.7382
G01 X22.6660 Y16.7319
G01 X22.6657 Y16.7255
G01 X22.6657 Y16.1255
G01 X22.6660 Y16.1191
G01 X22.6669 Y16.1128
G01 X22.6685 Y16.1066
G01 X22.6706 Y16.1006
G01 X22.6734 Y16.0949
G01 X22.6767 Y16.0894
G01 X22.6805 Y16.0843
G01 X22.6847 Y16.0795
G01 X22.6895 Y16.0753
G01 X22.6946 Y16.0715
G01 X22.7001 Y16.0682
G01 X22.7058 Y16.0654
G01 X22.7118 Y16.0633
G01 X22.7180 Y16.0617
G01 X22.7243 Y16.0608
G01 X22.7307 Y16.0605
G01 X24.9307 Y16.0605
G01 X24.9371 Y16.0608
G01 X24.9434 Y16.0617
G01 X24.9496 Y16.0633
G01 X24.9556 Y16.0654
G01 X24.9613 Y16.0682
G01 X24.9668 Y16.0715
G01 X24.9719 Y16.0753
G01 X24.9767 Y16.0795
G01 X24.9809 Y16.0843
G01 X24.9847 Y16.0894
G01 X24.9880 Y16.0949
G01 X24.9908 Y16.1006
G01 X24.9929 Y16.1066
G01 X24.9945 Y16.1128
G01 X24.9954 Y16.1191
G01 X24.9957 Y16.1255
G01 X24.9957 Y16.2047
G01 X28.8591 Y16.2047
G01 X28.8880 Y16.1940
G01 X28.8941 Y16.1922
G01 X28.9246 Y16.1849
G01 X28.9493 Y16.1812
G01 X28.9556 Y16.1806
G01 X28.9869 Y16.1794
G01 X29.0118 Y16.1806
G01 X29.0428 Y16.1849
G01 X29.0733 Y16.1922
G01 X29.0794 Y16.1940
G01 X29.1088 Y16.2049
G01 X29.1313 Y16.2155
G01 X29.1369 Y16.2185
G01 X29.1636 Y16.2349
G01 X29.1886 Y16.2538
G01 X29.2071 Y16.2706
G01 X30.3129 Y17.3764
G01 X31.2543 Y17.3764
G01 X31.2572 Y17.3703
G01 X31.2605 Y17.3648
G01 X31.2643 Y17.3597
G01 X31.2685 Y17.3549
G01 X31.6851 Y16.9383
G01 X31.6899 Y16.9341
G01 X31.6950 Y16.9303
G01 X31.7005 Y16.9270
G01 X31.7062 Y16.9242
G01 X31.7122 Y16.9221
G01 X31.7184 Y16.9206
G01 X31.7247 Y16.9196
G01 X31.7311 Y16.9193
G01 X32.3203 Y16.9193
G01 X32.3267 Y16.9196
G01 X32.3330 Y16.9206
G01 X32.3392 Y16.9221
G01 X32.3452 Y16.9242
G01 X32.3509 Y16.9270
G01 X32.3564 Y16.9303
G01 X32.3615 Y16.9341
G01 X32.3663 Y16.9383
G01 X32.7829 Y17.3549
G01 X32.7871 Y17.3597
G01 X32.7909 Y17.3648
G01 X32.7942 Y17.3703
G01 X32.7970 Y17.3760
G01 X32.7991 Y17.3820
G01 X32.8006 Y17.3882
G01 X32.8016 Y17.3945
G01 X32.8019 Y17.4009
G01 X32.8019 Y17.9901
G01 X32.8016 Y17.9965
G01 X32.8006 Y18.0028
G01 X32.7991 Y18.0090
G01 X32.7970 Y18.0150
G01 X32.7942 Y18.0207
G01 X32.7897 Y18.0279
G01 X36.6086 Y21.8468
G01 X38.2540 Y21.8468
G01 X38.7170 Y21.3838
G01 X38.7170 Y18.3305
G01 X38.7182 Y18.3049
G01 X38.7221 Y18.2763
G01 X38.7288 Y18.2483
G01 X38.7382 Y18.2211
G01 X38.7406 Y18.2152
G01 X38.7532 Y18.1893
G01 X38.7683 Y18.1647
G01 X38.7857 Y18.1418
G01 X38.8030 Y18.1228
G01 X39.4403 Y17.4856
G01 X39.4619 Y17.4665
G01 X39.4852 Y17.4496
G01 X39.5101 Y17.4350
G01 X39.5304 Y17.4254
G01 X39.5574 Y17.4154
G01 X39.5635 Y17.4136
G01 X39.5915 Y17.4069
G01 X39.6201 Y17.4030
G01 X39.6457 Y17.4018
G01 X42.0640 Y17.4018
G01 X42.5270 Y16.9388
G01 X42.5270 Y13.3917
G01 X42.5197 Y13.3914
G01 X42.5134 Y13.3904
G01 X42.5072 Y13.3889
G01 X42.5012 Y13.3868
G01 X42.4955 Y13.3840
G01 X42.4900 Y13.3807
G01 X42.4849 Y13.3769
G01 X42.4801 Y13.3727
G01 X42.0635 Y12.9561
G01 X42.0593 Y12.9513
G01 X42.0555 Y12.9462
G01 X42.0522 Y12.9407
G01 X42.0494 Y12.9350
G01 X42.0473 Y12.9290
G01 X42.0458 Y12.9228
G01 X42.0448 Y12.9165
G01 X42.0445 Y12.9101
G01 X42.0445 Y12.3209
G01 X42.0448 Y12.3145
G01 X42.0458 Y12.3082
G01 X42.0473 Y12.3020
G01 X42.0494 Y12.2960
G01 X42.0522 Y12.2903
G01 X42.0555 Y12.2848
G01 X42.0593 Y12.2797
G01 X42.0635 Y12.2749
G01 X42.4801 Y11.8583
G01 X42.4849 Y11.8541
G01 X42.4900 Y11.8503
G01 X42.4955 Y11.8470
G01 X42.5012 Y11.8442
G01 X42.5072 Y11.8421
G01 X42.5134 Y11.8406
G01 X42.5197 Y11.8396
G01 X42.5261 Y11.8393
G01 X43.1153 Y11.8393
G01 X43.1217 Y11.8396
G01 X43.1280 Y11.8406
G01 X43.1342 Y11.8421
G01 X43.1402 Y11.8442
G01 X43.1459 Y11.8470
G01 X43.1514 Y11.8503
G01 X43.1565 Y11.8541
G01 X43.1613 Y11.8583
G01 X43.5779 Y12.2749
G01 X43.5821 Y12.2797
G01 X43.5859 Y12.2848
G01 X43.5892 Y12.2903
G01 X43.5920 Y12.2960
G01 X43.5941 Y12.3020
G01 X43.5956 Y12.3082
G01 X43.5966 Y12.3145
G01 X43.5969 Y12.3209
G01 X43.5969 Y12.9101
G01 X43.5966 Y12.9165
G01 X43.5956 Y12.9228
G01 X43.5941 Y12.9290
G01 X43.5920 Y12.9350
G01 X43.5892 Y12.9407
G01 X43.5859 Y12.9462
G01 X43.5821 Y12.9513
G01 X43.5779 Y12.9561
G01 X43.1613 Y13.3727
G01 X43.1565 Y13.3769
G01 X43.1514 Y13.3807
G01 X43.1459 Y13.3840
G01 X43.1402 Y13.3868
G01 X43.1342 Y13.3889
G01 X43.1280 Y13.3904
G01 X43.1217 Y13.3914
G01 X43.1144 Y13.3917
G01 X43.1144 Y17.0605
G01 X43.1132 Y17.0861
G01 X43.1126 Y17.0925
G01 X43.1081 Y17.1209
G01 X43.1026 Y17.1427
G01 X43.0932 Y17.1699
G01 X43.0812 Y17.1961
G01 X43.0782 Y17.2017
