(G-CODE GENERATED BY FLATCAM v8.991 - www.flatcam.org - Version Date: 2019/12/27)

(Name: Corte)
(Type: G-code from Geometry)
(Units: MM)

(Created on Wednesday, 22 November 2023 at 16:20)

(TOOL DIAMETER: 0.9 mm)
(Feedrate: 60.0 mm/min)
(Feedrate_Z: 60.0 mm/min)
(Feedrate rapids 1500.0 mm/min)

(Z_Cut: -2.0 mm)
(DepthPerCut: 0.5 mm <=>4 passes)
(Z_Move: 2.0 mm)
(Z Toolchange: 15.0 mm)
(X,Y Toolchange: 0.0000, 0.0000 mm)
(Z Start: None mm)
(Z End: 2.0 mm)
(Steps per circle: 64)
(Preprocessor Geometry: default)

(X range:    0.3142 ...   27.3240  mm)
(Y range:    0.3245 ...   26.8583  mm)

(Spindle Speed: 800 RPM)
G21
G90
G94




G01 F60.00
G00 Z2.0000

M03 S800
G00 X0.3142 Y12.8414
G01 F60.00
G01 Z-0.5000
G01 F60.00
G01 X0.3142 Y0.9745
G01 X0.3173 Y0.9108
G01 X0.3267 Y0.8477
G01 X0.3422 Y0.7858
G01 X0.3637 Y0.7258
G01 X0.3910 Y0.6681
G01 X0.4237 Y0.6134
G01 X0.4617 Y0.5621
G01 X0.5046 Y0.5149
G01 X0.5518 Y0.4720
G01 X0.6031 Y0.4340
G01 X0.6578 Y0.4013
G01 X0.7155 Y0.3740
G01 X0.7755 Y0.3525
G01 X0.8374 Y0.3370
G01 X0.9005 Y0.3276
G01 X0.9642 Y0.3245
G01 X26.6740 Y0.3245
G00 X26.6740 Y0.3245
G01 F60.00
G01 Z-1.0000
G01 F60.00
G01 X0.9642 Y0.3245
G01 X0.9005 Y0.3276
G01 X0.8374 Y0.3370
G01 X0.7755 Y0.3525
G01 X0.7155 Y0.3740
G01 X0.6578 Y0.4013
G01 X0.6031 Y0.4340
G01 X0.5518 Y0.4720
G01 X0.5046 Y0.5149
G01 X0.4617 Y0.5621
G01 X0.4237 Y0.6134
G01 X0.3910 Y0.6681
G01 X0.3637 Y0.7258
G01 X0.3422 Y0.7858
G01 X0.3267 Y0.8477
G01 X0.3173 Y0.9108
G01 X0.3142 Y0.9745
G01 X0.3142 Y12.8414
G00 X0.3142 Y12.8414
G01 F60.00
G01 Z-1.5000
G01 F60.00
G01 X0.3142 Y0.9745
G01 X0.3173 Y0.9108
G01 X0.3267 Y0.8477
G01 X0.3422 Y0.7858
G01 X0.3637 Y0.7258
G01 X0.3910 Y0.6681
G01 X0.4237 Y0.6134
G01 X0.4617 Y0.5621
G01 X0.5046 Y0.5149
G01 X0.5518 Y0.4720
G01 X0.6031 Y0.4340
G01 X0.6578 Y0.4013
G01 X0.7155 Y0.3740
G01 X0.7755 Y0.3525
G01 X0.8374 Y0.3370
G01 X0.9005 Y0.3276
G01 X0.9642 Y0.3245
G01 X26.6740 Y0.3245
G00 X26.6740 Y0.3245
G01 F60.00
G01 Z-2.0000
G01 F60.00
G01 X0.9642 Y0.3245
G01 X0.9005 Y0.3276
G01 X0.8374 Y0.3370
G01 X0.7755 Y0.3525
G01 X0.7155 Y0.3740
G01 X0.6578 Y0.4013
G01 X0.6031 Y0.4340
G01 X0.5518 Y0.4720
G01 X0.5046 Y0.5149
G01 X0.4617 Y0.5621
G01 X0.4237 Y0.6134
G01 X0.3910 Y0.6681
G01 X0.3637 Y0.7258
G01 X0.3422 Y0.7858
G01 X0.3267 Y0.8477
G01 X0.3173 Y0.9108
G01 X0.3142 Y0.9745
G01 X0.3142 Y12.8414
G00 Z2.0000
G00 X0.3142 Y14.7414
G01 F60.00
G01 Z-0.5000
G01 F60.00
G01 X0.3142 Y26.2083
G01 X0.3173 Y26.2720
G01 X0.3267 Y26.3351
G01 X0.3422 Y26.3970
G01 X0.3637 Y26.4570
G01 X0.3910 Y26.5147
G01 X0.4237 Y26.5694
G01 X0.4617 Y26.6207
G01 X0.5046 Y26.6679
G01 X0.5518 Y26.7108
G01 X0.6031 Y26.7488
G01 X0.6578 Y26.7815
G01 X0.7155 Y26.8088
G01 X0.7755 Y26.8303
G01 X0.8374 Y26.8458
G01 X0.9005 Y26.8552
G01 X0.9642 Y26.8583
G01 X26.6740 Y26.8583
G01 X26.7377 Y26.8552
G01 X26.8008 Y26.8458
G01 X26.8627 Y26.8303
G01 X26.9227 Y26.8088
G01 X26.9804 Y26.7815
G01 X27.0351 Y26.7488
G01 X27.0864 Y26.7108
G01 X27.1336 Y26.6679
G01 X27.1765 Y26.6207
G01 X27.2145 Y26.5694
G01 X27.2472 Y26.5147
G01 X27.2745 Y26.4570
G01 X27.2960 Y26.3970
G01 X27.3115 Y26.3351
G01 X27.3209 Y26.2720
G01 X27.3240 Y26.2083
G01 X27.3240 Y14.7414
G00 X27.3240 Y14.7414
G01 F60.00
G01 Z-1.0000
G01 F60.00
G01 X27.3240 Y26.2083
G01 X27.3209 Y26.2720
G01 X27.3115 Y26.3351
G01 X27.2960 Y26.3970
G01 X27.2745 Y26.4570
G01 X27.2472 Y26.5147
G01 X27.2145 Y26.5694
G01 X27.1765 Y26.6207
G01 X27.1336 Y26.6679
G01 X27.0864 Y26.7108
G01 X27.0351 Y26.7488
G01 X26.9804 Y26.7815
G01 X26.9227 Y26.8088
G01 X26.8627 Y26.8303
G01 X26.8008 Y26.8458
G01 X26.7377 Y26.8552
G01 X26.6740 Y26.8583
G01 X0.9642 Y26.8583
G01 X0.9005 Y26.8552
G01 X0.8374 Y26.8458
G01 X0.7755 Y26.8303
G01 X0.7155 Y26.8088
G01 X0.6578 Y26.7815
G01 X0.6031 Y26.7488
G01 X0.5518 Y26.7108
G01 X0.5046 Y26.6679
G01 X0.4617 Y26.6207
G01 X0.4237 Y26.5694
G01 X0.3910 Y26.5147
G01 X0.3637 Y26.4570
G01 X0.3422 Y26.3970
G01 X0.3267 Y26.3351
G01 X0.3173 Y26.2720
G01 X0.3142 Y26.2083
G01 X0.3142 Y14.7414
G00 X0.3142 Y14.7414
G01 F60.00
G01 Z-1.5000
G01 F60.00
G01 X0.3142 Y26.2083
G01 X0.3173 Y26.2720
G01 X0.3267 Y26.3351
G01 X0.3422 Y26.3970
G01 X0.3637 Y26.4570
G01 X0.3910 Y26.5147
G01 X0.4237 Y26.5694
G01 X0.4617 Y26.6207
G01 X0.5046 Y26.6679
G01 X0.5518 Y26.7108
G01 X0.6031 Y26.7488
G01 X0.6578 Y26.7815
G01 X0.7155 Y26.8088
G01 X0.7755 Y26.8303
G01 X0.8374 Y26.8458
G01 X0.9005 Y26.8552
G01 X0.9642 Y26.8583
G01 X26.6740 Y26.8583
G01 X26.7377 Y26.8552
G01 X26.8008 Y26.8458
G01 X26.8627 Y26.8303
G01 X26.9227 Y26.8088
G01 X26.9804 Y26.7815
G01 X27.0351 Y26.7488
G01 X27.0864 Y26.7108
G01 X27.1336 Y26.6679
G01 X27.1765 Y26.6207
G01 X27.2145 Y26.5694
G01 X27.2472 Y26.5147
G01 X27.2745 Y26.4570
G01 X27.2960 Y26.3970
G01 X27.3115 Y26.3351
G01 X27.3209 Y26.2720
G01 X27.3240 Y26.2083
G01 X27.3240 Y14.7414
G00 X27.3240 Y14.7414
G01 F60.00
G01 Z-2.0000
G01 F60.00
G01 X27.3240 Y26.2083
G01 X27.3209 Y26.2720
G01 X27.3115 Y26.3351
G01 X27.2960 Y26.3970
G01 X27.2745 Y26.4570
G01 X27.2472 Y26.5147
G01 X27.2145 Y26.5694
G01 X27.1765 Y26.6207
G01 X27.1336 Y26.6679
G01 X27.0864 Y26.7108
G01 X27.0351 Y26.7488
G01 X26.9804 Y26.7815
G01 X26.9227 Y26.8088
G01 X26.8627 Y26.8303
G01 X26.8008 Y26.8458
G01 X26.7377 Y26.8552
G01 X26.6740 Y26.8583
G01 X0.9642 Y26.8583
G01 X0.9005 Y26.8552
G01 X0.8374 Y26.8458
G01 X0.7755 Y26.8303
G01 X0.7155 Y26.8088
G01 X0.6578 Y26.7815
G01 X0.6031 Y26.7488
G01 X0.5518 Y26.7108
G01 X0.5046 Y26.6679
G01 X0.4617 Y26.6207
G01 X0.4237 Y26.5694
G01 X0.3910 Y26.5147
G01 X0.3637 Y26.4570
G01 X0.3422 Y26.3970
G01 X0.3267 Y26.3351
G01 X0.3173 Y26.2720
G01 X0.3142 Y26.2083
G01 X0.3142 Y14.7414
G00 Z2.0000
G00 X27.3240 Y12.8414
G01 F60.00
G01 Z-0.5000
G01 F60.00
G01 X27.3240 Y0.9745
G01 X27.3209 Y0.9108
G01 X27.3115 Y0.8477
G01 X27.2960 Y0.7858
G01 X27.2745 Y0.7258
G01 X27.2472 Y0.6681
G01 X27.2145 Y0.6134
G01 X27.1765 Y0.5621
G01 X27.1336 Y0.5149
G01 X27.0864 Y0.4720
G01 X27.0351 Y0.4340
G01 X26.9804 Y0.4013
G01 X26.9227 Y0.3740
G01 X26.8627 Y0.3525
G01 X26.8008 Y0.3370
G01 X26.7377 Y0.3276
G01 X26.6740 Y0.3245
G00 X26.6740 Y0.3245
G01 F60.00
G01 Z-1.0000
G01 F60.00
G01 X26.7377 Y0.3276
G01 X26.8008 Y0.3370
G01 X26.8627 Y0.3525
G01 X26.9227 Y0.3740
G01 X26.9804 Y0.4013
G01 X27.0351 Y0.4340
G01 X27.0864 Y0.4720
G01 X27.1336 Y0.5149
G01 X27.1765 Y0.5621
G01 X27.2145 Y0.6134
G01 X27.2472 Y0.6681
G01 X27.2745 Y0.7258
G01 X27.2960 Y0.7858
G01 X27.3115 Y0.8477
G01 X27.3209 Y0.9108
G01 X27.3240 Y0.9745
G01 X27.3240 Y12.8414
G00 X27.3240 Y12.8414
G01 F60.00
G01 Z-1.5000
G01 F60.00
G01 X27.3240 Y0.9745
G01 X27.3209 Y0.9108
G01 X27.3115 Y0.8477
G01 X27.2960 Y0.7858
G01 X27.2745 Y0.7258
G01 X27.2472 Y0.6681
G01 X27.2145 Y0.6134
G01 X27.1765 Y0.5621
G01 X27.1336 Y0.5149
G01 X27.0864 Y0.4720
G01 X27.0351 Y0.4340
G01 X26.9804 Y0.4013
G01 X26.9227 Y0.3740
G01 X26.8627 Y0.3525
G01 X26.8008 Y0.3370
G01 X26.7377 Y0.3276
G01 X26.6740 Y0.3245
G00 X26.6740 Y0.3245
G01 F60.00
G01 Z-2.0000
G01 F60.00
G01 X26.7377 Y0.3276
G01 X26.8008 Y0.3370
G01 X26.8627 Y0.3525
G01 X26.9227 Y0.3740
G01 X26.9804 Y0.4013
G01 X27.0351 Y0.4340
G01 X27.0864 Y0.4720
G01 X27.1336 Y0.5149
G01 X27.1765 Y0.5621
G01 X27.2145 Y0.6134
G01 X27.2472 Y0.6681
G01 X27.2745 Y0.7258
G01 X27.2960 Y0.7858
G01 X27.3115 Y0.8477
G01 X27.3209 Y0.9108
G01 X27.3240 Y0.9745
G01 X27.3240 Y12.8414
G00 Z2.0000
M05
G00 Z2.0000
G00 Z2.00
G00 X0.0 Y0.0

