(G-CODE GENERATED BY FLATCAM v8.991 - www.flatcam.org - Version Date: 2019/12/27)

(Name: Drill_0.6)
(Type: G-code from Excellon)
(Units: MM)

(Created on Wednesday, 22 November 2023 at 16:19)

(Feedrate: 60.0 mm/min)
(Feedrate rapids 1500.0 mm/min)

(Z_Cut: -2.1 mm)
(Z_Move: 2.0 mm)
(Z Toolchange: 15.0 mm)
(X,Y Toolchange: 0.0000, 0.0000 mm)
(Z Start: None mm)
(Z End: 2.0 mm)
(Steps per circle: 64)
(Preprocessor Excellon: default)

(X range:    4.6692 ...   23.9072  mm)
(Y range:    3.0170 ...   24.2310  mm)

(Spindle Speed: 800.0 RPM)
G21
G90
G94




G01 F60.00
G00 Z2.0000

M03 S800.0
G00 X4.9742 Y22.3990
G01 Z-2.1000
G01 Z0
G00 Z2.0000
G00 X4.9742 Y19.8590
G01 Z-2.1000
G01 Z0
G00 Z2.0000
G00 X4.9742 Y17.3190
G01 Z-2.1000
G01 Z0
G00 Z2.0000
G00 X6.8132 Y4.3610
G01 Z-2.1000
G01 Z0
G00 Z2.0000
G00 X9.3532 Y4.3610
G01 Z-2.1000
G01 Z0
G00 Z2.0000
G00 X11.8932 Y4.3610
G01 Z-2.1000
G01 Z0
G00 Z2.0000
G00 X18.5142 Y3.3220
G01 Z-2.1000
G01 Z0
G00 Z2.0000
G00 X21.0542 Y3.3220
G01 Z-2.1000
G01 Z0
G00 Z2.0000
G00 X23.5942 Y3.3220
G01 Z-2.1000
G01 Z0
G00 Z2.0000
M05
G00 Z2.00
G00 X0.0 Y0.0

