(G-CODE GENERATED BY FLATCAM v8.991 - www.flatcam.org - Version Date: 2019/12/27)

(Name: Pistas)
(Type: G-code from Geometry)
(Units: MM)

(Created on Wednesday, 22 November 2023 at 16:17)

(TOOL DIAMETER: 0.13 mm)
(Feedrate: 60.0 mm/min)
(Feedrate_Z: 60.0 mm/min)
(Feedrate rapids 1500.0 mm/min)

(Z_Cut: -0.0851 mm)
(Z_Move: 2.0 mm)
(Z Toolchange: 15.0 mm)
(X,Y Toolchange: 0.0000, 0.0000 mm)
(Z Start: None mm)
(Z End: 2.0 mm)
(Steps per circle: 64)
(Preprocessor Geometry: default)

(X range:    0.8992 ...   26.7390  mm)
(Y range:    0.9095 ...   26.2733  mm)

(Spindle Speed: 800 RPM)
G21
G90
G94




G01 F60.00
G00 Z2.0000

M03 S800
G00 X1.2527 Y0.9102
G01 F60.00
G01 Z-0.0851
G01 F60.00
G01 X1.2647 Y0.9095
G01 X6.8795 Y0.9183
G01 X6.8910 Y0.9192
G01 X6.9041 Y0.9193
G01 X6.9514 Y0.9257
G01 X6.9631 Y0.9282
G01 X7.0044 Y0.9408
G01 X7.0196 Y0.9465
G01 X7.0586 Y0.9659
G01 X7.0726 Y0.9740
G01 X7.1079 Y0.9994
G01 X7.1202 Y1.0096
G01 X7.1509 Y1.0403
G01 X7.1615 Y1.0524
G01 X7.1755 Y1.0723
G01 X7.1867 Y1.0875
G01 X7.1952 Y1.1013
G01 X7.2144 Y1.1403
G01 X7.2207 Y1.1553
G01 X7.2275 Y1.1787
G01 X7.2332 Y1.1967
G01 X7.2347 Y1.2022
G01 X7.2377 Y1.2177
G01 X7.2426 Y1.2558
G01 X7.2437 Y1.2717
G01 X7.2422 Y1.3154
G01 X7.2406 Y1.3311
G01 X7.2397 Y1.3366
G01 X7.2356 Y1.3551
G01 X7.2311 Y1.3785
G01 X7.2263 Y1.3945
G01 X7.2127 Y1.4303
G01 X7.2059 Y1.4452
G01 X7.1844 Y1.4825
G01 X7.1816 Y1.4870
G01 X7.1723 Y1.4999
G01 X7.1479 Y1.5295
G01 X7.1370 Y1.5413
G01 X6.3594 Y2.3188
G01 X6.2779 Y2.5155
G01 X6.2779 Y3.3345
G01 X6.2748 Y3.3823
G01 X6.2721 Y3.3958
G01 X6.2707 Y3.4067
G01 X6.2660 Y3.4240
G01 X6.2633 Y3.4359
G01 X6.2621 Y3.4407
G01 X6.2577 Y3.4524
G01 X6.2539 Y3.4645
G01 X6.2467 Y3.4801
G01 X6.2402 Y3.4959
G01 X6.2340 Y3.5068
G01 X6.2282 Y3.5182
G01 X6.2186 Y3.5324
G01 X6.2127 Y3.5424
G01 X6.2097 Y3.5470
G01 X6.2015 Y3.5569
G01 X6.1941 Y3.5671
G01 X6.1823 Y3.5795
G01 X6.1711 Y3.5925
G01 X5.9677 Y3.7958
G01 X5.8159 Y4.1623
G01 X5.8159 Y4.4498
G01 X5.8128 Y4.4977
G01 X5.8101 Y4.5112
G01 X5.8087 Y4.5221
G01 X5.8074 Y4.5276
G01 X5.8040 Y4.5394
G01 X5.8001 Y4.5561
G01 X5.7957 Y4.5678
G01 X5.7919 Y4.5799
G01 X5.7847 Y4.5955
G01 X5.7782 Y4.6113
G01 X5.7720 Y4.6222
G01 X5.7662 Y4.6336
G01 X5.7566 Y4.6478
G01 X5.7477 Y4.6624
G01 X5.7395 Y4.6723
G01 X5.7320 Y4.6826
G01 X5.7203 Y4.6949
G01 X5.7091 Y4.7079
G01 X2.1834 Y8.2334
G01 X2.1020 Y8.4301
G01 X2.1020 Y15.0884
G01 X2.1834 Y15.2851
G01 X3.8705 Y16.9721
G01 X3.9023 Y17.0084
G01 X3.9098 Y17.0198
G01 X3.9164 Y17.0283
G01 X3.9253 Y17.0438
G01 X3.9317 Y17.0537
G01 X3.9344 Y17.0584
G01 X3.9397 Y17.0699
G01 X3.9455 Y17.0810
G01 X3.9515 Y17.0972
G01 X3.9581 Y17.1132
G01 X3.9613 Y17.1251
G01 X3.9653 Y17.1369
G01 X3.9686 Y17.1541
G01 X3.9726 Y17.1710
G01 X3.9738 Y17.1835
G01 X3.9757 Y17.1958
G01 X3.9762 Y17.2129
G01 X3.9774 Y17.2302
G01 X3.9774 Y17.5177
G01 X4.1292 Y17.8842
G01 X4.4096 Y18.1646
G01 X4.6211 Y18.2523
G01 X4.6313 Y18.2574
G01 X4.6440 Y18.2627
G01 X4.6706 Y18.2785
G01 X4.6848 Y18.2864
G01 X4.6951 Y18.2936
G01 X4.7319 Y18.3240
G01 X4.7401 Y18.3319
G01 X4.7441 Y18.3362
G01 X4.7560 Y18.3505
G01 X4.7685 Y18.3644
G01 X4.7762 Y18.3745
G01 X4.7815 Y18.3821
G01 X4.7911 Y18.3981
G01 X4.8012 Y18.4139
G01 X4.8091 Y18.4287
G01 X4.8255 Y18.4684
G01 X4.8309 Y18.4843
G01 X4.8406 Y18.5260
G01 X4.8434 Y18.5424
G01 X4.8464 Y18.5904
G01 X4.8458 Y18.6073
G01 X4.8436 Y18.6259
G01 X4.8420 Y18.6447
G01 X4.8393 Y18.6607
G01 X4.8266 Y18.7077
G01 X4.8207 Y18.7234
G01 X4.8127 Y18.7402
G01 X4.8052 Y18.7573
G01 X4.8027 Y18.7625
G01 X4.7944 Y18.7766
G01 X4.7704 Y18.8121
G01 X4.7597 Y18.8251
G01 X4.7467 Y18.8385
G01 X4.7343 Y18.8522
G01 X4.7218 Y18.8640
G01 X4.6836 Y18.8932
G01 X4.6694 Y18.9019
G01 X4.6316 Y18.9219
G01 X4.4096 Y19.0141
G01 X4.1292 Y19.2945
G01 X3.9774 Y19.6610
G01 X3.9774 Y20.0577
G01 X4.1292 Y20.4242
G01 X4.4096 Y20.7046
G01 X4.6840 Y20.8182
G01 X4.7273 Y20.8399
G01 X4.7321 Y20.8425
G01 X4.7405 Y20.8483
G01 X4.7478 Y20.8525
G01 X4.7642 Y20.8652
G01 X4.7807 Y20.8773
G01 X4.7876 Y20.8840
G01 X4.7949 Y20.8901
G01 X4.8085 Y20.9049
G01 X4.8188 Y20.9151
G01 X4.8226 Y20.9193
G01 X4.8285 Y20.9271
G01 X4.8347 Y20.9344
G01 X4.8457 Y20.9512
G01 X4.8573 Y20.9678
G01 X4.8616 Y20.9761
G01 X4.8667 Y20.9843
G01 X4.8692 Y20.9894
G01 X4.8750 Y21.0030
G01 X4.8837 Y21.0212
G01 X4.8866 Y21.0303
G01 X4.8903 Y21.0392
G01 X4.8953 Y21.0588
G01 X4.9009 Y21.0779
G01 X4.9024 Y21.0876
G01 X4.9046 Y21.0971
G01 X4.9052 Y21.1024
G01 X4.9064 Y21.1173
G01 X4.9087 Y21.1369
G01 X4.9087 Y21.1467
G01 X4.9092 Y21.1566
G01 X4.9077 Y21.1765
G01 X4.9069 Y21.1963
G01 X4.9053 Y21.2060
G01 X4.9042 Y21.2160
G01 X4.9031 Y21.2212
G01 X4.8994 Y21.2355
G01 X4.8953 Y21.2550
G01 X4.8922 Y21.2640
G01 X4.8897 Y21.2734
G01 X4.8818 Y21.2920
G01 X4.8745 Y21.3107
G01 X4.8698 Y21.3194
G01 X4.8657 Y21.3283
G01 X4.8550 Y21.3451
G01 X4.8449 Y21.3622
G01 X4.8390 Y21.3699
G01 X4.8335 Y21.3781
G01 X4.8199 Y21.3933
G01 X4.8104 Y21.4048
G01 X4.7932 Y21.4223
G01 X4.7892 Y21.4257
G01 X4.7776 Y21.4348
G01 X4.7625 Y21.4478
G01 X4.7542 Y21.4533
G01 X4.7463 Y21.4592
G01 X4.7292 Y21.4690
G01 X4.7121 Y21.4795
G01 X4.7032 Y21.4834
G01 X4.6945 Y21.4880
G01 X4.6755 Y21.4950
G01 X4.6619 Y21.5006
G01 X4.6094 Y21.5179
G01 X4.4760 Y21.5859
G01 X4.3548 Y21.6739
G01 X4.2490 Y21.7797
G01 X4.1610 Y21.9009
G01 X4.0930 Y22.0344
G01 X4.2332 Y22.0344
G01 X4.2466 Y22.0068
G01 X4.2851 Y21.9426
G01 X4.2886 Y21.9373
G01 X4.3332 Y21.8773
G01 X4.3372 Y21.8723
G01 X4.3874 Y21.8169
G01 X4.3919 Y21.8124
G01 X4.4473 Y21.7622
G01 X4.4523 Y21.7582
G01 X4.5123 Y21.7136
G01 X4.5176 Y21.7101
G01 X4.5818 Y21.6716
G01 X4.5874 Y21.6686
G01 X4.6550 Y21.6366
G01 X4.6609 Y21.6342
G01 X4.7313 Y21.6090
G01 X4.7374 Y21.6072
G01 X4.8099 Y21.5890
G01 X4.8162 Y21.5877
G01 X4.8902 Y21.5768
G01 X4.8965 Y21.5761
G01 X4.9712 Y21.5725
G01 X4.9776 Y21.5725
G01 X5.0523 Y21.5761
G01 X5.0586 Y21.5768
G01 X5.1326 Y21.5877
G01 X5.1389 Y21.5890
G01 X5.2114 Y21.6072
G01 X5.2175 Y21.6090
G01 X5.2879 Y21.6342
G01 X5.2938 Y21.6366
G01 X5.3614 Y21.6686
G01 X5.3670 Y21.6716
G01 X5.4312 Y21.7101
G01 X5.4365 Y21.7136
G01 X5.4965 Y21.7582
G01 X5.5015 Y21.7622
G01 X5.5569 Y21.8124
G01 X5.5614 Y21.8169
G01 X5.6116 Y21.8723
G01 X5.6156 Y21.8773
G01 X5.6602 Y21.9373
G01 X5.6637 Y21.9426
G01 X5.7022 Y22.0068
G01 X5.7156 Y22.0344
G01 X5.8559 Y22.0344
G01 X5.7879 Y21.9009
G01 X5.6999 Y21.7797
G01 X5.5941 Y21.6739
G01 X5.4729 Y21.5859
G01 X5.3395 Y21.5179
G01 X5.2918 Y21.5024
G01 X5.2860 Y21.5002
G01 X5.2468 Y21.4842
G01 X5.2422 Y21.4822
G01 X5.2332 Y21.4770
G01 X5.2251 Y21.4732
G01 X5.2080 Y21.4618
G01 X5.1911 Y21.4513
G01 X5.1835 Y21.4451
G01 X5.1756 Y21.4395
G01 X5.1609 Y21.4258
G01 X5.1459 Y21.4127
G01 X5.1395 Y21.4055
G01 X5.1325 Y21.3986
G01 X5.1201 Y21.3826
G01 X5.1073 Y21.3670
G01 X5.1021 Y21.3587
G01 X5.0965 Y21.3509
G01 X5.0870 Y21.3333
G01 X5.0770 Y21.3162
G01 X5.0732 Y21.3071
G01 X5.0688 Y21.2982
G01 X5.0622 Y21.2793
G01 X5.0551 Y21.2605
G01 X5.0529 Y21.2509
G01 X5.0500 Y21.2417
G01 X5.0467 Y21.2219
G01 X5.0427 Y21.2022
G01 X5.0421 Y21.1928
G01 X5.0407 Y21.1831
G01 X5.0405 Y21.1776
G01 X5.0406 Y21.1627
G01 X5.0399 Y21.1427
G01 X5.0408 Y21.1334
G01 X5.0410 Y21.1236
G01 X5.0442 Y21.1036
G01 X5.0468 Y21.0837
G01 X5.0493 Y21.0741
G01 X5.0512 Y21.0644
G01 X5.0575 Y21.0457
G01 X5.0632 Y21.0264
G01 X5.0673 Y21.0173
G01 X5.0706 Y21.0085
G01 X5.0799 Y20.9907
G01 X5.0863 Y20.9772
G01 X5.0888 Y20.9725
G01 X5.0941 Y20.9646
G01 X5.0989 Y20.9561
G01 X5.1021 Y20.9516
G01 X5.1111 Y20.9400
G01 X5.1227 Y20.9237
G01 X5.1293 Y20.9166
G01 X5.1354 Y20.9091
G01 X5.1500 Y20.8951
G01 X5.1641 Y20.8810
G01 X5.1719 Y20.8749
G01 X5.1793 Y20.8684
G01 X5.1957 Y20.8572
G01 X5.2119 Y20.8455
G01 X5.2205 Y20.8409
G01 X5.2288 Y20.8356
G01 X5.2470 Y20.8272
G01 X5.2649 Y20.8182
G01 X5.5184 Y20.7135
G01 X5.5705 Y20.6985
G01 X5.5821 Y20.6962
G01 X5.6361 Y20.6904
G01 X5.6938 Y20.6934
G01 X5.7475 Y20.7048
G01 X5.7543 Y20.7066
G01 X5.8083 Y20.7282
G01 X5.8545 Y20.7558
G01 X5.8604 Y20.7596
G01 X5.9045 Y20.7972
G01 X7.9439 Y22.8367
G01 X8.1406 Y22.9182
G01 X10.0349 Y22.9182
G01 X10.2316 Y22.8367
G01 X11.7210 Y21.3473
G01 X11.8025 Y21.1507
G01 X11.8025 Y19.5601
G01 X11.8057 Y19.5120
G01 X11.8084 Y19.4988
G01 X11.8097 Y19.4880
G01 X11.8145 Y19.4705
G01 X11.8183 Y19.4540
G01 X11.8227 Y19.4421
G01 X11.8265 Y19.4300
G01 X11.8337 Y19.4144
G01 X11.8402 Y19.3986
G01 X11.8464 Y19.3877
G01 X11.8522 Y19.3763
G01 X11.8619 Y19.3620
G01 X11.8709 Y19.3474
G01 X11.8788 Y19.3378
G01 X11.8861 Y19.3276
G01 X11.8981 Y19.3150
G01 X11.9093 Y19.3020
G01 X12.3625 Y18.8488
G01 X12.3758 Y18.8376
G01 X12.3986 Y18.8173
G01 X12.4102 Y18.8095
G01 X12.4188 Y18.8029
G01 X12.4342 Y18.7941
G01 X12.4489 Y18.7849
G01 X12.4603 Y18.7797
G01 X12.4714 Y18.7739
G01 X12.4763 Y18.7719
G01 X12.4876 Y18.7679
G01 X12.5033 Y18.7614
G01 X12.5155 Y18.7580
G01 X12.5275 Y18.7540
G01 X12.5445 Y18.7508
G01 X12.5612 Y18.7469
G01 X12.5736 Y18.7456
G01 X12.5862 Y18.7436
G01 X12.6035 Y18.7431
G01 X12.6205 Y18.7420
G01 X12.8680 Y18.7420
G01 X12.8835 Y18.7433
G01 X12.9046 Y18.7438
G01 X12.9254 Y18.7475
G01 X12.9403 Y18.7492
G01 X12.9521 Y18.7524
G01 X12.9633 Y18.7547
G01 X12.9684 Y18.7563
G01 X12.9805 Y18.7607
G01 X12.9981 Y18.7660
G01 X13.0083 Y18.7706
G01 X13.0190 Y18.7746
G01 X13.0354 Y18.7836
G01 X13.0519 Y18.7917
G01 X13.0613 Y18.7980
G01 X13.0713 Y18.8038
G01 X13.0857 Y18.8151
G01 X13.1005 Y18.8256
G01 X13.1092 Y18.8337
G01 X13.1179 Y18.8410
G01 X13.1302 Y18.8543
G01 X13.1397 Y18.8636
G01 X13.1431 Y18.8672
G01 X13.1502 Y18.8763
G01 X13.1579 Y18.8852
G01 X13.1678 Y18.9003
G01 X13.1786 Y18.9152
G01 X13.1840 Y18.9253
G01 X13.1901 Y18.9352
G01 X13.1975 Y18.9519
G01 X13.2057 Y18.9685
G01 X13.2093 Y18.9793
G01 X13.2136 Y18.9896
G01 X13.2184 Y19.0075
G01 X13.2236 Y19.0250
G01 X13.2255 Y19.0362
G01 X13.2281 Y19.0475
G01 X13.2288 Y19.0530
G01 X13.2298 Y19.0659
G01 X13.2323 Y19.0840
G01 X13.2323 Y19.0954
G01 X13.2330 Y19.1069
G01 X13.2330 Y19.8432
G01 X13.3706 Y19.9808
G01 X13.6680 Y19.9808
G01 X13.6837 Y19.9821
G01 X13.7046 Y19.9827
G01 X13.7256 Y19.9863
G01 X13.7402 Y19.9881
G01 X13.7518 Y19.9911
G01 X13.7633 Y19.9935
G01 X13.7805 Y19.9995
G01 X13.7981 Y20.0048
G01 X13.8086 Y20.0096
G01 X13.8191 Y20.0136
G01 X13.8353 Y20.0223
G01 X13.8471 Y20.0280
G01 X13.8521 Y20.0306
G01 X13.8613 Y20.0369
G01 X13.8711 Y20.0425
G01 X13.8758 Y20.0459
G01 X13.8859 Y20.0540
G01 X13.9006 Y20.0646
G01 X13.9090 Y20.0724
G01 X13.9178 Y20.0797
G01 X13.9302 Y20.0932
G01 X13.9431 Y20.1060
G01 X13.9502 Y20.1151
G01 X13.9578 Y20.1239
G01 X13.9678 Y20.1392
G01 X13.9786 Y20.1540
G01 X13.9841 Y20.1643
G01 X13.9901 Y20.1741
G01 X13.9975 Y20.1908
G01 X14.0057 Y20.2073
G01 X14.0093 Y20.2180
G01 X14.0136 Y20.2284
G01 X14.0184 Y20.2464
G01 X14.0236 Y20.2639
G01 X14.0255 Y20.2751
G01 X14.0281 Y20.2865
G01 X14.0298 Y20.3047
G01 X14.0323 Y20.3228
G01 X14.0323 Y20.3343
G01 X14.0330 Y20.3458
G01 X14.0330 Y20.5366
G01 X14.0315 Y20.5539
G01 X14.0298 Y20.5847
G01 X14.0271 Y20.5983
G01 X14.0257 Y20.6089
G01 X14.0211 Y20.6260
G01 X14.0172 Y20.6427
G01 X14.0128 Y20.6546
G01 X14.0090 Y20.6667
G01 X14.0070 Y20.6715
G01 X14.0018 Y20.6823
G01 X13.9952 Y20.6984
G01 X13.9890 Y20.7090
G01 X13.9834 Y20.7204
G01 X13.9736 Y20.7347
G01 X13.9647 Y20.7492
G01 X13.9565 Y20.7591
G01 X13.9490 Y20.7694
G01 X13.9373 Y20.7817
G01 X13.9261 Y20.7947
G01 X12.3554 Y22.3654
G01 X12.3192 Y22.3970
G01 X12.3079 Y22.4046
G01 X12.2992 Y22.4113
G01 X12.2836 Y22.4202
G01 X12.2690 Y22.4293
G01 X12.2576 Y22.4345
G01 X12.2465 Y22.4403
G01 X12.2313 Y22.4459
G01 X11.4721 Y23.2051
G01 X11.4721 Y24.2415
G01 X12.2049 Y24.9744
G01 X13.2414 Y24.9744
G01 X13.9742 Y24.2415
G01 X13.9742 Y23.2051
G01 X13.7596 Y22.9906
G01 X13.7496 Y22.9787
G01 X13.7386 Y22.9673
G01 X13.7351 Y22.9633
G01 X13.7228 Y22.9460
G01 X13.7137 Y22.9344
G01 X13.7076 Y22.9238
G01 X13.7012 Y22.9141
G01 X13.6934 Y22.8979
G01 X13.6847 Y22.8816
G01 X13.6807 Y22.8711
G01 X13.6760 Y22.8607
G01 X13.6743 Y22.8554
G01 X13.6707 Y22.8428
G01 X13.6649 Y22.8255
G01 X13.6626 Y22.8142
G01 X13.6597 Y22.8030
G01 X13.6575 Y22.7851
G01 X13.6544 Y22.7670
G01 X13.6540 Y22.7554
G01 X13.6529 Y22.7440
G01 X13.6530 Y22.7384
G01 X13.6537 Y22.7256
G01 X13.6537 Y22.7074
G01 X13.6552 Y22.6959
G01 X13.6560 Y22.6845
G01 X13.6597 Y22.6665
G01 X13.6627 Y22.6483
G01 X13.6660 Y22.6376
G01 X13.6686 Y22.6264
G01 X13.6703 Y22.6214
G01 X13.6751 Y22.6092
G01 X13.6810 Y22.5919
G01 X13.6860 Y22.5816
G01 X13.6906 Y22.5708
G01 X13.6998 Y22.5551
G01 X13.7083 Y22.5391
G01 X13.7151 Y22.5295
G01 X13.7213 Y22.5198
G01 X13.7327 Y22.5059
G01 X13.7438 Y22.4913
G01 X13.7520 Y22.4832
G01 X13.7596 Y22.4744
G01 X15.0217 Y21.2125
G01 X15.1031 Y21.0159
G01 X15.1031 Y20.3458
G01 X15.1044 Y20.3303
G01 X15.1049 Y20.3092
G01 X15.1057 Y20.3038
G01 X15.1086 Y20.2884
G01 X15.1103 Y20.2735
G01 X15.1135 Y20.2617
G01 X15.1158 Y20.2505
G01 X15.1218 Y20.2333
G01 X15.1271 Y20.2157
G01 X15.1319 Y20.2052
G01 X15.1359 Y20.1947
G01 X15.1446 Y20.1785
G01 X15.1528 Y20.1619
G01 X15.1591 Y20.1525
G01 X15.1649 Y20.1425
G01 X15.1762 Y20.1281
G01 X15.1867 Y20.1133
G01 X15.1948 Y20.1046
G01 X15.2022 Y20.0958
G01 X15.2155 Y20.0836
G01 X15.2282 Y20.0708
G01 X15.2374 Y20.0636
G01 X15.2463 Y20.0559
G01 X15.2614 Y20.0460
G01 X15.2763 Y20.0352
G01 X15.2865 Y20.0297
G01 X15.2966 Y20.0236
G01 X15.3130 Y20.0163
G01 X15.3295 Y20.0081
G01 X15.3404 Y20.0045
G01 X15.3509 Y20.0001
G01 X15.3687 Y19.9955
G01 X15.3860 Y19.9902
G01 X15.3974 Y19.9883
G01 X15.4088 Y19.9857
G01 X15.4141 Y19.9850
G01 X15.4270 Y19.9840
G01 X15.4451 Y19.9815
G01 X15.4565 Y19.9815
G01 X15.4680 Y19.9808
G01 X15.7654 Y19.9808
G01 X15.9031 Y19.8432
G01 X15.9031 Y19.0462
G01 X15.8990 Y19.0417
G01 X15.8867 Y19.0242
G01 X15.8775 Y19.0125
G01 X15.8715 Y19.0022
G01 X15.8651 Y18.9926
G01 X15.8571 Y18.9760
G01 X15.8485 Y18.9598
G01 X15.8444 Y18.9490
G01 X15.8398 Y18.9387
G01 X15.8347 Y18.9213
G01 X15.8286 Y18.9038
G01 X15.8264 Y18.8924
G01 X15.8235 Y18.8814
G01 X15.8212 Y18.8631
G01 X15.8183 Y18.8453
G01 X15.8179 Y18.8337
G01 X15.8168 Y18.8221
G01 X15.8175 Y18.8038
G01 X15.8176 Y18.7855
G01 X15.8190 Y18.7745
G01 X15.8197 Y18.7630
G01 X15.8235 Y18.7447
G01 X15.8264 Y18.7267
G01 X15.8298 Y18.7158
G01 X15.8325 Y18.7045
G01 X15.8390 Y18.6875
G01 X15.8448 Y18.6700
G01 X15.8500 Y18.6597
G01 X15.8543 Y18.6493
G01 X15.8569 Y18.6446
G01 X15.8636 Y18.6333
G01 X15.8723 Y18.6171
G01 X15.8789 Y18.6079
G01 X15.8849 Y18.5982
G01 X15.8967 Y18.5840
G01 X15.9031 Y18.5754
G01 X15.9031 Y17.7762
G01 X15.8989 Y17.7716
G01 X15.8868 Y17.7543
G01 X15.8776 Y17.7426
G01 X15.8715 Y17.7322
G01 X15.8652 Y17.7226
G01 X15.8572 Y17.7062
G01 X15.8484 Y17.6898
G01 X15.8444 Y17.6789
G01 X15.8398 Y17.6687
G01 X15.8347 Y17.6513
G01 X15.8286 Y17.6338
G01 X15.8264 Y17.6224
G01 X15.8235 Y17.6115
G01 X15.8212 Y17.5932
G01 X15.8183 Y17.5753
G01 X15.8179 Y17.5637
G01 X15.8168 Y17.5521
G01 X15.8175 Y17.5338
G01 X15.8176 Y17.5155
G01 X15.8190 Y17.5046
G01 X15.8197 Y17.4930
G01 X15.8235 Y17.4747
G01 X15.8264 Y17.4567
G01 X15.8298 Y17.4458
G01 X15.8325 Y17.4345
G01 X15.8390 Y17.4175
G01 X15.8449 Y17.3999
G01 X15.8500 Y17.3898
G01 X15.8542 Y17.3794
G01 X15.8570 Y17.3744
G01 X15.8636 Y17.3634
G01 X15.8722 Y17.3472
G01 X15.8789 Y17.3379
G01 X15.8849 Y17.3282
G01 X15.8967 Y17.3140
G01 X15.9031 Y17.3054
G01 X15.9031 Y16.9086
G01 X15.9039 Y16.8971
G01 X15.9039 Y16.8835
G01 X15.9084 Y16.8529
G01 X15.9094 Y16.8424
G01 X15.9104 Y16.8361
G01 X15.9129 Y16.8246
G01 X15.9269 Y16.7790
G01 X15.9336 Y16.7630
G01 X15.9422 Y16.7466
G01 X15.9502 Y16.7297
G01 X15.9588 Y16.7149
G01 X15.9868 Y16.6761
G01 X15.9980 Y16.6635
G01 X16.0114 Y16.6505
G01 X16.0245 Y16.6371
G01 X16.0375 Y16.6258
G01 X16.0765 Y16.5980
G01 X16.0910 Y16.5898
G01 X16.1079 Y16.5818
G01 X16.1245 Y16.5733
G01 X16.1402 Y16.5669
G01 X16.1860 Y16.5531
G01 X16.2028 Y16.5498
G01 X16.2213 Y16.5477
G01 X16.2451 Y16.5444
G01 X16.2619 Y16.5440
G01 X16.2805 Y16.5449
G01 X16.2991 Y16.5452
G01 X16.3047 Y16.5455
G01 X16.3213 Y16.5478
G01 X16.3634 Y16.5564
G01 X16.3793 Y16.5613
G01 X16.4193 Y16.5766
G01 X16.4342 Y16.5840
G01 X16.4503 Y16.5936
G01 X16.4666 Y16.6027
G01 X16.4715 Y16.6056
G01 X16.4848 Y16.6153
G01 X16.4992 Y16.6275
G01 X16.5139 Y16.6392
G01 X16.5261 Y16.6506
G01 X17.2090 Y17.3335
G01 X17.2200 Y17.3465
G01 X17.2408 Y17.3698
G01 X17.2483 Y17.3812
G01 X17.2549 Y17.3897
G01 X17.2638 Y17.4053
G01 X17.2728 Y17.4197
G01 X17.2780 Y17.4311
G01 X17.2840 Y17.4424
G01 X17.2900 Y17.4586
G01 X17.2966 Y17.4745
G01 X17.2999 Y17.4867
G01 X17.3038 Y17.4986
G01 X17.3070 Y17.5155
G01 X17.3109 Y17.5322
G01 X17.3122 Y17.5446
G01 X17.3142 Y17.5572
G01 X17.3147 Y17.5745
G01 X17.3158 Y17.5915
G01 X17.3158 Y19.4418
G01 X17.3155 Y19.4481
G01 X17.3144 Y19.4589
G01 X17.3127 Y19.4897
G01 X17.3100 Y19.5032
G01 X17.3086 Y19.5141
G01 X17.3040 Y19.5312
G01 X17.3000 Y19.5483
G01 X17.2956 Y19.5598
G01 X17.2920 Y19.5717
G01 X17.2845 Y19.5877
G01 X17.2781 Y19.6033
G01 X17.2719 Y19.6142
G01 X17.2661 Y19.6256
G01 X17.2565 Y19.6398
G01 X17.2476 Y19.6544
G01 X17.2394 Y19.6643
G01 X17.2319 Y19.6746
G01 X17.2202 Y19.6869
G01 X17.2090 Y19.6999
G01 X16.6470 Y20.2618
G01 X16.5655 Y20.4585
G01 X16.5655 Y20.7959
G01 X16.5649 Y20.8139
G01 X16.5590 Y20.8638
G01 X16.5569 Y20.8739
G01 X16.5417 Y20.9255
G01 X16.5188 Y20.9741
G01 X16.5131 Y20.9840
G01 X16.4821 Y21.0280
G01 X16.4450 Y21.0666
G01 X16.4360 Y21.0744
G01 X16.4096 Y21.0940
G01 X16.0400 Y21.4635
G01 X15.8495 Y21.9233
G01 X15.8495 Y24.4531
G01 X16.0400 Y24.9129
G01 X16.3919 Y25.2648
G01 X16.8517 Y25.4553
G01 X17.3495 Y25.4553
G01 X17.8093 Y25.2648
G01 X18.1513 Y24.9226
G01 X18.1627 Y24.9130
G01 X18.1768 Y24.8995
G01 X18.1956 Y24.8862
G01 X18.2075 Y24.8768
G01 X18.2169 Y24.8713
G01 X18.2256 Y24.8655
G01 X18.2432 Y24.8568
G01 X18.2605 Y24.8476
G01 X18.2699 Y24.8441
G01 X18.2791 Y24.8399
G01 X18.2980 Y24.8341
G01 X18.3165 Y24.8278
G01 X18.3264 Y24.8258
G01 X18.3364 Y24.8231
G01 X18.3559 Y24.8206
G01 X18.3751 Y24.8174
G01 X18.3855 Y24.8170
G01 X18.3957 Y24.8160
G01 X18.4151 Y24.8167
G01 X18.4347 Y24.8167
G01 X18.4450 Y24.8180
G01 X18.4552 Y24.8187
G01 X18.4743 Y24.8225
G01 X18.4934 Y24.8256
G01 X18.5031 Y24.8285
G01 X18.5133 Y24.8309
G01 X18.5317 Y24.8378
G01 X18.5503 Y24.8441
G01 X18.5595 Y24.8486
G01 X18.5689 Y24.8525
G01 X18.5858 Y24.8622
G01 X18.6031 Y24.8715
G01 X18.6113 Y24.8773
G01 X18.6200 Y24.8827
G01 X18.6353 Y24.8951
G01 X18.6465 Y24.9035
G01 X18.6511 Y24.9072
G01 X18.6581 Y24.9143
G01 X18.6657 Y24.9209
G01 X18.6788 Y24.9358
G01 X18.6921 Y24.9499
G01 X18.6979 Y24.9581
G01 X18.7047 Y24.9663
G01 X18.7214 Y24.9893
G01 X18.8555 Y25.1234
G01 X19.0090 Y25.2349
G01 X19.1780 Y25.3210
G01 X19.2756 Y25.3527
G01 X19.2756 Y25.2210
G01 X19.2297 Y25.2045
G01 X19.2238 Y25.2021
G01 X19.1336 Y25.1594
G01 X19.1280 Y25.1564
G01 X19.0424 Y25.1051
G01 X19.0371 Y25.1016
G01 X18.9570 Y25.0422
G01 X18.9521 Y25.0381
G01 X18.8782 Y24.9711
G01 X18.8737 Y24.9666
G01 X18.8067 Y24.8927
G01 X18.8026 Y24.8878
G01 X18.7432 Y24.8077
G01 X18.7397 Y24.8024
G01 X18.6884 Y24.7168
G01 X18.6854 Y24.7112
G01 X18.6427 Y24.6210
G01 X18.6403 Y24.6151
G01 X18.6067 Y24.5212
G01 X18.6048 Y24.5151
G01 X18.5806 Y24.4183
G01 X18.5793 Y24.4120
G01 X18.5647 Y24.3134
G01 X18.5641 Y24.3070
G01 X18.5591 Y24.2042
G01 X18.5591 Y22.1722
G01 X18.5641 Y22.0694
G01 X18.5647 Y22.0630
G01 X18.5793 Y21.9644
G01 X18.5806 Y21.9581
G01 X18.6048 Y21.8613
G01 X18.6067 Y21.8552
G01 X18.6403 Y21.7613
G01 X18.6427 Y21.7554
G01 X18.6854 Y21.6652
G01 X18.6884 Y21.6596
G01 X18.7397 Y21.5740
G01 X18.7432 Y21.5687
G01 X18.8026 Y21.4886
G01 X18.8067 Y21.4837
G01 X18.8737 Y21.4098
G01 X18.8782 Y21.4053
G01 X18.9521 Y21.3383
G01 X18.9570 Y21.3342
G01 X19.0371 Y21.2748
G01 X19.0424 Y21.2713
G01 X19.1280 Y21.2200
G01 X19.1336 Y21.2170
G01 X19.2238 Y21.1743
G01 X19.2297 Y21.1719
G01 X19.2756 Y21.1554
G01 X19.2756 Y21.0237
G01 X19.1780 Y21.0554
G01 X19.0090 Y21.1415
G01 X18.8555 Y21.2531
G01 X18.7214 Y21.3871
G01 X18.7047 Y21.4101
G01 X18.6950 Y21.4215
G01 X18.6831 Y21.4370
G01 X18.6669 Y21.4529
G01 X18.6564 Y21.4644
G01 X18.6479 Y21.4713
G01 X18.6404 Y21.4783
G01 X18.6361 Y21.4815
G01 X18.6243 Y21.4896
G01 X18.6086 Y21.5015
G01 X18.5999 Y21.5064
G01 X18.5914 Y21.5120
G01 X18.5737 Y21.5206
G01 X18.5564 Y21.5297
G01 X18.5468 Y21.5333
G01 X18.5375 Y21.5374
G01 X18.5187 Y21.5430
G01 X18.5000 Y21.5492
G01 X18.4903 Y21.5511
G01 X18.4803 Y21.5537
G01 X18.4606 Y21.5562
G01 X18.4413 Y21.5593
G01 X18.4312 Y21.5595
G01 X18.4211 Y21.5605
G01 X18.4014 Y21.5597
G01 X18.3817 Y21.5596
G01 X18.3716 Y21.5581
G01 X18.3616 Y21.5575
G01 X18.3423 Y21.5535
G01 X18.3231 Y21.5502
G01 X18.3132 Y21.5472
G01 X18.3032 Y21.5448
G01 X18.2850 Y21.5378
G01 X18.2670 Y21.5316
G01 X18.2574 Y21.5270
G01 X18.2476 Y21.5228
G01 X18.2310 Y21.5131
G01 X18.2139 Y21.5038
G01 X18.2054 Y21.4977
G01 X18.1967 Y21.4921
G01 X18.1819 Y21.4799
G01 X18.1704 Y21.4712
G01 X18.1666 Y21.4680
G01 X18.1593 Y21.4608
G01 X18.1513 Y21.4538
G01 X17.8179 Y21.1204
G01 X17.8079 Y21.1085
G01 X17.7933 Y21.0931
G01 X17.7812 Y21.0758
G01 X17.7721 Y21.0643
G01 X17.7659 Y21.0536
G01 X17.7596 Y21.0441
G01 X17.7516 Y21.0277
G01 X17.7452 Y21.0160
G01 X17.7430 Y21.0115
G01 X17.7389 Y21.0008
G01 X17.7342 Y20.9900
G01 X17.7290 Y20.9726
G01 X17.7232 Y20.9554
G01 X17.7209 Y20.9439
G01 X17.7180 Y20.9326
G01 X17.7158 Y20.9149
G01 X17.7134 Y20.9021
G01 X17.7127 Y20.8967
G01 X17.7123 Y20.8852
G01 X17.7112 Y20.8738
G01 X17.7120 Y20.8553
G01 X17.7120 Y20.8372
G01 X17.7135 Y20.8257
G01 X17.7143 Y20.8142
G01 X17.7180 Y20.7962
G01 X17.7200 Y20.7833
G01 X17.7209 Y20.7782
G01 X17.7243 Y20.7673
G01 X17.7269 Y20.7562
G01 X17.7286 Y20.7512
G01 X17.7334 Y20.7390
G01 X17.7393 Y20.7217
G01 X17.7443 Y20.7114
G01 X17.7489 Y20.7006
G01 X17.7581 Y20.6849
G01 X17.7666 Y20.6689
G01 X17.7733 Y20.6594
G01 X17.7795 Y20.6496
G01 X17.7911 Y20.6355
G01 X17.8022 Y20.6210
G01 X17.8103 Y20.6130
G01 X17.8179 Y20.6042
G01 X18.3345 Y20.0877
G01 X18.3393 Y20.0835
G01 X18.3475 Y20.0767
G01 X18.3708 Y20.0559
G01 X18.3822 Y20.0484
G01 X18.3907 Y20.0418
G01 X18.4062 Y20.0329
G01 X18.4208 Y20.0238
G01 X18.4323 Y20.0185
G01 X18.4434 Y20.0127
G01 X18.4483 Y20.0107
G01 X18.4596 Y20.0067
G01 X18.4756 Y20.0001
G01 X18.4875 Y19.9969
G01 X18.4995 Y19.9929
G01 X18.5165 Y19.9897
G01 X18.5333 Y19.9857
G01 X18.5459 Y19.9844
G01 X18.5582 Y19.9825
G01 X18.5753 Y19.9820
G01 X18.5925 Y19.9808
G01 X20.9654 Y19.9808
G01 X21.1031 Y19.8432
G01 X21.1031 Y19.0462
G01 X21.0990 Y19.0417
G01 X21.0867 Y19.0242
G01 X21.0775 Y19.0125
G01 X21.0715 Y19.0022
G01 X21.0651 Y18.9926
G01 X21.0571 Y18.9760
G01 X21.0485 Y18.9598
G01 X21.0444 Y18.9490
G01 X21.0398 Y18.9387
G01 X21.0347 Y18.9213
G01 X21.0286 Y18.9038
G01 X21.0264 Y18.8924
G01 X21.0235 Y18.8814
G01 X21.0212 Y18.8631
G01 X21.0183 Y18.8453
G01 X21.0179 Y18.8337
G01 X21.0168 Y18.8221
G01 X21.0175 Y18.8038
G01 X21.0176 Y18.7855
G01 X21.0190 Y18.7745
G01 X21.0197 Y18.7630
G01 X21.0235 Y18.7447
G01 X21.0264 Y18.7267
G01 X21.0298 Y18.7158
G01 X21.0325 Y18.7045
G01 X21.0390 Y18.6875
G01 X21.0448 Y18.6700
G01 X21.0500 Y18.6597
G01 X21.0543 Y18.6493
G01 X21.0569 Y18.6446
G01 X21.0636 Y18.6333
G01 X21.0723 Y18.6171
G01 X21.0789 Y18.6079
G01 X21.0849 Y18.5982
G01 X21.0967 Y18.5840
G01 X21.1031 Y18.5754
G01 X21.1031 Y17.7762
G01 X21.0989 Y17.7716
G01 X21.0868 Y17.7543
G01 X21.0776 Y17.7426
G01 X21.0715 Y17.7322
G01 X21.0652 Y17.7226
G01 X21.0572 Y17.7062
G01 X21.0484 Y17.6898
G01 X21.0444 Y17.6789
G01 X21.0398 Y17.6687
G01 X21.0347 Y17.6513
G01 X21.0286 Y17.6338
G01 X21.0264 Y17.6224
G01 X21.0235 Y17.6115
G01 X21.0212 Y17.5932
G01 X21.0183 Y17.5753
G01 X21.0179 Y17.5637
G01 X21.0168 Y17.5521
G01 X21.0175 Y17.5338
G01 X21.0176 Y17.5155
G01 X21.0190 Y17.5046
G01 X21.0197 Y17.4930
G01 X21.0235 Y17.4747
G01 X21.0264 Y17.4567
G01 X21.0298 Y17.4458
G01 X21.0325 Y17.4345
G01 X21.0390 Y17.4175
G01 X21.0449 Y17.3999
G01 X21.0500 Y17.3898
G01 X21.0542 Y17.3794
G01 X21.0570 Y17.3744
G01 X21.0636 Y17.3634
G01 X21.0722 Y17.3472
G01 X21.0789 Y17.3379
G01 X21.0849 Y17.3282
G01 X21.0967 Y17.3140
G01 X21.1031 Y17.3054
G01 X21.1031 Y16.5084
G01 X21.0767 Y16.4818
G01 X21.0419 Y16.4401
G01 X21.0318 Y16.4248
G01 X21.0232 Y16.4092
G01 X21.0141 Y16.3940
G01 X21.0113 Y16.3889
G01 X21.0059 Y16.3774
G01 X20.9895 Y16.3334
G01 X20.9849 Y16.3160
G01 X20.9817 Y16.2982
G01 X20.9780 Y16.2807
G01 X20.9756 Y16.2628
G01 X20.9751 Y16.2391
G01 X20.9743 Y16.2212
G01 X20.9748 Y16.2031
G01 X20.9811 Y16.1567
G01 X20.9853 Y16.1391
G01 X20.9908 Y16.1219
G01 X20.9958 Y16.1045
G01 X21.0023 Y16.0872
G01 X21.0045 Y16.0826
G01 X21.0128 Y16.0666
G01 X21.0229 Y16.0457
G01 X21.0442 Y16.0087
G01 X21.0464 Y16.0007
G01 X18.4897 Y16.0007
G01 X18.4919 Y16.0087
G01 X18.5160 Y16.0511
G01 X18.5368 Y16.0954
G01 X18.5431 Y16.1121
G01 X18.5540 Y16.1524
G01 X18.5575 Y16.1701
G01 X18.5615 Y16.2116
G01 X18.5621 Y16.2292
G01 X18.5589 Y16.2765
G01 X18.5558 Y16.2943
G01 X18.5514 Y16.3116
G01 X18.5463 Y16.3343
G01 X18.5403 Y16.3518
G01 X18.5331 Y16.3681
G01 X18.5243 Y16.3898
G01 X18.5156 Y16.4059
G01 X18.5058 Y16.4209
G01 X18.4937 Y16.4408
G01 X18.4825 Y16.4554
G01 X18.4704 Y16.4686
G01 X18.4552 Y16.4862
G01 X18.4232 Y16.5182
G01 X18.4113 Y16.5283
G01 X18.3960 Y16.5427
G01 X18.3787 Y16.5550
G01 X18.3670 Y16.5642
G01 X18.3564 Y16.5703
G01 X18.3467 Y16.5767
G01 X18.3305 Y16.5845
G01 X18.3142 Y16.5932
G01 X18.3037 Y16.5972
G01 X18.2933 Y16.6019
G01 X18.2753 Y16.6072
G01 X18.2579 Y16.6131
G01 X18.2468 Y16.6152
G01 X18.2358 Y16.6182
G01 X18.2177 Y16.6204
G01 X18.1996 Y16.6235
G01 X18.1877 Y16.6239
G01 X18.1764 Y16.6249
G01 X18.1584 Y16.6242
G01 X18.1400 Y16.6242
G01 X18.1285 Y16.6227
G01 X18.1171 Y16.6219
G01 X18.0991 Y16.6182
G01 X18.0809 Y16.6152
G01 X18.0702 Y16.6119
G01 X18.0588 Y16.6093
G01 X18.0418 Y16.6027
G01 X18.0247 Y16.5970
G01 X18.0142 Y16.5919
G01 X18.0034 Y16.5873
G01 X17.9987 Y16.5847
G01 X17.9877 Y16.5781
G01 X17.9717 Y16.5696
G01 X17.9621 Y16.5628
G01 X17.9524 Y16.5566
G01 X17.9384 Y16.5451
G01 X17.9238 Y16.5339
G01 X17.9158 Y16.5258
G01 X17.9070 Y16.5182
G01 X16.5711 Y15.1821
G01 X16.3744 Y15.1007
G01 X16.2680 Y15.1007
G01 X16.2526 Y15.0994
G01 X16.2314 Y15.0989
G01 X16.2106 Y15.0952
G01 X16.1956 Y15.0935
G01 X16.1839 Y15.0903
G01 X16.1729 Y15.0881
G01 X16.1556 Y15.0821
G01 X16.1430 Y15.0784
G01 X16.1379 Y15.0767
G01 X16.1273 Y15.0719
G01 X16.1169 Y15.0679
G01 X16.1008 Y15.0592
G01 X16.0842 Y15.0510
G01 X16.0748 Y15.0447
G01 X16.0649 Y15.0389
G01 X16.0605 Y15.0357
G01 X16.0503 Y15.0276
G01 X16.0355 Y15.0170
G01 X16.0271 Y15.0091
G01 X16.0182 Y15.0017
G01 X16.0058 Y14.9883
G01 X15.9928 Y14.9754
G01 X15.9858 Y14.9662
G01 X15.9782 Y14.9575
G01 X15.9752 Y14.9532
G01 X15.9683 Y14.9424
G01 X15.9575 Y14.9275
G01 X15.9520 Y14.9173
G01 X15.9460 Y14.9074
G01 X15.9386 Y14.8908
G01 X15.9326 Y14.8791
G01 X15.9305 Y14.8745
G01 X15.9267 Y14.8634
G01 X15.9224 Y14.8528
G01 X15.9178 Y14.8353
G01 X15.9123 Y14.8174
G01 X15.9105 Y14.8061
G01 X15.9080 Y14.7950
G01 X15.9063 Y14.7768
G01 X15.9038 Y14.7587
G01 X15.9038 Y14.7473
G01 X15.9031 Y14.7358
G01 X15.9033 Y13.8758
G01 X15.9103 Y13.8159
G01 X15.9251 Y13.7641
G01 X15.9291 Y13.7533
G01 X15.9497 Y13.7101
G01 X15.9533 Y13.7036
G01 X15.9829 Y13.6607
G01 X15.9904 Y13.6517
G01 X16.0236 Y13.6175
G01 X16.0327 Y13.6095
G01 X16.0753 Y13.5784
G01 X16.0810 Y13.5751
G01 X16.1236 Y13.5533
G01 X16.1325 Y13.5494
G01 X16.9710 Y12.7109
G01 X17.0525 Y12.5142
G01 X17.0525 Y8.9457
G01 X16.9710 Y8.7491
G01 X14.7648 Y6.5429
G01 X14.5681 Y6.4614
G01 X10.5779 Y6.4614
G01 X10.5297 Y6.4582
G01 X10.5166 Y6.4555
G01 X10.5058 Y6.4542
G01 X10.4883 Y6.4494
G01 X10.4717 Y6.4456
G01 X10.4599 Y6.4412
G01 X10.4479 Y6.4375
G01 X10.4322 Y6.4302
G01 X10.4164 Y6.4237
G01 X10.4055 Y6.4175
G01 X10.3941 Y6.4117
G01 X10.3896 Y6.4089
G01 X10.3798 Y6.4020
G01 X10.3652 Y6.3930
G01 X10.3556 Y6.3851
G01 X10.3453 Y6.3777
G01 X10.3328 Y6.3658
G01 X10.3198 Y6.3546
G01 X9.9949 Y6.0297
G01 X9.9875 Y6.0210
G01 X9.9794 Y6.0128
G01 X9.9732 Y6.0048
G01 X9.9634 Y5.9935
G01 X9.9558 Y5.9823
G01 X9.9490 Y5.9735
G01 X9.9401 Y5.9579
G01 X9.9310 Y5.9433
G01 X9.9258 Y5.9319
G01 X9.9199 Y5.9207
G01 X9.9141 Y5.9047
G01 X9.9074 Y5.8889
G01 X9.9040 Y5.8763
G01 X9.9001 Y5.8645
G01 X9.8969 Y5.8477
G01 X9.8930 Y5.8311
G01 X9.8917 Y5.8185
G01 X9.8897 Y5.8059
G01 X9.8892 Y5.7887
G01 X9.8881 Y5.7716
G01 X9.8881 Y5.3868
G01 X9.8913 Y5.3386
G01 X9.8940 Y5.3255
G01 X9.8953 Y5.3147
G01 X9.9001 Y5.2972
G01 X9.9039 Y5.2807
G01 X9.9083 Y5.2688
G01 X9.9121 Y5.2567
G01 X9.9193 Y5.2411
G01 X9.9258 Y5.2253
G01 X9.9320 Y5.2144
G01 X9.9378 Y5.2030
G01 X9.9475 Y5.1887
G01 X9.9565 Y5.1741
G01 X9.9644 Y5.1645
G01 X9.9718 Y5.1542
G01 X9.9837 Y5.1417
G01 X9.9949 Y5.1287
G01 X10.1983 Y4.9254
G01 X10.3120 Y4.6511
G01 X10.3361 Y4.6030
G01 X10.3419 Y4.5946
G01 X10.3462 Y4.5871
G01 X10.3590 Y4.5707
G01 X10.3706 Y4.5549
G01 X10.3774 Y4.5477
G01 X10.3838 Y4.5401
G01 X10.3875 Y4.5365
G01 X10.3986 Y4.5265
G01 X10.4129 Y4.5125
G01 X10.4208 Y4.5066
G01 X10.4283 Y4.5002
G01 X10.4448 Y4.4894
G01 X10.4610 Y4.4780
G01 X10.4699 Y4.4733
G01 X10.4785 Y4.4682
G01 X10.4831 Y4.4659
G01 X10.4966 Y4.4602
G01 X10.5148 Y4.4514
G01 X10.5240 Y4.4484
G01 X10.5330 Y4.4448
G01 X10.5525 Y4.4398
G01 X10.5715 Y4.4342
G01 X10.5812 Y4.4327
G01 X10.5909 Y4.4305
G01 X10.5961 Y4.4299
G01 X10.6107 Y4.4287
G01 X10.6309 Y4.4263
G01 X10.6404 Y4.4264
G01 X10.6499 Y4.4258
G01 X10.6703 Y4.4273
G01 X10.6902 Y4.4282
G01 X10.6998 Y4.4298
G01 X10.7095 Y4.4309
G01 X10.7289 Y4.4355
G01 X10.7486 Y4.4397
G01 X10.7579 Y4.4429
G01 X10.7674 Y4.4455
G01 X10.7722 Y4.4474
G01 X10.7858 Y4.4534
G01 X10.8044 Y4.4606
G01 X10.8130 Y4.4653
G01 X10.8218 Y4.4693
G01 X10.8387 Y4.4800
G01 X10.8517 Y4.4875
G01 X10.8559 Y4.4902
G01 X10.8637 Y4.4962
G01 X10.8719 Y4.5018
G01 X10.8867 Y4.5150
G01 X10.9021 Y4.5278
G01 X10.9088 Y4.5351
G01 X10.9159 Y4.5418
G01 X10.9283 Y4.5572
G01 X10.9417 Y4.5726
G01 X10.9470 Y4.5808
G01 X10.9527 Y4.5884
G01 X10.9627 Y4.6059
G01 X10.9732 Y4.6231
G01 X10.9770 Y4.6318
G01 X10.9817 Y4.6406
G01 X10.9886 Y4.6595
G01 X10.9942 Y4.6729
G01 X11.0116 Y4.7256
G01 X11.0796 Y4.8591
G01 X11.1676 Y4.9801
G01 X11.2734 Y5.0860
G01 X11.3946 Y5.1740
G01 X11.5281 Y5.2420
G01 X11.5281 Y5.1018
G01 X11.5004 Y5.0884
G01 X11.4362 Y5.0499
G01 X11.4309 Y5.0464
G01 X11.3709 Y5.0018
G01 X11.3659 Y4.9978
G01 X11.3105 Y4.9476
G01 X11.3060 Y4.9431
G01 X11.2558 Y4.8877
G01 X11.2518 Y4.8827
G01 X11.2072 Y4.8227
G01 X11.2037 Y4.8174
G01 X11.1652 Y4.7532
G01 X11.1622 Y4.7476
G01 X11.1302 Y4.6800
G01 X11.1278 Y4.6741
G01 X11.1026 Y4.6037
G01 X11.1008 Y4.5976
G01 X11.0826 Y4.5251
G01 X11.0813 Y4.5188
G01 X11.0704 Y4.4448
G01 X11.0697 Y4.4385
G01 X11.0661 Y4.3638
G01 X11.0661 Y4.3574
G01 X11.0697 Y4.2827
G01 X11.0704 Y4.2764
G01 X11.0813 Y4.2024
G01 X11.0826 Y4.1961
G01 X11.1008 Y4.1236
G01 X11.1026 Y4.1175
G01 X11.1278 Y4.0471
G01 X11.1302 Y4.0412
G01 X11.1622 Y3.9736
G01 X11.1652 Y3.9680
G01 X11.2037 Y3.9038
G01 X11.2072 Y3.8985
G01 X11.2518 Y3.8385
G01 X11.2558 Y3.8335
G01 X11.3060 Y3.7781
G01 X11.3105 Y3.7736
G01 X11.3659 Y3.7234
G01 X11.3709 Y3.7194
G01 X11.4309 Y3.6748
G01 X11.4362 Y3.6713
G01 X11.5004 Y3.6328
G01 X11.5281 Y3.6194
G01 X11.5281 Y3.4792
G01 X11.3946 Y3.5472
G01 X11.2734 Y3.6352
G01 X11.1676 Y3.7410
G01 X11.0796 Y3.8622
G01 X11.0116 Y3.9956
G01 X10.9961 Y4.0432
G01 X10.9758 Y4.0931
G01 X10.9704 Y4.1024
G01 X10.9667 Y4.1099
G01 X10.9556 Y4.1269
G01 X10.9478 Y4.1397
G01 X10.9449 Y4.1440
G01 X10.9387 Y4.1516
G01 X10.9331 Y4.1595
G01 X10.9196 Y4.1740
G01 X10.9063 Y4.1893
G01 X10.8989 Y4.1958
G01 X10.8921 Y4.2027
G01 X10.8763 Y4.2149
G01 X10.8608 Y4.2277
G01 X10.8526 Y4.2329
G01 X10.8446 Y4.2386
G01 X10.8269 Y4.2482
G01 X10.8094 Y4.2583
G01 X10.8007 Y4.2619
G01 X10.7919 Y4.2663
G01 X10.7729 Y4.2728
G01 X10.7544 Y4.2799
G01 X10.7447 Y4.2822
G01 X10.7353 Y4.2851
G01 X10.7155 Y4.2884
G01 X10.6960 Y4.2924
G01 X10.6861 Y4.2931
G01 X10.6762 Y4.2943
G01 X10.6566 Y4.2944
G01 X10.6366 Y4.2952
G01 X10.6267 Y4.2943
G01 X10.6169 Y4.2939
G01 X10.6120 Y4.2933
G01 X10.5972 Y4.2908
G01 X10.5772 Y4.2882
G01 X10.5681 Y4.2858
G01 X10.5585 Y4.2840
G01 X10.5392 Y4.2776
G01 X10.5200 Y4.2718
G01 X10.5113 Y4.2679
G01 X10.5020 Y4.2645
G01 X10.4843 Y4.2551
G01 X10.4712 Y4.2489
G01 X10.4663 Y4.2464
G01 X10.4580 Y4.2409
G01 X10.4496 Y4.2361
G01 X10.4338 Y4.2240
G01 X10.4174 Y4.2125
G01 X10.4102 Y4.2058
G01 X10.4026 Y4.1996
G01 X10.3888 Y4.1851
G01 X10.3744 Y4.1709
G01 X10.3686 Y4.1632
G01 X10.3621 Y4.1560
G01 X10.3589 Y4.1516
G01 X10.3508 Y4.1393
G01 X10.3391 Y4.1231
G01 X10.3345 Y4.1146
G01 X10.3292 Y4.1063
G01 X10.3208 Y4.0879
G01 X10.3120 Y4.0701
G01 X10.1983 Y3.7958
G01 X9.9178 Y3.5153
G01 X9.5514 Y3.3635
G01 X9.1546 Y3.3635
G01 X8.7882 Y3.5153
G01 X8.5077 Y3.7958
G01 X8.4202 Y4.0073
G01 X8.4149 Y4.0176
G01 X8.4097 Y4.0302
G01 X8.3939 Y4.0566
G01 X8.3861 Y4.0709
G01 X8.3813 Y4.0775
G01 X8.3758 Y4.0851
G01 X8.3516 Y4.1144
G01 X8.3402 Y4.1264
G01 X8.3037 Y4.1582
G01 X8.2902 Y4.1678
G01 X8.2742 Y4.1773
G01 X8.2586 Y4.1873
G01 X8.2534 Y4.1903
G01 X8.2387 Y4.1974
G01 X8.2213 Y4.2043
G01 X8.2040 Y4.2116
G01 X8.1879 Y4.2171
G01 X8.1409 Y4.2279
G01 X8.1248 Y4.2299
G01 X8.0870 Y4.2323
G01 X8.0702 Y4.2323
G01 X8.0224 Y4.2275
G01 X8.0059 Y4.2241
G01 X7.9879 Y4.2189
G01 X7.9697 Y4.2143
G01 X7.9540 Y4.2090
G01 X7.9102 Y4.1890
G01 X7.8956 Y4.1805
G01 X7.8805 Y4.1699
G01 X7.8603 Y4.1567
G01 X7.8473 Y4.1459
G01 X7.8339 Y4.1329
G01 X7.8201 Y4.1204
G01 X7.8085 Y4.1080
G01 X7.7823 Y4.0740
G01 X7.7731 Y4.0602
G01 X7.7505 Y4.0178
G01 X7.6583 Y3.7958
G01 X7.4549 Y3.5925
G01 X7.4505 Y3.5875
G01 X7.4437 Y3.5792
G01 X7.4234 Y3.5564
G01 X7.4157 Y3.5450
G01 X7.4090 Y3.5363
G01 X7.4001 Y3.5207
G01 X7.3910 Y3.5061
G01 X7.3858 Y3.4947
G01 X7.3800 Y3.4836
G01 X7.3741 Y3.4676
G01 X7.3674 Y3.4516
G01 X7.3640 Y3.4392
G01 X7.3601 Y3.4275
G01 X7.3590 Y3.4224
G01 X7.3569 Y3.4105
G01 X7.3530 Y3.3938
G01 X7.3517 Y3.3814
G01 X7.3497 Y3.3688
G01 X7.3492 Y3.3515
G01 X7.3481 Y3.3345
G01 X7.3481 Y2.9947
G01 X7.3484 Y2.9884
G01 X7.3495 Y2.9776
G01 X7.3513 Y2.9467
G01 X7.3539 Y2.9334
G01 X7.3553 Y2.9225
G01 X7.3601 Y2.9052
G01 X7.3639 Y2.8885
G01 X7.3683 Y2.8767
G01 X7.3721 Y2.8646
G01 X7.3793 Y2.8491
G01 X7.3857 Y2.8333
G01 X7.3921 Y2.8222
G01 X7.3978 Y2.8108
G01 X7.4075 Y2.7967
G01 X7.4165 Y2.7821
G01 X7.4243 Y2.7726
G01 X7.4317 Y2.7622
G01 X7.4437 Y2.7496
G01 X7.4549 Y2.7366
G01 X7.5270 Y2.6645
G01 X7.5403 Y2.6533
G01 X7.5631 Y2.6330
G01 X7.5748 Y2.6251
G01 X7.5836 Y2.6185
G01 X7.5987 Y2.6098
G01 X7.6133 Y2.6006
G01 X7.6248 Y2.5954
G01 X7.6360 Y2.5895
G01 X7.6521 Y2.5837
G01 X7.6679 Y2.5770
G01 X7.6803 Y2.5736
G01 X7.6922 Y2.5697
G01 X7.7090 Y2.5665
G01 X7.7256 Y2.5626
G01 X7.7382 Y2.5613
G01 X7.7508 Y2.5593
G01 X7.7680 Y2.5588
G01 X7.7851 Y2.5577
G01 X16.8426 Y2.5577
G01 X16.8908 Y2.5609
G01 X16.9039 Y2.5636
G01 X16.9147 Y2.5649
G01 X16.9322 Y2.5697
G01 X16.9487 Y2.5735
G01 X16.9606 Y2.5779
G01 X16.9727 Y2.5817
G01 X16.9883 Y2.5889
G01 X16.9994 Y2.5933
G01 X17.0041 Y2.5954
G01 X17.0150 Y2.6016
G01 X17.0264 Y2.6074
G01 X17.0407 Y2.6171
G01 X17.0553 Y2.6261
G01 X17.0649 Y2.6340
G01 X17.0752 Y2.6414
G01 X17.0877 Y2.6533
G01 X17.1007 Y2.6645
G01 X17.4105 Y2.9743
G01 X17.4217 Y2.9876
G01 X17.4420 Y3.0104
G01 X17.4497 Y3.0218
G01 X17.4564 Y3.0305
G01 X17.4653 Y3.0461
G01 X17.4718 Y3.0562
G01 X17.4744 Y3.0607
G01 X17.4796 Y3.0721
G01 X17.4854 Y3.0832
G01 X17.4913 Y3.0992
G01 X17.4980 Y3.1152
G01 X17.5014 Y3.1277
G01 X17.5053 Y3.1395
G01 X17.5085 Y3.1563
G01 X17.5114 Y3.1679
G01 X17.5124 Y3.1729
G01 X17.5137 Y3.1854
G01 X17.5157 Y3.1980
G01 X17.5162 Y3.2153
G01 X17.5173 Y3.2324
G01 X17.5173 Y3.5199
G01 X17.6691 Y3.8864
G01 X17.9874 Y4.2046
G01 X17.9946 Y4.2129
G01 X18.0037 Y4.2221
G01 X18.0231 Y4.2478
G01 X18.0335 Y4.2610
G01 X18.0418 Y4.2746
G01 X18.0507 Y4.2919
G01 X18.0597 Y4.3082
G01 X18.2113 Y4.4598
G01 X18.4079 Y4.5413
G01 X18.6209 Y4.5413
G01 X18.8175 Y4.4598
G01 X18.9693 Y4.3081
G01 X18.9724 Y4.3009
G01 X18.9748 Y4.2964
G01 X18.9886 Y4.2735
G01 X18.9969 Y4.2587
G01 X19.0062 Y4.2458
G01 X19.0345 Y4.2117
G01 X19.3597 Y3.8864
G01 X19.4472 Y3.6749
G01 X19.4525 Y3.6646
G01 X19.4577 Y3.6521
G01 X19.4817 Y3.6107
G01 X19.4918 Y3.5969
G01 X19.5040 Y3.5826
G01 X19.5156 Y3.5680
G01 X19.5193 Y3.5638
G01 X19.5310 Y3.5523
G01 X19.5633 Y3.5243
G01 X19.5771 Y3.5145
G01 X19.5931 Y3.5049
G01 X19.6089 Y3.4948
G01 X19.6237 Y3.4870
G01 X19.6684 Y3.4685
G01 X19.6846 Y3.4638
G01 X19.7028 Y3.4600
G01 X19.7258 Y3.4544
G01 X19.7426 Y3.4523
G01 X19.7856 Y3.4497
G01 X19.8021 Y3.4503
G01 X19.8451 Y3.4547
G01 X19.8615 Y3.4581
G01 X19.8794 Y3.4632
G01 X19.9024 Y3.4692
G01 X19.9183 Y3.4753
G01 X19.9572 Y3.4932
G01 X19.9716 Y3.5016
G01 X19.9870 Y3.5123
G01 X20.0072 Y3.5255
G01 X20.0202 Y3.5363
G01 X20.0513 Y3.5658
G01 X20.0621 Y3.5781
G01 X20.0881 Y3.6124
G01 X20.0968 Y3.6264
G01 X20.1169 Y3.6644
G01 X20.2091 Y3.8864
G01 X20.3149 Y3.9921
G01 X20.3467 Y4.0284
G01 X20.3542 Y4.0398
G01 X20.3608 Y4.0483
G01 X20.3697 Y4.0638
G01 X20.3788 Y4.0784
G01 X20.3841 Y4.0899
G01 X20.3899 Y4.1010
G01 X20.3919 Y4.1059
G01 X20.3959 Y4.1172
G01 X20.4025 Y4.1332
G01 X20.4057 Y4.1451
G01 X20.4097 Y4.1571
G01 X20.4129 Y4.1741
G01 X20.4169 Y4.1908
G01 X20.4182 Y4.2035
G01 X20.4201 Y4.2158
G01 X20.4206 Y4.2329
G01 X20.4218 Y4.2502
G01 X20.4218 Y5.8929
G01 X20.5032 Y6.0896
G01 X21.5290 Y7.1154
G01 X21.7257 Y7.1968
G01 X22.5810 Y7.1968
G01 X22.5982 Y7.1983
G01 X22.6290 Y7.2000
G01 X22.6426 Y7.2027
G01 X22.6532 Y7.2041
G01 X22.6703 Y7.2087
G01 X22.6870 Y7.2126
G01 X22.6989 Y7.2170
G01 X22.7110 Y7.2208
G01 X22.7266 Y7.2280
G01 X22.7427 Y7.2346
G01 X22.7533 Y7.2408
G01 X22.7645 Y7.2463
G01 X22.7790 Y7.2562
G01 X22.7936 Y7.2652
G01 X22.8032 Y7.2731
G01 X22.8134 Y7.2804
G01 X22.8262 Y7.2925
G01 X22.8390 Y7.3037
G01 X23.4844 Y7.9491
G01 X23.4954 Y7.9621
G01 X23.5162 Y7.9854
G01 X23.5237 Y7.9968
G01 X23.5303 Y8.0053
G01 X23.5392 Y8.0208
G01 X23.5483 Y8.0354
G01 X23.5536 Y8.0469
G01 X23.5594 Y8.0580
G01 X23.5654 Y8.0742
G01 X23.5720 Y8.0901
G01 X23.5752 Y8.1020
G01 X23.5793 Y8.1142
G01 X23.5805 Y8.1196
G01 X23.5824 Y8.1311
G01 X23.5864 Y8.1479
G01 X23.5877 Y8.1605
G01 X23.5896 Y8.1728
G01 X23.5901 Y8.1899
G01 X23.5913 Y8.2071
G01 X23.5913 Y11.7941
G01 X23.5898 Y11.8114
G01 X23.5881 Y11.8422
G01 X23.5854 Y11.8558
G01 X23.5840 Y11.8665
G01 X23.5794 Y11.8834
G01 X23.5755 Y11.9003
G01 X23.5711 Y11.9121
G01 X23.5674 Y11.9241
G01 X23.5601 Y11.9398
G01 X23.5535 Y11.9559
G01 X23.5472 Y11.9666
G01 X23.5417 Y11.9778
G01 X23.5319 Y11.9921
G01 X23.5230 Y12.0067
G01 X23.5148 Y12.0166
G01 X23.5073 Y12.0269
G01 X23.4956 Y12.0392
G01 X23.4844 Y12.0522
G01 X23.0827 Y12.4538
G01 X23.0505 Y12.4822
G01 X23.0464 Y12.4856
G01 X23.0350 Y12.4931
G01 X23.0265 Y12.4997
G01 X23.0110 Y12.5086
G01 X22.9964 Y12.5177
G01 X22.9849 Y12.5230
G01 X22.9738 Y12.5288
G01 X22.9689 Y12.5308
G01 X22.9576 Y12.5348
G01 X22.9417 Y12.5414
G01 X22.9298 Y12.5446
G01 X22.9178 Y12.5486
G01 X22.9007 Y12.5519
G01 X22.8837 Y12.5559
G01 X22.8716 Y12.5570
G01 X22.8591 Y12.5591
G01 X22.8418 Y12.5595
G01 X22.8247 Y12.5607
G01 X21.4680 Y12.5607
G01 X21.4526 Y12.5594
G01 X21.4314 Y12.5589
G01 X21.4106 Y12.5552
G01 X21.3956 Y12.5535
G01 X21.3839 Y12.5503
G01 X21.3729 Y12.5481
G01 X21.3678 Y12.5465
G01 X21.3556 Y12.5421
G01 X21.3379 Y12.5367
G01 X21.3273 Y12.5319
G01 X21.3169 Y12.5279
G01 X21.3008 Y12.5192
G01 X21.2890 Y12.5135
G01 X21.2842 Y12.5110
G01 X21.2748 Y12.5047
G01 X21.2649 Y12.4989
G01 X21.2503 Y12.4876
G01 X21.2355 Y12.4770
G01 X21.2271 Y12.4691
G01 X21.2182 Y12.4617
G01 X21.2058 Y12.4483
G01 X21.1928 Y12.4354
G01 X21.1858 Y12.4262
G01 X21.1782 Y12.4175
G01 X21.1683 Y12.4024
G01 X21.1575 Y12.3875
G01 X21.1520 Y12.3773
G01 X21.1460 Y12.3674
G01 X21.1386 Y12.3508
G01 X21.1305 Y12.3345
G01 X21.1267 Y12.3234
G01 X21.1224 Y12.3128
G01 X21.1178 Y12.2953
G01 X21.1123 Y12.2774
G01 X21.1105 Y12.2661
G01 X21.1080 Y12.2550
G01 X21.1063 Y12.2368
G01 X21.1038 Y12.2187
G01 X21.1038 Y12.2073
G01 X21.1031 Y12.1958
G01 X21.1031 Y11.4284
G01 X20.9654 Y11.2907
G01 X20.6680 Y11.2907
G01 X20.6526 Y11.2894
G01 X20.6314 Y11.2889
G01 X20.6106 Y11.2852
G01 X20.5956 Y11.2835
G01 X20.5839 Y11.2803
G01 X20.5729 Y11.2781
G01 X20.5556 Y11.2721
G01 X20.5379 Y11.2667
G01 X20.5273 Y11.2619
G01 X20.5169 Y11.2579
G01 X20.5008 Y11.2492
G01 X20.4842 Y11.2410
G01 X20.4748 Y11.2347
G01 X20.4649 Y11.2289
G01 X20.4503 Y11.2176
G01 X20.4355 Y11.2070
G01 X20.4271 Y11.1991
G01 X20.4182 Y11.1917
G01 X20.4058 Y11.1783
G01 X20.3928 Y11.1654
G01 X20.3858 Y11.1562
G01 X20.3782 Y11.1475
G01 X20.3683 Y11.1324
G01 X20.3575 Y11.1175
G01 X20.3520 Y11.1073
G01 X20.3460 Y11.0974
G01 X20.3386 Y11.0808
G01 X20.3326 Y11.0691
G01 X20.3305 Y11.0645
G01 X20.3267 Y11.0534
G01 X20.3224 Y11.0428
G01 X20.3210 Y11.0380
G01 X20.3178 Y11.0253
G01 X20.3123 Y11.0074
G01 X20.3105 Y10.9961
G01 X20.3080 Y10.9850
G01 X20.3063 Y10.9668
G01 X20.3038 Y10.9487
G01 X20.3038 Y10.9373
G01 X20.3031 Y10.9258
G01 X20.3031 Y10.5023
G01 X20.3044 Y10.4868
G01 X20.3049 Y10.4657
G01 X20.3086 Y10.4449
G01 X20.3103 Y10.4300
G01 X20.3135 Y10.4181
G01 X20.3157 Y10.4072
G01 X20.3173 Y10.4021
G01 X20.3217 Y10.3899
G01 X20.3271 Y10.3722
G01 X20.3319 Y10.3617
G01 X20.3359 Y10.3512
G01 X20.3446 Y10.3350
G01 X20.3503 Y10.3232
G01 X20.3528 Y10.3184
G01 X20.3592 Y10.3089
G01 X20.3650 Y10.2990
G01 X20.3761 Y10.2847
G01 X20.3867 Y10.2698
G01 X20.3948 Y10.2611
G01 X20.4022 Y10.2523
G01 X20.4155 Y10.2401
G01 X20.4284 Y10.2271
G01 X20.4374 Y10.2202
G01 X20.4461 Y10.2126
G01 X20.4614 Y10.2025
G01 X20.4719 Y10.1947
G01 X20.4765 Y10.1916
G01 X20.4868 Y10.1862
G01 X20.4964 Y10.1803
G01 X20.5128 Y10.1729
G01 X20.5295 Y10.1646
G01 X20.5404 Y10.1610
G01 X20.5509 Y10.1566
G01 X20.5687 Y10.1520
G01 X20.5860 Y10.1467
G01 X20.5974 Y10.1448
G01 X20.6088 Y10.1422
G01 X20.6270 Y10.1405
G01 X20.6451 Y10.1380
G01 X20.6569 Y10.1380
G01 X20.6680 Y10.1374
G01 X20.7867 Y10.1374
G01 X21.5195 Y9.4045
G01 X21.5195 Y8.3680
G01 X20.7867 Y7.6352
G01 X19.7502 Y7.6352
G01 X19.0174 Y8.3680
G01 X19.0174 Y9.4045
G01 X19.1261 Y9.5131
G01 X19.1373 Y9.5264
G01 X19.1578 Y9.5494
G01 X19.1653 Y9.5607
G01 X19.1721 Y9.5694
G01 X19.1809 Y9.5849
G01 X19.1900 Y9.5992
G01 X19.1953 Y9.6109
G01 X19.2012 Y9.6221
G01 X19.2071 Y9.6384
G01 X19.2137 Y9.6542
G01 X19.2169 Y9.6661
G01 X19.2210 Y9.6783
G01 X19.2241 Y9.6951
G01 X19.2270 Y9.7063
G01 X19.2281 Y9.7118
G01 X19.2294 Y9.7246
G01 X19.2313 Y9.7369
G01 X19.2318 Y9.7539
G01 X19.2330 Y9.7712
G01 X19.2330 Y10.9258
G01 X19.2317 Y10.9414
G01 X19.2311 Y10.9624
G01 X19.2275 Y10.9833
G01 X19.2257 Y10.9981
G01 X19.2227 Y11.0096
G01 X19.2204 Y11.0209
G01 X19.2144 Y11.0382
G01 X19.2090 Y11.0559
G01 X19.2042 Y11.0665
G01 X19.2002 Y11.0769
G01 X19.1915 Y11.0930
G01 X19.1858 Y11.1048
G01 X19.1833 Y11.1097
G01 X19.1769 Y11.1191
G01 X19.1713 Y11.1288
G01 X19.1598 Y11.1436
G01 X19.1491 Y11.1584
G01 X19.1415 Y11.1665
G01 X19.1342 Y11.1754
G01 X19.1206 Y11.1880
G01 X19.1077 Y11.2010
G01 X19.0985 Y11.2080
G01 X19.0898 Y11.2156
G01 X19.0746 Y11.2255
G01 X19.0598 Y11.2363
G01 X19.0495 Y11.2418
G01 X19.0399 Y11.2477
G01 X19.0351 Y11.2500
G01 X19.0230 Y11.2553
G01 X19.0067 Y11.2633
G01 X18.9958 Y11.2670
G01 X18.9851 Y11.2714
G01 X18.9676 Y11.2760
G01 X18.9551 Y11.2800
G01 X18.9497 Y11.2815
G01 X18.9384 Y11.2833
G01 X18.9273 Y11.2858
G01 X18.9091 Y11.2875
G01 X18.8910 Y11.2900
G01 X18.8795 Y11.2900
G01 X18.8680 Y11.2907
G01 X18.5706 Y11.2907
G01 X18.4330 Y11.4284
G01 X18.4330 Y12.2253
G01 X18.4371 Y12.2298
G01 X18.4493 Y12.2472
G01 X18.4586 Y12.2590
G01 X18.4647 Y12.2695
G01 X18.4709 Y12.2790
G01 X18.4790 Y12.2956
G01 X18.4875 Y12.3116
G01 X18.4915 Y12.3222
G01 X18.4963 Y12.3328
G01 X18.5015 Y12.3504
G01 X18.5073 Y12.3676
G01 X18.5096 Y12.3788
G01 X18.5126 Y12.3901
G01 X18.5149 Y12.4084
G01 X18.5178 Y12.4265
G01 X18.5182 Y12.4379
G01 X18.5193 Y12.4493
G01 X18.5185 Y12.4677
G01 X18.5185 Y12.4859
G01 X18.5170 Y12.4974
G01 X18.5162 Y12.5088
G01 X18.5126 Y12.5266
G01 X18.5097 Y12.5448
G01 X18.5062 Y12.5561
G01 X18.5035 Y12.5672
G01 X18.5019 Y12.5719
G01 X18.4971 Y12.5841
G01 X18.4912 Y12.6014
G01 X18.4862 Y12.6117
G01 X18.4817 Y12.6224
G01 X18.4792 Y12.6269
G01 X18.4726 Y12.6381
G01 X18.4638 Y12.6546
G01 X18.4571 Y12.6638
G01 X18.4512 Y12.6733
G01 X18.4394 Y12.6875
G01 X18.4330 Y12.6961
G01 X18.4330 Y13.4953
G01 X18.4371 Y13.4998
G01 X18.4493 Y13.5172
G01 X18.4586 Y13.5290
G01 X18.4646 Y13.5393
G01 X18.4709 Y13.5488
G01 X18.4790 Y13.5657
G01 X18.4875 Y13.5816
G01 X18.4915 Y13.5922
G01 X18.4963 Y13.6028
G01 X18.5015 Y13.6204
G01 X18.5073 Y13.6376
G01 X18.5096 Y13.6488
G01 X18.5126 Y13.6601
G01 X18.5149 Y13.6784
G01 X18.5178 Y13.6965
G01 X18.5182 Y13.7078
G01 X18.5193 Y13.7192
G01 X18.5185 Y13.7377
G01 X18.5185 Y13.7559
G01 X18.5170 Y13.7674
G01 X18.5162 Y13.7788
G01 X18.5126 Y13.7966
G01 X18.5097 Y13.8148
G01 X18.5063 Y13.8257
G01 X18.5037 Y13.8371
G01 X18.4970 Y13.8543
G01 X18.4912 Y13.8714
G01 X18.4862 Y13.8817
G01 X18.4817 Y13.8924
G01 X18.4792 Y13.8969
G01 X18.4726 Y13.9081
G01 X18.4638 Y13.9246
G01 X18.4571 Y13.9338
G01 X18.4512 Y13.9433
G01 X18.4394 Y13.9575
G01 X18.4330 Y13.9661
G01 X18.4330 Y14.7632
G01 X18.4594 Y14.7899
G01 X18.4941 Y14.8314
G01 X18.5043 Y14.8467
G01 X18.5130 Y14.8625
G01 X18.5222 Y14.8780
G01 X18.5302 Y14.8941
G01 X18.5466 Y14.9380
G01 X18.5512 Y14.9558
G01 X18.5543 Y14.9734
G01 X18.5589 Y14.9960
G01 X18.5604 Y15.0092
G01 X18.5618 Y15.0503
G01 X18.5619 Y15.0555
G01 X18.5606 Y15.0736
G01 X18.5550 Y15.1150
G01 X18.5508 Y15.1325
G01 X18.5453 Y15.1497
G01 X18.5403 Y15.1671
G01 X18.5339 Y15.1839
G01 X18.5316 Y15.1889
G01 X18.5234 Y15.2048
G01 X18.5132 Y15.2259
G01 X18.4919 Y15.2628
G01 X18.4897 Y15.2708
G01 X21.0571 Y15.2708
G01 X21.0574 Y15.2591
G01 X21.0584 Y15.2503
G01 X21.0589 Y15.2292
G01 X21.0626 Y15.2084
G01 X21.0643 Y15.1935
G01 X21.0675 Y15.1817
G01 X21.0698 Y15.1705
G01 X21.0758 Y15.1533
G01 X21.0811 Y15.1357
G01 X21.0859 Y15.1252
G01 X21.0899 Y15.1147
G01 X21.0986 Y15.0985
G01 X21.1068 Y15.0819
G01 X21.1131 Y15.0725
G01 X21.1189 Y15.0625
G01 X21.1302 Y15.0481
G01 X21.1407 Y15.0333
G01 X21.1488 Y15.0246
G01 X21.1562 Y15.0158
G01 X21.1695 Y15.0036
G01 X21.1822 Y14.9908
G01 X21.1914 Y14.9836
G01 X21.2003 Y14.9759
G01 X21.2154 Y14.9660
G01 X21.2303 Y14.9552
G01 X21.2405 Y14.9497
G01 X21.2506 Y14.9436
G01 X21.2670 Y14.9363
G01 X21.2835 Y14.9281
G01 X21.2944 Y14.9245
G01 X21.3049 Y14.9201
G01 X21.3227 Y14.9155
G01 X21.3400 Y14.9102
G01 X21.3514 Y14.9083
G01 X21.3628 Y14.9057
G01 X21.3810 Y14.9040
G01 X21.3991 Y14.9015
G01 X21.4105 Y14.9015
G01 X21.4220 Y14.9008
G01 X21.5749 Y14.9008
G01 X21.5922 Y14.9023
G01 X21.6175 Y14.9035
G01 X21.6230 Y14.9040
G01 X21.6366 Y14.9067
G01 X21.6472 Y14.9081
G01 X21.6527 Y14.9094
G01 X21.6643 Y14.9127
G01 X21.6810 Y14.9166
G01 X21.6929 Y14.9210
G01 X21.7050 Y14.9248
G01 X21.7206 Y14.9320
G01 X21.7367 Y14.9386
G01 X21.7473 Y14.9448
G01 X21.7587 Y14.9504
G01 X21.7730 Y14.9602
G01 X21.7875 Y14.9691
G01 X21.7974 Y14.9773
G01 X21.8076 Y14.9847
G01 X21.8200 Y14.9965
G01 X21.8330 Y15.0077
G01 X22.7570 Y15.9317
G01 X22.7681 Y15.9449
G01 X22.7887 Y15.9679
G01 X22.7963 Y15.9794
G01 X22.8029 Y15.9879
G01 X22.8118 Y16.0035
G01 X22.8208 Y16.0179
G01 X22.8260 Y16.0293
G01 X22.8320 Y16.0406
G01 X22.8380 Y16.0568
G01 X22.8446 Y16.0728
G01 X22.8478 Y16.0847
G01 X22.8518 Y16.0967
G01 X22.8550 Y16.1137
G01 X22.8590 Y16.1304
G01 X22.8603 Y16.1431
G01 X22.8622 Y16.1554
G01 X22.8627 Y16.1725
G01 X22.8639 Y16.1898
G01 X22.8639 Y16.6426
G01 X22.8635 Y16.6494
G01 X22.8624 Y16.6600
G01 X22.8607 Y16.6905
G01 X22.8580 Y16.7040
G01 X22.8566 Y16.7149
G01 X22.8553 Y16.7204
G01 X22.8520 Y16.7320
G01 X22.8481 Y16.7487
G01 X22.8437 Y16.7606
G01 X22.8399 Y16.7727
G01 X22.8327 Y16.7883
G01 X22.8261 Y16.8044
G01 X22.8197 Y16.8153
G01 X22.8141 Y16.8264
G01 X22.8045 Y16.8406
G01 X22.7956 Y16.8552
G01 X22.7874 Y16.8651
G01 X22.7799 Y16.8754
G01 X22.7682 Y16.8877
G01 X22.7570 Y16.9007
G01 X22.1479 Y17.5098
G01 X22.1479 Y18.5462
G01 X22.8807 Y19.2791
G01 X23.9172 Y19.2791
G01 X24.6500 Y18.5462
G01 X24.6500 Y17.5098
G01 X24.0408 Y16.9007
G01 X24.0296 Y16.8874
G01 X24.0093 Y16.8646
G01 X24.0015 Y16.8530
G01 X23.9948 Y16.8443
G01 X23.9861 Y16.8290
G01 X23.9770 Y16.8144
G01 X23.9717 Y16.8029
G01 X23.9659 Y16.7918
G01 X23.9639 Y16.7869
G01 X23.9599 Y16.7756
G01 X23.9534 Y16.7599
G01 X23.9500 Y16.7476
G01 X23.9460 Y16.7355
G01 X23.9428 Y16.7187
G01 X23.9399 Y16.7071
G01 X23.9389 Y16.7021
G01 X23.9376 Y16.6896
G01 X23.9356 Y16.6768
G01 X23.9352 Y16.6597
G01 X23.9340 Y16.6426
G01 X23.9340 Y15.7105
G01 X23.8525 Y15.5139
G01 X22.5924 Y14.2538
G01 X22.5850 Y14.2452
G01 X22.5752 Y14.2353
G01 X22.5568 Y14.2106
G01 X22.5466 Y14.1977
G01 X22.5374 Y14.1828
G01 X22.5288 Y14.1660
G01 X22.5198 Y14.1496
G01 X22.5129 Y14.1341
G01 X22.5055 Y14.1115
G01 X22.4992 Y14.0939
G01 X22.4949 Y14.0780
G01 X22.4939 Y14.0722
G01 X22.4912 Y14.0539
G01 X22.4872 Y14.0298
G01 X22.4862 Y14.0133
G01 X22.4866 Y13.9947
G01 X22.4864 Y13.9708
G01 X22.4882 Y13.9539
G01 X22.4954 Y13.9121
G01 X22.4999 Y13.8954
G01 X22.5062 Y13.8779
G01 X22.5119 Y13.8601
G01 X22.5184 Y13.8444
G01 X22.5208 Y13.8397
G01 X22.5411 Y13.8023
G01 X22.5506 Y13.7881
G01 X22.5622 Y13.7736
G01 X22.5733 Y13.7587
G01 X22.5846 Y13.7459
G01 X22.6158 Y13.7166
G01 X22.6285 Y13.7061
G01 X22.6643 Y13.6821
G01 X22.6783 Y13.6739
G01 X22.7225 Y13.6541
G01 X22.7385 Y13.6487
G01 X22.7802 Y13.6377
G01 X22.7964 Y13.6350
G01 X22.8389 Y13.6310
G01 X23.3039 Y13.6308
G01 X23.5006 Y13.5494
G01 X24.5800 Y12.4700
G01 X24.6614 Y12.2734
G01 X24.6614 Y7.7279
G01 X24.5800 Y7.5312
G01 X23.2569 Y6.2081
G01 X23.0602 Y6.1267
G01 X22.2049 Y6.1267
G01 X22.1877 Y6.1252
G01 X22.1570 Y6.1235
G01 X22.1432 Y6.1208
G01 X22.1327 Y6.1194
G01 X22.1156 Y6.1148
G01 X22.0989 Y6.1109
G01 X22.0870 Y6.1065
G01 X22.0749 Y6.1027
G01 X22.0594 Y6.0955
G01 X22.0433 Y6.0890
G01 X22.0324 Y6.0827
G01 X22.0212 Y6.0770
G01 X22.0069 Y6.0673
G01 X21.9923 Y6.0583
G01 X21.9827 Y6.0504
G01 X21.9725 Y6.0431
G01 X21.9597 Y6.0310
G01 X21.9469 Y6.0198
G01 X21.5988 Y5.6717
G01 X21.5670 Y5.6354
G01 X21.5595 Y5.6240
G01 X21.5529 Y5.6155
G01 X21.5440 Y5.6000
G01 X21.5349 Y5.5854
G01 X21.5296 Y5.5739
G01 X21.5238 Y5.5628
G01 X21.5178 Y5.5466
G01 X21.5112 Y5.5306
G01 X21.5080 Y5.5187
G01 X21.5040 Y5.5069
G01 X21.5007 Y5.4897
G01 X21.4967 Y5.4728
G01 X21.4956 Y5.4606
G01 X21.4935 Y5.4481
G01 X21.4931 Y5.4307
G01 X21.4919 Y5.4136
G01 X21.4919 Y4.4453
G01 X21.4951 Y4.3971
G01 X21.4978 Y4.3840
G01 X21.4991 Y4.3732
G01 X21.5039 Y4.3557
G01 X21.5077 Y4.3391
G01 X21.5121 Y4.3273
G01 X21.5158 Y4.3153
G01 X21.5231 Y4.2996
G01 X21.5296 Y4.2838
G01 X21.5359 Y4.2728
G01 X21.5416 Y4.2615
G01 X21.5512 Y4.2473
G01 X21.5574 Y4.2369
G01 X21.5603 Y4.2326
G01 X21.5682 Y4.2230
G01 X21.5756 Y4.2127
G01 X21.5876 Y4.2001
G01 X21.5988 Y4.1872
G01 X21.8997 Y3.8864
G01 X22.0132 Y3.6121
G01 X22.0376 Y3.5638
G01 X22.0433 Y3.5556
G01 X22.0475 Y3.5482
G01 X22.0512 Y3.5431
G01 X22.0605 Y3.5316
G01 X22.0721 Y3.5158
G01 X22.0786 Y3.5089
G01 X22.0851 Y3.5011
G01 X22.1001 Y3.4874
G01 X22.1143 Y3.4735
G01 X22.1218 Y3.4679
G01 X22.1293 Y3.4614
G01 X22.1339 Y3.4581
G01 X22.1463 Y3.4503
G01 X22.1627 Y3.4387
G01 X22.1716 Y3.4341
G01 X22.1799 Y3.4292
G01 X22.1980 Y3.4212
G01 X22.2158 Y3.4126
G01 X22.2254 Y3.4094
G01 X22.2346 Y3.4057
G01 X22.2538 Y3.4007
G01 X22.2733 Y3.3950
G01 X22.2826 Y3.3936
G01 X22.2921 Y3.3915
G01 X22.3123 Y3.3897
G01 X22.3319 Y3.3873
G01 X22.3418 Y3.3873
G01 X22.3517 Y3.3868
G01 X22.3716 Y3.3883
G01 X22.3918 Y3.3891
G01 X22.4011 Y3.3908
G01 X22.4107 Y3.3918
G01 X22.4305 Y3.3966
G01 X22.4500 Y3.4007
G01 X22.4593 Y3.4039
G01 X22.4688 Y3.4065
G01 X22.4870 Y3.4143
G01 X22.5056 Y3.4214
G01 X22.5144 Y3.4262
G01 X22.5232 Y3.4303
G01 X22.5402 Y3.4410
G01 X22.5575 Y3.4512
G01 X22.5654 Y3.4574
G01 X22.5733 Y3.4628
G01 X22.5881 Y3.4760
G01 X22.6035 Y3.4888
G01 X22.6102 Y3.4961
G01 X22.6173 Y3.5028
G01 X22.6297 Y3.5182
G01 X22.6395 Y3.5293
G01 X22.6431 Y3.5336
G01 X22.6484 Y3.5418
G01 X22.6541 Y3.5494
G01 X22.6641 Y3.5669
G01 X22.6746 Y3.5841
G01 X22.6784 Y3.5928
G01 X22.6830 Y3.6015
G01 X22.6900 Y3.6204
G01 X22.6975 Y3.6390
G01 X22.7130 Y3.6866
G01 X22.7810 Y3.8200
G01 X22.8690 Y3.9412
G01 X22.9748 Y4.0470
G01 X23.0960 Y4.1350
G01 X23.2295 Y4.2030
G01 X23.2295 Y4.0628
G01 X23.2018 Y4.0494
G01 X23.1376 Y4.0109
G01 X23.1323 Y4.0074
G01 X23.0723 Y3.9628
G01 X23.0673 Y3.9588
G01 X23.0119 Y3.9086
G01 X23.0074 Y3.9041
G01 X22.9572 Y3.8487
G01 X22.9532 Y3.8437
G01 X22.9086 Y3.7837
G01 X22.9051 Y3.7784
G01 X22.8666 Y3.7142
G01 X22.8636 Y3.7086
G01 X22.8316 Y3.6410
G01 X22.8292 Y3.6351
G01 X22.8040 Y3.5647
G01 X22.8022 Y3.5586
G01 X22.7840 Y3.4861
G01 X22.7827 Y3.4798
G01 X22.7718 Y3.4058
G01 X22.7711 Y3.3995
G01 X22.7675 Y3.3248
G01 X22.7675 Y3.3184
G01 X22.7711 Y3.2437
G01 X22.7718 Y3.2374
G01 X22.7827 Y3.1634
G01 X22.7840 Y3.1571
G01 X22.8022 Y3.0846
G01 X22.8040 Y3.0785
G01 X22.8292 Y3.0081
G01 X22.8316 Y3.0022
G01 X22.8636 Y2.9346
G01 X22.8666 Y2.9290
G01 X22.9051 Y2.8648
G01 X22.9086 Y2.8595
G01 X22.9532 Y2.7995
G01 X22.9572 Y2.7945
G01 X23.0074 Y2.7391
G01 X23.0119 Y2.7346
G01 X23.0673 Y2.6844
G01 X23.0723 Y2.6804
G01 X23.1323 Y2.6358
G01 X23.1376 Y2.6323
G01 X23.2018 Y2.5938
G01 X23.2295 Y2.5804
G01 X23.2295 Y2.4401
G01 X23.0960 Y2.5082
G01 X22.9748 Y2.5962
G01 X22.8690 Y2.7020
G01 X22.7810 Y2.8231
G01 X22.7130 Y2.9565
G01 X22.6975 Y3.0042
G01 X22.6771 Y3.0540
G01 X22.6720 Y3.0630
G01 X22.6682 Y3.0707
G01 X22.6570 Y3.0879
G01 X22.6492 Y3.1007
G01 X22.6463 Y3.1050
G01 X22.6401 Y3.1126
G01 X22.6345 Y3.1205
G01 X22.6210 Y3.1350
G01 X22.6075 Y3.1505
G01 X22.6001 Y3.1569
G01 X22.5936 Y3.1635
G01 X22.5776 Y3.1759
G01 X22.5622 Y3.1886
G01 X22.5543 Y3.1936
G01 X22.5461 Y3.1995
G01 X22.5283 Y3.2091
G01 X22.5109 Y3.2192
G01 X22.5017 Y3.2230
G01 X22.4932 Y3.2272
G01 X22.4743 Y3.2338
G01 X22.4556 Y3.2408
G01 X22.4461 Y3.2431
G01 X22.4367 Y3.2460
G01 X22.4171 Y3.2493
G01 X22.3976 Y3.2533
G01 X22.3875 Y3.2541
G01 X22.3776 Y3.2553
G01 X22.3580 Y3.2554
G01 X22.3432 Y3.2561
G01 X22.3380 Y3.2562
G01 X22.3281 Y3.2553
G01 X22.3181 Y3.2549
G01 X22.2986 Y3.2518
G01 X22.2788 Y3.2492
G01 X22.2692 Y3.2467
G01 X22.2595 Y3.2448
G01 X22.2408 Y3.2385
G01 X22.2267 Y3.2345
G01 X22.2216 Y3.2329
G01 X22.2124 Y3.2288
G01 X22.2032 Y3.2253
G01 X22.1857 Y3.2161
G01 X22.1675 Y3.2072
G01 X22.1594 Y3.2018
G01 X22.1510 Y3.1970
G01 X22.1352 Y3.1849
G01 X22.1188 Y3.1734
G01 X22.1116 Y3.1667
G01 X22.1040 Y3.1606
G01 X22.0903 Y3.1462
G01 X22.0757 Y3.1317
G01 X22.0700 Y3.1242
G01 X22.0637 Y3.1172
G01 X22.0603 Y3.1126
G01 X22.0522 Y3.1002
G01 X22.0405 Y3.0841
G01 X22.0359 Y3.0755
G01 X22.0306 Y3.0671
G01 X22.0223 Y3.0491
G01 X22.0132 Y3.0311
G01 X21.8997 Y2.7568
G01 X21.6192 Y2.4763
G01 X21.2528 Y2.3245
G01 X20.8560 Y2.3245
G01 X20.4896 Y2.4763
G01 X20.2091 Y2.7568
G01 X20.1216 Y2.9682
G01 X20.1164 Y2.9785
G01 X20.1111 Y2.9911
G01 X20.0954 Y3.0177
G01 X20.0902 Y3.0273
G01 X20.0868 Y3.0329
G01 X20.0806 Y3.0418
G01 X20.0532 Y3.0752
G01 X20.0415 Y3.0875
G01 X20.0052 Y3.1192
G01 X19.9916 Y3.1288
G01 X19.9755 Y3.1383
G01 X19.9598 Y3.1484
G01 X19.9451 Y3.1562
G01 X19.9401 Y3.1584
G01 X19.9227 Y3.1653
G01 X19.9054 Y3.1726
G01 X19.8893 Y3.1781
G01 X19.8429 Y3.1887
G01 X19.8259 Y3.1909
G01 X19.8073 Y3.1918
G01 X19.7888 Y3.1933
G01 X19.7834 Y3.1935
G01 X19.7664 Y3.1929
G01 X19.7478 Y3.1907
G01 X19.7291 Y3.1891
G01 X19.7124 Y3.1863
G01 X19.6711 Y3.1752
G01 X19.6554 Y3.1699
G01 X19.6164 Y3.1523
G01 X19.6016 Y3.1444
G01 X19.5659 Y3.1206
G01 X19.5530 Y3.1108
G01 X19.5352 Y3.0938
G01 X19.5215 Y3.0814
G01 X19.5099 Y3.0690
G01 X19.4838 Y3.0350
G01 X19.4745 Y3.0212
G01 X19.4515 Y2.9782
G01 X19.3597 Y2.7568
G01 X19.0792 Y2.4763
G01 X18.7128 Y2.3245
G01 X18.4252 Y2.3245
G01 X18.3770 Y2.3213
G01 X18.3639 Y2.3186
G01 X18.3531 Y2.3173
G01 X18.3356 Y2.3125
G01 X18.3190 Y2.3087
G01 X18.3072 Y2.3043
G01 X18.2952 Y2.3006
G01 X18.2795 Y2.2933
G01 X18.2684 Y2.2889
G01 X18.2637 Y2.2868
G01 X18.2528 Y2.2806
G01 X18.2414 Y2.2748
G01 X18.2271 Y2.2651
G01 X18.2125 Y2.2561
G01 X18.2029 Y2.2482
G01 X18.1926 Y2.2408
G01 X18.1801 Y2.2289
G01 X18.1671 Y2.2177
G01 X17.5080 Y1.5585
G01 X17.5005 Y1.5497
G01 X17.4904 Y1.5396
G01 X17.4724 Y1.5154
G01 X17.4620 Y1.5023
G01 X17.4527 Y1.4871
G01 X17.4331 Y1.4498
G01 X17.4264 Y1.4336
G01 X17.4209 Y1.4160
G01 X17.4147 Y1.3986
G01 X17.4102 Y1.3814
G01 X17.4027 Y1.3346
G01 X17.4017 Y1.3175
G01 X17.4021 Y1.2991
G01 X17.4018 Y1.2807
G01 X17.4030 Y1.2634
G01 X17.4100 Y1.2214
G01 X17.4139 Y1.2047
G01 X17.4275 Y1.1645
G01 X17.4294 Y1.1595
G01 X17.4366 Y1.1440
G01 X17.4570 Y1.1064
G01 X17.4664 Y1.0925
G01 X17.4780 Y1.0779
G01 X17.4891 Y1.0631
G01 X17.5003 Y1.0503
G01 X17.5312 Y1.0213
G01 X17.5448 Y1.0102
G01 X17.5843 Y0.9840
G01 X17.5996 Y0.9759
G01 X17.6164 Y0.9687
G01 X17.6384 Y0.9585
G01 X17.6546 Y0.9531
G01 X17.6726 Y0.9487
G01 X17.6952 Y0.9425
G01 X17.7127 Y0.9396
G01 X17.7310 Y0.9382
G01 X17.7542 Y0.9357
G01 X17.7666 Y0.9355
G01 X24.3315 Y0.9459
G01 X24.3485 Y0.9473
G01 X24.3734 Y0.9485
G01 X24.3789 Y0.9490
G01 X24.3927 Y0.9518
G01 X24.4038 Y0.9532
G01 X24.4205 Y0.9579
G01 X24.4369 Y0.9616
G01 X24.4491 Y0.9662
G01 X24.4615 Y0.9700
G01 X24.4767 Y0.9771
G01 X24.4924 Y0.9835
G01 X24.6609 Y1.0666
G01 X24.6665 Y1.0697
G01 X24.6757 Y1.0755
G01 X24.7022 Y1.0905
G01 X25.2022 Y1.4246
G01 X25.2158 Y1.4353
G01 X25.2401 Y1.4536
G01 X25.6922 Y1.8501
G01 X25.6966 Y1.8544
G01 X25.7041 Y1.8624
G01 X25.7259 Y1.8838
G01 X26.1224 Y2.3359
G01 X26.1264 Y2.3411
G01 X26.1326 Y2.3498
G01 X26.1514 Y2.3738
G01 X26.4855 Y2.8738
G01 X26.4907 Y2.8819
G01 X26.4980 Y2.8956
G01 X26.5094 Y2.9151
G01 X26.6563 Y3.2129
G01 X26.6606 Y3.2236
G01 X26.6662 Y3.2351
G01 X26.6698 Y3.2456
G01 X26.6744 Y3.2566
G01 X26.6781 Y3.2704
G01 X26.6817 Y3.2811
G01 X26.6889 Y3.3144
G01 X26.6902 Y3.3272
G01 X26.6923 Y3.3405
G01 X26.6929 Y3.3503
G01 X26.6930 Y3.3603
G01 X26.6939 Y3.3736
G01 X26.7390 Y25.9077
G01 X26.7378 Y25.9233
G01 X26.7371 Y25.9457
G01 X26.7336 Y25.9656
G01 X26.7319 Y25.9800
G01 X26.7286 Y25.9923
G01 X26.7263 Y26.0040
G01 X26.7204 Y26.0209
G01 X26.7154 Y26.0375
G01 X26.7104 Y26.0486
G01 X26.7060 Y26.0602
G01 X26.7036 Y26.0648
G01 X26.6975 Y26.0758
G01 X26.6897 Y26.0916
G01 X26.6831 Y26.1014
G01 X26.6771 Y26.1119
G01 X26.6660 Y26.1261
G01 X26.6557 Y26.1405
G01 X26.6475 Y26.1493
G01 X26.6397 Y26.1587
G01 X26.6267 Y26.1707
G01 X26.6144 Y26.1830
G01 X26.6047 Y26.1905
G01 X26.5954 Y26.1986
G01 X26.5912 Y26.2015
G01 X26.5806 Y26.2083
G01 X26.5665 Y26.2184
G01 X26.5560 Y26.2242
G01 X26.5453 Y26.2308
G01 X26.5291 Y26.2379
G01 X26.5136 Y26.2456
G01 X26.5019 Y26.2496
G01 X26.4905 Y26.2543
G01 X26.4737 Y26.2586
G01 X26.4567 Y26.2639
G01 X26.4445 Y26.2659
G01 X26.4329 Y26.2685
G01 X26.4153 Y26.2702
G01 X26.4029 Y26.2720
G01 X26.3975 Y26.2726
G01 X26.3855 Y26.2726
G01 X26.3735 Y26.2733
G01 X3.5920 Y26.2374
G01 X3.5831 Y26.2368
G01 X3.5732 Y26.2369
G01 X3.5255 Y26.2310
G01 X3.5199 Y26.2301
G01 X3.5088 Y26.2275
G01 X3.4668 Y26.2149
G01 X3.4577 Y26.2116
G01 X3.4130 Y26.1900
G01 X3.4038 Y26.1848
G01 X2.9527 Y25.9120
G01 X2.9389 Y25.9022
G01 X2.9164 Y25.8871
G01 X2.4134 Y25.4930
G01 X2.4009 Y25.4814
G01 X2.3804 Y25.4638
G01 X1.9286 Y25.0120
G01 X1.9176 Y24.9989
G01 X1.9029 Y24.9830
G01 X1.5053 Y24.4761
G01 X1.5016 Y24.4707
G01 X1.4958 Y24.4617
G01 X1.4804 Y24.4397
G01 X1.1498 Y23.8930
G01 X1.1421 Y23.8776
G01 X1.1317 Y23.8587
G01 X0.9755 Y23.5123
G01 X0.9705 Y23.4983
G01 X0.9630 Y23.4803
G01 X0.9572 Y23.4581
G01 X0.9525 Y23.4434
G01 X0.9508 Y23.4328
G01 X0.9484 Y23.4228
G01 X0.9465 Y23.4032
G01 X0.9440 Y23.3838
G01 X0.9440 Y23.3735
G01 X0.9434 Y23.3632
G01 X0.8992 Y1.2751
G01 X0.9004 Y1.2595
G01 X0.9011 Y1.2371
G01 X0.9046 Y1.2172
G01 X0.9062 Y1.2031
G01 X0.9095 Y1.1905
G01 X0.9120 Y1.1784
G01 X0.9177 Y1.1621
G01 X0.9228 Y1.1451
G01 X0.9279 Y1.1340
G01 X0.9322 Y1.1227
G01 X0.9346 Y1.1180
G01 X0.9407 Y1.1070
G01 X0.9484 Y1.0914
G01 X0.9550 Y1.0814
G01 X0.9613 Y1.0707
G01 X0.9722 Y1.0567
G01 X0.9825 Y1.0423
G01 X0.9908 Y1.0334
G01 X0.9985 Y1.0242
G01 X1.0114 Y1.0122
G01 X1.0240 Y0.9996
G01 X1.0335 Y0.9923
G01 X1.0426 Y0.9844
G01 X1.0574 Y0.9746
G01 X1.0673 Y0.9673
G01 X1.0719 Y0.9642
G01 X1.0826 Y0.9585
G01 X1.0927 Y0.9522
G01 X1.1090 Y0.9450
G01 X1.1246 Y0.9372
G01 X1.1363 Y0.9332
G01 X1.1477 Y0.9285
G01 X1.1647 Y0.9241
G01 X1.1814 Y0.9190
G01 X1.1934 Y0.9170
G01 X1.2053 Y0.9143
G01 X1.2104 Y0.9136
G01 X1.2229 Y0.9126
G01 X1.2405 Y0.9102
G01 X1.2527 Y0.9102
G00 Z2.0000
G00 X7.1143 Y8.8480
G01 F60.00
G01 Z-0.0851
G01 F60.00
G01 X6.2917 Y9.6707
G01 X6.2784 Y9.6819
G01 X6.2556 Y9.7022
G01 X6.2442 Y9.7099
G01 X6.2355 Y9.7166
G01 X6.2199 Y9.7255
G01 X6.2053 Y9.7346
G01 X6.1939 Y9.7398
G01 X6.1828 Y9.7456
G01 X6.1668 Y9.7515
G01 X6.1508 Y9.7582
G01 X6.1384 Y9.7616
G01 X6.1266 Y9.7655
G01 X6.1215 Y9.7666
G01 X6.1097 Y9.7687
G01 X6.0931 Y9.7726
G01 X6.0806 Y9.7739
G01 X6.0680 Y9.7759
G01 X6.0507 Y9.7764
G01 X6.0337 Y9.7775
G01 X5.1722 Y9.7775
G01 X4.4394 Y10.5104
G01 X4.4394 Y11.5468
G01 X5.1722 Y12.2797
G01 X6.2087 Y12.2797
G01 X6.9415 Y11.5468
G01 X6.9415 Y10.6854
G01 X6.9430 Y10.6681
G01 X6.9447 Y10.6373
G01 X6.9474 Y10.6237
G01 X6.9488 Y10.6131
G01 X6.9534 Y10.5960
G01 X6.9573 Y10.5792
G01 X6.9617 Y10.5674
G01 X6.9654 Y10.5554
G01 X6.9675 Y10.5505
G01 X6.9727 Y10.5397
G01 X6.9792 Y10.5239
G01 X6.9854 Y10.5130
G01 X6.9912 Y10.5016
G01 X7.0009 Y10.4873
G01 X7.0099 Y10.4727
G01 X7.0178 Y10.4631
G01 X7.0252 Y10.4528
G01 X7.0372 Y10.4402
G01 X7.0484 Y10.4273
G01 X7.7330 Y9.7427
G01 X7.7462 Y9.7316
G01 X7.7692 Y9.7110
G01 X7.7807 Y9.7034
G01 X7.7892 Y9.6968
G01 X7.8048 Y9.6879
G01 X7.8192 Y9.6789
G01 X7.8306 Y9.6737
G01 X7.8419 Y9.6677
G01 X7.8581 Y9.6617
G01 X7.8741 Y9.6551
G01 X7.8863 Y9.6518
G01 X7.8981 Y9.6479
G01 X7.9032 Y9.6468
G01 X7.9150 Y9.6447
G01 X7.9316 Y9.6408
G01 X7.9441 Y9.6395
G01 X7.9567 Y9.6375
G01 X7.9740 Y9.6370
G01 X7.9910 Y9.6359
G01 X10.5294 Y9.6359
G01 X10.5772 Y9.6390
G01 X10.5908 Y9.6417
G01 X10.6016 Y9.6431
G01 X10.6187 Y9.6477
G01 X10.6357 Y9.6517
G01 X10.6473 Y9.6561
G01 X10.6593 Y9.6597
G01 X10.6751 Y9.6671
G01 X10.6910 Y9.6736
G01 X10.7019 Y9.6799
G01 X10.7131 Y9.6856
G01 X10.7273 Y9.6952
G01 X10.7419 Y9.7041
G01 X10.7518 Y9.7123
G01 X10.7620 Y9.7197
G01 X10.7744 Y9.7315
G01 X10.7874 Y9.7427
G01 X13.1261 Y12.0814
G01 X13.1372 Y12.0946
G01 X13.1578 Y12.1176
G01 X13.1654 Y12.1291
G01 X13.1720 Y12.1376
G01 X13.1809 Y12.1531
G01 X13.1900 Y12.1677
G01 X13.1953 Y12.1792
G01 X13.2018 Y12.1919
G01 X13.2126 Y12.2027
G01 X13.2226 Y12.2145
G01 X13.2371 Y12.2298
G01 X13.2493 Y12.2472
G01 X13.2586 Y12.2590
G01 X13.2647 Y12.2695
G01 X13.2709 Y12.2790
G01 X13.2790 Y12.2956
G01 X13.2875 Y12.3116
G01 X13.2915 Y12.3222
G01 X13.2963 Y12.3328
G01 X13.3015 Y12.3504
G01 X13.3073 Y12.3676
G01 X13.3096 Y12.3788
G01 X13.3126 Y12.3901
G01 X13.3149 Y12.4084
G01 X13.3178 Y12.4265
G01 X13.3182 Y12.4379
G01 X13.3193 Y12.4493
G01 X13.3185 Y12.4677
G01 X13.3185 Y12.4859
G01 X13.3170 Y12.4974
G01 X13.3162 Y12.5088
G01 X13.3126 Y12.5266
G01 X13.3097 Y12.5448
G01 X13.3062 Y12.5561
G01 X13.3035 Y12.5672
G01 X13.2971 Y12.5841
G01 X13.2912 Y12.6014
G01 X13.2862 Y12.6117
G01 X13.2817 Y12.6224
G01 X13.2726 Y12.6381
G01 X13.2638 Y12.6546
G01 X13.2571 Y12.6638
G01 X13.2512 Y12.6733
G01 X13.2394 Y12.6875
G01 X13.2330 Y12.6961
G01 X13.2330 Y13.4274
G01 X13.2321 Y13.4391
G01 X13.2320 Y13.4526
G01 X13.2257 Y13.4998
G01 X13.2217 Y13.5166
G01 X13.2159 Y13.5344
G01 X13.2107 Y13.5524
G01 X13.2048 Y13.5679
G01 X13.1939 Y13.5894
G01 X13.1859 Y13.6063
G01 X13.1832 Y13.6114
G01 X13.1744 Y13.6254
G01 X13.1632 Y13.6404
G01 X13.1524 Y13.6559
G01 X13.1416 Y13.6688
G01 X13.1077 Y13.7026
G01 X13.0946 Y13.7133
G01 X13.0792 Y13.7239
G01 X13.0641 Y13.7350
G01 X13.0503 Y13.7436
G01 X13.0451 Y13.7463
G01 X13.0281 Y13.7543
G01 X13.0114 Y13.7628
G01 X12.9959 Y13.7692
G01 X12.9500 Y13.7830
G01 X12.9333 Y13.7863
G01 X12.9146 Y13.7884
G01 X12.8961 Y13.7910
G01 X12.8800 Y13.7922
G01 X12.8742 Y13.7921
G01 X12.8554 Y13.7912
G01 X12.8366 Y13.7908
G01 X12.8196 Y13.7891
G01 X12.7779 Y13.7808
G01 X12.7688 Y13.7784
G01 X12.7569 Y13.7748
G01 X12.7395 Y13.7679
G01 X12.7218 Y13.7616
G01 X12.7171 Y13.7597
G01 X12.7019 Y13.7521
G01 X12.6857 Y13.7425
G01 X12.6692 Y13.7332
G01 X12.6554 Y13.7240
G01 X12.6221 Y13.6968
G01 X12.6100 Y13.6855
G01 X10.8069 Y11.8824
G01 X10.7957 Y11.8691
G01 X10.7754 Y11.8463
G01 X10.7677 Y11.8349
G01 X10.7610 Y11.8262
G01 X10.7521 Y11.8106
G01 X10.7430 Y11.7960
G01 X10.7378 Y11.7846
G01 X10.7321 Y11.7737
G01 X10.7260 Y11.7575
G01 X10.7212 Y11.7463
G01 X10.7193 Y11.7413
G01 X10.7160 Y11.7291
G01 X10.7121 Y11.7173
G01 X10.7089 Y11.7004
G01 X10.7050 Y11.6838
G01 X10.7037 Y11.6713
G01 X10.7017 Y11.6587
G01 X10.7012 Y11.6414
G01 X10.7001 Y11.6244
G01 X10.7001 Y11.6057
G01 X9.9672 Y10.8729
G01 X8.9308 Y10.8729
G01 X8.1979 Y11.6057
G01 X8.1979 Y12.6422
G01 X8.9308 Y13.3750
G01 X9.9672 Y13.3750
G01 X10.1187 Y13.2236
G01 X10.1304 Y13.2136
G01 X10.1459 Y13.1990
G01 X10.1632 Y13.1867
G01 X10.1748 Y13.1776
G01 X10.1854 Y13.1715
G01 X10.1951 Y13.1651
G01 X10.2113 Y13.1573
G01 X10.2276 Y13.1486
G01 X10.2382 Y13.1446
G01 X10.2486 Y13.1399
G01 X10.2664 Y13.1346
G01 X10.2840 Y13.1287
G01 X10.2950 Y13.1266
G01 X10.3059 Y13.1237
G01 X10.3241 Y13.1214
G01 X10.3369 Y13.1190
G01 X10.3423 Y13.1183
G01 X10.3541 Y13.1179
G01 X10.3654 Y13.1169
G01 X10.3834 Y13.1176
G01 X10.4018 Y13.1176
G01 X10.4133 Y13.1191
G01 X10.4247 Y13.1199
G01 X10.4298 Y13.1208
G01 X10.4427 Y13.1236
G01 X10.4609 Y13.1266
G01 X10.4716 Y13.1299
G01 X10.4828 Y13.1325
G01 X10.5000 Y13.1390
G01 X10.5173 Y13.1449
G01 X10.5276 Y13.1499
G01 X10.5384 Y13.1545
G01 X10.5541 Y13.1637
G01 X10.5701 Y13.1722
G01 X10.5796 Y13.1789
G01 X10.5895 Y13.1852
G01 X10.5936 Y13.1884
G01 X10.6034 Y13.1967
G01 X10.6180 Y13.2079
G01 X10.6262 Y13.2161
G01 X10.6348 Y13.2236
G01 X11.8889 Y14.4777
G01 X11.8964 Y14.4864
G01 X11.9060 Y14.4961
G01 X11.9093 Y14.5003
G01 X11.9245 Y14.5209
G01 X11.9350 Y14.5341
G01 X11.9412 Y14.5437
G01 X11.9525 Y14.5655
G01 X11.9614 Y14.5817
G01 X11.9683 Y14.5968
G01 X11.9822 Y14.6376
G01 X11.9865 Y14.6540
G01 X11.9934 Y14.6963
G01 X11.9951 Y14.7127
G01 X11.9950 Y14.7558
G01 X11.9939 Y14.7724
G01 X11.9870 Y14.8147
G01 X11.9832 Y14.8306
G01 X11.9694 Y14.8715
G01 X11.9629 Y14.8870
G01 X11.9403 Y14.9292
G01 X11.9308 Y14.9432
G01 X11.9191 Y14.9580
G01 X11.9079 Y14.9730
G01 X11.8970 Y14.9855
G01 X11.8792 Y15.0018
G01 X11.8659 Y15.0147
G01 X11.8614 Y15.0187
G01 X11.8483 Y15.0286
G01 X11.8324 Y15.0388
G01 X11.8170 Y15.0494
G01 X11.8027 Y15.0577
G01 X11.7589 Y15.0775
G01 X11.7429 Y15.0829
G01 X11.7247 Y15.0874
G01 X11.7067 Y15.0925
G01 X11.6898 Y15.0959
G01 X11.6426 Y15.1005
G01 X7.0521 Y15.1007
G01 X6.8554 Y15.1821
G01 X5.7289 Y16.3088
G01 X5.7157 Y16.3210
G01 X5.6773 Y16.3514
G01 X5.6714 Y16.3555
G01 X5.6258 Y16.3809
G01 X5.6149 Y16.3858
G01 X5.5687 Y16.4022
G01 X5.5585 Y16.4048
G01 X5.5062 Y16.4139
G01 X5.4998 Y16.4143
G01 X5.4521 Y16.4150
G01 X5.4438 Y16.4146
G01 X5.3876 Y16.4061
G01 X5.3816 Y16.4044
G01 X5.3360 Y16.3897
G01 X5.1728 Y16.3223
G01 X4.8852 Y16.3223
G01 X4.8680 Y16.3208
G01 X4.8373 Y16.3191
G01 X4.8235 Y16.3164
G01 X4.8130 Y16.3150
G01 X4.7959 Y16.3104
G01 X4.7792 Y16.3065
G01 X4.7673 Y16.3021
G01 X4.7552 Y16.2983
G01 X4.7397 Y16.2911
G01 X4.7286 Y16.2868
G01 X4.7236 Y16.2846
G01 X4.7127 Y16.2783
G01 X4.7015 Y16.2726
G01 X4.6872 Y16.2629
G01 X4.6726 Y16.2539
G01 X4.6630 Y16.2460
G01 X4.6528 Y16.2387
G01 X4.6400 Y16.2266
G01 X4.6272 Y16.2154
G01 X3.2790 Y14.8673
G01 X3.2679 Y14.8540
G01 X3.2472 Y14.8309
G01 X3.2397 Y14.8195
G01 X3.2331 Y14.8110
G01 X3.2243 Y14.7956
G01 X3.2151 Y14.7812
G01 X3.2098 Y14.7695
G01 X3.2039 Y14.7583
G01 X3.1980 Y14.7420
G01 X3.1914 Y14.7262
G01 X3.1882 Y14.7143
G01 X3.1841 Y14.7021
G01 X3.1810 Y14.6853
G01 X3.1781 Y14.6741
G01 X3.1770 Y14.6686
G01 X3.1757 Y14.6558
G01 X3.1738 Y14.6435
G01 X3.1733 Y14.6265
G01 X3.1721 Y14.6092
G01 X3.1721 Y8.9093
G01 X3.1736 Y8.8921
G01 X3.1753 Y8.8614
G01 X3.1780 Y8.8476
G01 X3.1794 Y8.8371
G01 X3.1840 Y8.8200
G01 X3.1879 Y8.8033
G01 X3.1923 Y8.7914
G01 X3.1961 Y8.7793
G01 X3.2033 Y8.7638
G01 X3.2076 Y8.7527
G01 X3.2099 Y8.7475
G01 X3.2162 Y8.7368
G01 X3.2217 Y8.7256
G01 X3.2315 Y8.7113
G01 X3.2404 Y8.6968
G01 X3.2486 Y8.6869
G01 X3.2560 Y8.6767
G01 X3.2678 Y8.6643
G01 X3.2790 Y8.6513
G01 X6.4657 Y5.4645
G01 X6.4790 Y5.4533
G01 X6.5018 Y5.4330
G01 X6.5133 Y5.4253
G01 X6.5220 Y5.4186
G01 X6.5374 Y5.4098
G01 X6.5521 Y5.4006
G01 X6.5635 Y5.3954
G01 X6.5747 Y5.3895
G01 X6.5797 Y5.3876
G01 X6.5909 Y5.3836
G01 X6.6064 Y5.3771
G01 X6.6188 Y5.3737
G01 X6.6309 Y5.3697
G01 X6.6477 Y5.3665
G01 X6.6643 Y5.3626
G01 X6.6769 Y5.3613
G01 X6.6895 Y5.3593
G01 X6.7067 Y5.3588
G01 X6.7238 Y5.3577
G01 X7.0114 Y5.3577
G01 X7.3778 Y5.2059
G01 X7.6583 Y4.9254
G01 X7.7458 Y4.7140
G01 X7.7510 Y4.7037
G01 X7.7563 Y4.6910
G01 X7.7721 Y4.6646
G01 X7.7805 Y4.6495
G01 X7.7905 Y4.6357
G01 X7.8026 Y4.6217
G01 X7.8178 Y4.6029
G01 X7.8296 Y4.5913
G01 X7.8440 Y4.5791
G01 X7.8580 Y4.5665
G01 X7.8710 Y4.5565
G01 X7.8758 Y4.5534
G01 X7.8920 Y4.5438
G01 X7.9079 Y4.5337
G01 X7.9227 Y4.5258
G01 X7.9620 Y4.5096
G01 X7.9781 Y4.5041
G01 X8.0245 Y4.4935
G01 X8.0415 Y4.4913
G01 X8.0601 Y4.4904
G01 X8.0840 Y4.4887
G01 X8.1010 Y4.4893
G01 X8.1196 Y4.4915
G01 X8.1383 Y4.4931
G01 X8.1551 Y4.4959
G01 X8.1599 Y4.4971
G01 X8.2014 Y4.5085
G01 X8.2166 Y4.5143
G01 X8.2513 Y4.5300
G01 X8.2658 Y4.5378
G01 X8.3015 Y4.5616
G01 X8.3148 Y4.5717
G01 X8.3461 Y4.6009
G01 X8.3575 Y4.6132
G01 X8.3866 Y4.6513
G01 X8.3956 Y4.6657
G01 X8.4040 Y4.6822
G01 X8.4158 Y4.7039
G01 X8.5077 Y4.9254
G01 X8.7111 Y5.1287
G01 X8.7223 Y5.1420
G01 X8.7426 Y5.1648
G01 X8.7503 Y5.1762
G01 X8.7570 Y5.1849
G01 X8.7659 Y5.2005
G01 X8.7750 Y5.2151
G01 X8.7802 Y5.2265
G01 X8.7860 Y5.2376
G01 X8.7919 Y5.2536
G01 X8.7986 Y5.2696
G01 X8.8020 Y5.2820
G01 X8.8059 Y5.2938
G01 X8.8070 Y5.2989
G01 X8.8091 Y5.3107
G01 X8.8130 Y5.3273
G01 X8.8143 Y5.3398
G01 X8.8163 Y5.3524
G01 X8.8168 Y5.3697
G01 X8.8179 Y5.3868
G01 X8.8179 Y6.2509
G01 X8.8994 Y6.4475
G01 X9.9020 Y7.4501
G01 X10.0986 Y7.5316
G01 X14.0889 Y7.5316
G01 X14.1367 Y7.5347
G01 X14.1503 Y7.5374
G01 X14.1613 Y7.5388
G01 X14.1782 Y7.5434
G01 X14.1954 Y7.5474
G01 X14.2069 Y7.5518
G01 X14.2189 Y7.5554
G01 X14.2347 Y7.5629
G01 X14.2503 Y7.5692
G01 X14.2614 Y7.5756
G01 X14.2728 Y7.5813
G01 X14.2867 Y7.5908
G01 X14.3015 Y7.5999
G01 X14.3114 Y7.6080
G01 X14.3216 Y7.6154
G01 X14.3340 Y7.6272
G01 X14.3470 Y7.6384
G01 X15.8755 Y9.1669
G01 X15.8867 Y9.1802
G01 X15.9070 Y9.2030
G01 X15.9148 Y9.2146
G01 X15.9214 Y9.2232
G01 X15.9302 Y9.2386
G01 X15.9394 Y9.2533
G01 X15.9446 Y9.2647
G01 X15.9504 Y9.2758
G01 X15.9564 Y9.2920
G01 X15.9629 Y9.3077
G01 X15.9663 Y9.3200
G01 X15.9703 Y9.3321
G01 X15.9735 Y9.3489
G01 X15.9764 Y9.3605
G01 X15.9774 Y9.3655
G01 X15.9787 Y9.3780
G01 X15.9807 Y9.3906
G01 X15.9812 Y9.4079
G01 X15.9823 Y9.4250
G01 X15.9823 Y10.9258
G01 X15.9810 Y10.9412
G01 X15.9805 Y10.9624
G01 X15.9768 Y10.9832
G01 X15.9751 Y10.9982
G01 X15.9719 Y11.0099
G01 X15.9697 Y11.0209
G01 X15.9637 Y11.0382
G01 X15.9583 Y11.0559
G01 X15.9536 Y11.0662
G01 X15.9496 Y11.0768
G01 X15.9407 Y11.0931
G01 X15.9327 Y11.1094
G01 X15.9263 Y11.1191
G01 X15.9204 Y11.1291
G01 X15.9092 Y11.1435
G01 X15.8986 Y11.1583
G01 X15.8907 Y11.1667
G01 X15.8834 Y11.1755
G01 X15.8700 Y11.1880
G01 X15.8569 Y11.2011
G01 X15.8478 Y11.2080
G01 X15.8391 Y11.2156
G01 X15.8240 Y11.2255
G01 X15.8091 Y11.2363
G01 X15.7990 Y11.2417
G01 X15.7892 Y11.2477
G01 X15.7723 Y11.2553
G01 X15.7561 Y11.2633
G01 X15.7450 Y11.2671
G01 X15.7344 Y11.2714
G01 X15.7170 Y11.2760
G01 X15.6992 Y11.2815
G01 X15.6878 Y11.2833
G01 X15.6768 Y11.2858
G01 X15.6584 Y11.2875
G01 X15.6457 Y11.2894
G01 X15.6403 Y11.2900
G01 X15.6289 Y11.2900
G01 X15.6174 Y11.2907
G01 X13.9999 Y11.2907
G01 X13.9519 Y11.2875
G01 X13.9386 Y11.2849
G01 X13.9277 Y11.2835
G01 X13.9104 Y11.2787
G01 X13.8937 Y11.2749
G01 X13.8819 Y11.2705
G01 X13.8698 Y11.2667
G01 X13.8543 Y11.2595
G01 X13.8383 Y11.2530
G01 X13.8274 Y11.2467
G01 X13.8162 Y11.2410
G01 X13.8019 Y11.2313
G01 X13.7873 Y11.2223
G01 X13.7777 Y11.2144
G01 X13.7675 Y11.2071
G01 X13.7548 Y11.1951
G01 X13.7418 Y11.1838
G01 X11.2053 Y8.6472
G01 X11.0086 Y8.5657
G01 X7.5118 Y8.5657
G01 X7.3151 Y8.6472
G01 X7.1143 Y8.8480
G00 Z2.0000
G00 X10.5300 Y11.8476
G01 F60.00
G01 Z-0.0851
G01 F60.00
G01 X10.5500 Y11.8658
G01 X12.6849 Y14.0006
G01 X15.6680 Y14.0008
G01 X15.6744 Y14.0011
G01 X15.6807 Y14.0020
G01 X15.6869 Y14.0036
G01 X15.6929 Y14.0057
G01 X15.6986 Y14.0085
G01 X15.7041 Y14.0118
G01 X15.7092 Y14.0156
G01 X15.7140 Y14.0198
G01 X15.7182 Y14.0246
G01 X15.7220 Y14.0297
G01 X15.7253 Y14.0352
G01 X15.7281 Y14.0409
G01 X15.7302 Y14.0469
G01 X15.7318 Y14.0531
G01 X15.7327 Y14.0594
G01 X15.7330 Y14.0658
G01 X15.7330 Y14.6658
G01 X15.7327 Y14.6722
G01 X15.7318 Y14.6785
G01 X15.7302 Y14.6847
G01 X15.7281 Y14.6907
G01 X15.7253 Y14.6964
G01 X15.7220 Y14.7019
G01 X15.7182 Y14.7070
G01 X15.7140 Y14.7118
G01 X15.7092 Y14.7160
G01 X15.7041 Y14.7198
G01 X15.6986 Y14.7231
G01 X15.6929 Y14.7259
G01 X15.6869 Y14.7280
G01 X15.6807 Y14.7296
G01 X15.6744 Y14.7305
G01 X15.6680 Y14.7308
G01 X12.5336 Y14.7309
G01 X12.5010 Y14.7294
G01 X12.4946 Y14.7288
G01 X12.4655 Y14.7245
G01 X12.4592 Y14.7232
G01 X12.4307 Y14.7161
G01 X12.4246 Y14.7142
G01 X12.3968 Y14.7043
G01 X12.3909 Y14.7019
G01 X12.3643 Y14.6893
G01 X12.3587 Y14.6863
G01 X12.3334 Y14.6711
G01 X12.3281 Y14.6676
G01 X12.3045 Y14.6500
G01 X12.2995 Y14.6460
G01 X12.2754 Y14.6240
G01 X10.3766 Y12.7252
G01 X9.9158 Y13.1860
G01 X9.9111 Y13.1902
G01 X9.9060 Y13.1940
G01 X9.9005 Y13.1973
G01 X9.8947 Y13.2000
G01 X9.8887 Y13.2022
G01 X9.8825 Y13.2037
G01 X9.8762 Y13.2047
G01 X9.8698 Y13.2050
G01 X9.0282 Y13.2050
G01 X9.0218 Y13.2047
G01 X9.0155 Y13.2037
G01 X9.0093 Y13.2022
G01 X9.0033 Y13.2000
G01 X8.9975 Y13.1973
G01 X8.9920 Y13.1940
G01 X8.9869 Y13.1902
G01 X8.9822 Y13.1860
G01 X8.3870 Y12.5908
G01 X8.3828 Y12.5861
G01 X8.3790 Y12.5810
G01 X8.3757 Y12.5755
G01 X8.3730 Y12.5697
G01 X8.3708 Y12.5637
G01 X8.3693 Y12.5575
G01 X8.3683 Y12.5512
G01 X8.3680 Y12.5448
G01 X8.3680 Y11.7032
G01 X8.3683 Y11.6968
G01 X8.3693 Y11.6905
G01 X8.3708 Y11.6843
G01 X8.3730 Y11.6783
G01 X8.3757 Y11.6725
G01 X8.3790 Y11.6670
G01 X8.3828 Y11.6619
G01 X8.3870 Y11.6572
G01 X8.9822 Y11.0620
G01 X8.9869 Y11.0578
G01 X8.9920 Y11.0540
G01 X8.9975 Y11.0507
G01 X9.0033 Y11.0480
G01 X9.0093 Y11.0458
G01 X9.0155 Y11.0443
G01 X9.0218 Y11.0433
G01 X9.0282 Y11.0430
G01 X9.8698 Y11.0430
G01 X9.8762 Y11.0433
G01 X9.8825 Y11.0443
G01 X9.8887 Y11.0458
G01 X9.8947 Y11.0480
G01 X9.9005 Y11.0507
G01 X9.9060 Y11.0540
G01 X9.9111 Y11.0578
G01 X9.9158 Y11.0620
G01 X10.5110 Y11.6572
G01 X10.5152 Y11.6619
G01 X10.5190 Y11.6670
G01 X10.5223 Y11.6725
G01 X10.5250 Y11.6783
G01 X10.5272 Y11.6843
G01 X10.5287 Y11.6905
G01 X10.5297 Y11.6968
G01 X10.5300 Y11.7032
G01 X10.5300 Y11.8476
G00 Z2.0000
G00 X13.4030 Y12.1138
G01 F60.00
G01 Z-0.0851
G01 F60.00
G01 X13.3930 Y12.1060
G01 X13.3689 Y12.0840
G01 X10.7508 Y9.4660
G01 X7.7695 Y9.4659
G01 X6.7130 Y10.5224
G01 X6.7524 Y10.5618
G01 X6.7566 Y10.5665
G01 X6.7604 Y10.5716
G01 X6.7637 Y10.5771
G01 X6.7664 Y10.5829
G01 X6.7686 Y10.5889
G01 X6.7701 Y10.5951
G01 X6.7711 Y10.6014
G01 X6.7714 Y10.6078
G01 X6.7714 Y11.4494
G01 X6.7711 Y11.4558
G01 X6.7701 Y11.4621
G01 X6.7686 Y11.4683
G01 X6.7664 Y11.4743
G01 X6.7637 Y11.4801
G01 X6.7604 Y11.4856
G01 X6.7566 Y11.4907
G01 X6.7524 Y11.4954
G01 X6.1572 Y12.0906
G01 X6.1525 Y12.0948
G01 X6.1474 Y12.0986
G01 X6.1419 Y12.1019
G01 X6.1361 Y12.1046
G01 X6.1301 Y12.1068
G01 X6.1239 Y12.1083
G01 X6.1176 Y12.1093
G01 X6.1112 Y12.1096
G01 X5.2696 Y12.1096
G01 X5.2632 Y12.1093
G01 X5.2569 Y12.1083
G01 X5.2507 Y12.1068
G01 X5.2447 Y12.1046
G01 X5.2389 Y12.1019
G01 X5.2334 Y12.0986
G01 X5.2283 Y12.0948
G01 X5.2236 Y12.0906
G01 X4.6284 Y11.4954
G01 X4.6242 Y11.4907
G01 X4.6204 Y11.4856
G01 X4.6171 Y11.4801
G01 X4.6144 Y11.4743
G01 X4.6122 Y11.4683
G01 X4.6107 Y11.4621
G01 X4.6097 Y11.4558
G01 X4.6094 Y11.4494
G01 X4.6094 Y10.6078
G01 X4.6097 Y10.6014
G01 X4.6107 Y10.5951
G01 X4.6122 Y10.5889
G01 X4.6144 Y10.5829
G01 X4.6171 Y10.5771
G01 X4.6204 Y10.5716
G01 X4.6242 Y10.5665
G01 X4.6284 Y10.5618
G01 X5.2236 Y9.9666
G01 X5.2283 Y9.9624
G01 X5.2334 Y9.9586
G01 X5.2389 Y9.9553
G01 X5.2447 Y9.9526
G01 X5.2507 Y9.9504
G01 X5.2569 Y9.9489
G01 X5.2632 Y9.9479
G01 X5.2696 Y9.9476
G01 X6.1112 Y9.9476
G01 X6.1176 Y9.9479
G01 X6.1239 Y9.9489
G01 X6.1301 Y9.9504
G01 X6.1361 Y9.9526
G01 X6.1419 Y9.9553
G01 X6.1474 Y9.9586
G01 X6.1525 Y9.9624
G01 X6.1572 Y9.9666
G01 X6.1966 Y10.0060
G01 X7.3601 Y8.8426
G01 X7.3842 Y8.8206
G01 X7.3892 Y8.8166
G01 X7.4154 Y8.7972
G01 X7.4434 Y8.7803
G01 X7.4490 Y8.7773
G01 X7.4786 Y8.7634
G01 X7.5123 Y8.7514
G01 X7.5439 Y8.7434
G01 X7.5502 Y8.7421
G01 X7.5825 Y8.7374
G01 X7.6183 Y8.7357
G01 X10.9021 Y8.7357
G01 X10.9347 Y8.7372
G01 X10.9411 Y8.7378
G01 X10.9702 Y8.7421
G01 X10.9765 Y8.7434
G01 X11.0050 Y8.7505
G01 X11.0111 Y8.7524
G01 X11.0389 Y8.7623
G01 X11.0448 Y8.7647
G01 X11.0714 Y8.7773
G01 X11.0770 Y8.7803
G01 X11.1023 Y8.7955
G01 X11.1076 Y8.7990
G01 X11.1312 Y8.8166
G01 X11.1362 Y8.8206
G01 X11.1603 Y8.8426
G01 X13.7784 Y11.4606
G01 X15.6680 Y11.4608
G01 X15.6744 Y11.4611
G01 X15.6807 Y11.4620
G01 X15.6869 Y11.4636
G01 X15.6929 Y11.4657
G01 X15.6986 Y11.4685
G01 X15.7041 Y11.4718
G01 X15.7092 Y11.4756
G01 X15.7140 Y11.4798
G01 X15.7182 Y11.4846
G01 X15.7220 Y11.4897
G01 X15.7253 Y11.4952
G01 X15.7281 Y11.5009
G01 X15.7302 Y11.5069
G01 X15.7318 Y11.5131
G01 X15.7327 Y11.5194
G01 X15.7330 Y11.5258
G01 X15.7330 Y12.1258
G01 X15.7327 Y12.1322
G01 X15.7318 Y12.1385
G01 X15.7302 Y12.1447
G01 X15.7281 Y12.1507
G01 X15.7253 Y12.1564
G01 X15.7220 Y12.1619
G01 X15.7182 Y12.1670
G01 X15.7140 Y12.1718
G01 X15.7092 Y12.1760
G01 X15.7041 Y12.1798
G01 X15.6986 Y12.1831
G01 X15.6929 Y12.1859
G01 X15.6869 Y12.1880
G01 X15.6807 Y12.1896
G01 X15.6744 Y12.1905
G01 X15.6680 Y12.1908
G01 X13.4680 Y12.1908
G01 X13.4616 Y12.1905
G01 X13.4553 Y12.1896
G01 X13.4491 Y12.1880
G01 X13.4431 Y12.1859
G01 X13.4374 Y12.1831
G01 X13.4319 Y12.1798
G01 X13.4268 Y12.1760
G01 X13.4220 Y12.1718
G01 X13.4178 Y12.1670
G01 X13.4140 Y12.1619
G01 X13.4107 Y12.1564
G01 X13.4079 Y12.1507
G01 X13.4058 Y12.1447
G01 X13.4042 Y12.1385
G01 X13.4033 Y12.1322
G01 X13.4030 Y12.1138
G00 Z2.0000
G00 X16.8825 Y12.4078
G01 F60.00
G01 Z-0.0851
G01 F60.00
G01 X16.8810 Y12.4404
G01 X16.8804 Y12.4468
G01 X16.8761 Y12.4759
G01 X16.8748 Y12.4822
G01 X16.8677 Y12.5107
G01 X16.8658 Y12.5168
G01 X16.8559 Y12.5446
G01 X16.8535 Y12.5505
G01 X16.8409 Y12.5771
G01 X16.8379 Y12.5827
G01 X16.8227 Y12.6080
G01 X16.8192 Y12.6133
G01 X16.8016 Y12.6369
G01 X16.7976 Y12.6419
G01 X16.7778 Y12.6637
G01 X16.0853 Y13.3562
G01 X16.0635 Y13.3760
G01 X16.0585 Y13.3800
G01 X16.0349 Y13.3976
G01 X16.0296 Y13.4011
G01 X16.0043 Y13.4163
G01 X15.9987 Y13.4193
G01 X15.9721 Y13.4319
G01 X15.9662 Y13.4343
G01 X15.9384 Y13.4442
G01 X15.9323 Y13.4461
G01 X15.9038 Y13.4532
G01 X15.8975 Y13.4545
G01 X15.8684 Y13.4588
G01 X15.8620 Y13.4594
G01 X15.8294 Y13.4609
G01 X13.4680 Y13.4608
G01 X13.4616 Y13.4605
G01 X13.4553 Y13.4596
G01 X13.4491 Y13.4580
G01 X13.4431 Y13.4559
G01 X13.4374 Y13.4531
G01 X13.4319 Y13.4498
G01 X13.4268 Y13.4460
G01 X13.4220 Y13.4418
G01 X13.4178 Y13.4370
G01 X13.4140 Y13.4319
G01 X13.4107 Y13.4264
G01 X13.4079 Y13.4207
G01 X13.4058 Y13.4147
G01 X13.4042 Y13.4085
G01 X13.4033 Y13.4022
G01 X13.4030 Y13.3958
G01 X13.4030 Y12.7958
G01 X13.4033 Y12.7894
G01 X13.4042 Y12.7831
G01 X13.4058 Y12.7769
G01 X13.4079 Y12.7709
G01 X13.4107 Y12.7652
G01 X13.4140 Y12.7597
G01 X13.4178 Y12.7546
G01 X13.4220 Y12.7498
G01 X13.4268 Y12.7456
G01 X13.4319 Y12.7418
G01 X13.4374 Y12.7385
G01 X13.4431 Y12.7357
G01 X13.4491 Y12.7336
G01 X13.4553 Y12.7320
G01 X13.4616 Y12.7311
G01 X13.4680 Y12.7308
G01 X15.6781 Y12.7307
G01 X16.1522 Y12.2565
G01 X16.1523 Y9.2035
G01 X14.3104 Y7.3617
G01 X10.2051 Y7.3616
G01 X10.1725 Y7.3601
G01 X10.1661 Y7.3595
G01 X10.1370 Y7.3552
G01 X10.1307 Y7.3539
G01 X10.1022 Y7.3468
G01 X10.0961 Y7.3449
G01 X10.0683 Y7.3350
G01 X10.0624 Y7.3326
G01 X10.0358 Y7.3200
G01 X10.0302 Y7.3170
G01 X10.0049 Y7.3018
G01 X9.9996 Y7.2983
G01 X9.9760 Y7.2807
G01 X9.9710 Y7.2767
G01 X9.9469 Y7.2547
G01 X9.0948 Y6.4026
G01 X9.0728 Y6.3785
G01 X9.0688 Y6.3735
G01 X9.0512 Y6.3499
G01 X9.0477 Y6.3446
G01 X9.0325 Y6.3193
G01 X9.0295 Y6.3137
G01 X9.0169 Y6.2871
G01 X9.0145 Y6.2812
G01 X9.0046 Y6.2534
G01 X9.0027 Y6.2473
G01 X8.9956 Y6.2188
G01 X8.9943 Y6.2125
G01 X8.9900 Y6.1834
G01 X8.9894 Y6.1770
G01 X8.9879 Y6.1444
G01 X8.9879 Y5.1017
G01 X8.9604 Y5.0884
G01 X8.8962 Y5.0499
G01 X8.8909 Y5.0464
G01 X8.8309 Y5.0018
G01 X8.8259 Y4.9978
G01 X8.7705 Y4.9476
G01 X8.7660 Y4.9431
G01 X8.7158 Y4.8877
G01 X8.7118 Y4.8827
G01 X8.6672 Y4.8227
G01 X8.6637 Y4.8174
G01 X8.6252 Y4.7532
G01 X8.6222 Y4.7476
G01 X8.5902 Y4.6800
G01 X8.5878 Y4.6741
G01 X8.5626 Y4.6037
G01 X8.5608 Y4.5976
G01 X8.5426 Y4.5251
G01 X8.5413 Y4.5188
G01 X8.5304 Y4.4448
G01 X8.5297 Y4.4385
G01 X8.5261 Y4.3638
G01 X8.5261 Y4.3574
G01 X8.5297 Y4.2827
G01 X8.5304 Y4.2764
G01 X8.5413 Y4.2024
G01 X8.5426 Y4.1961
G01 X8.5608 Y4.1236
G01 X8.5626 Y4.1175
G01 X8.5878 Y4.0471
G01 X8.5902 Y4.0412
G01 X8.6222 Y3.9736
G01 X8.6252 Y3.9680
G01 X8.6637 Y3.9038
G01 X8.6672 Y3.8985
G01 X8.7118 Y3.8385
G01 X8.7158 Y3.8335
G01 X8.7660 Y3.7781
G01 X8.7705 Y3.7736
G01 X8.8259 Y3.7234
G01 X8.8309 Y3.7194
G01 X8.8909 Y3.6748
G01 X8.8962 Y3.6713
G01 X8.9604 Y3.6328
G01 X8.9660 Y3.6298
G01 X9.0336 Y3.5978
G01 X9.0395 Y3.5954
G01 X9.1099 Y3.5702
G01 X9.1160 Y3.5684
G01 X9.1885 Y3.5502
G01 X9.1948 Y3.5489
G01 X9.2688 Y3.5380
G01 X9.2751 Y3.5373
G01 X9.3498 Y3.5337
G01 X9.3562 Y3.5337
G01 X9.4309 Y3.5373
G01 X9.4372 Y3.5380
G01 X9.5112 Y3.5489
G01 X9.5175 Y3.5502
G01 X9.5900 Y3.5684
G01 X9.5961 Y3.5702
G01 X9.6665 Y3.5954
G01 X9.6724 Y3.5978
G01 X9.7400 Y3.6298
G01 X9.7456 Y3.6328
G01 X9.8098 Y3.6713
G01 X9.8151 Y3.6748
G01 X9.8751 Y3.7194
G01 X9.8801 Y3.7234
G01 X9.9355 Y3.7736
G01 X9.9400 Y3.7781
G01 X9.9902 Y3.8335
G01 X9.9942 Y3.8385
G01 X10.0388 Y3.8985
G01 X10.0423 Y3.9038
G01 X10.0808 Y3.9680
G01 X10.0838 Y3.9736
G01 X10.1158 Y4.0412
G01 X10.1182 Y4.0471
G01 X10.1434 Y4.1175
G01 X10.1452 Y4.1236
G01 X10.1634 Y4.1961
G01 X10.1647 Y4.2024
G01 X10.1756 Y4.2764
G01 X10.1763 Y4.2827
G01 X10.1799 Y4.3574
G01 X10.1799 Y4.3638
G01 X10.1763 Y4.4385
G01 X10.1756 Y4.4448
G01 X10.1647 Y4.5188
G01 X10.1634 Y4.5251
G01 X10.1452 Y4.5976
G01 X10.1434 Y4.6037
G01 X10.1182 Y4.6741
G01 X10.1158 Y4.6800
G01 X10.0838 Y4.7476
G01 X10.0808 Y4.7532
G01 X10.0423 Y4.8174
G01 X10.0388 Y4.8227
G01 X9.9942 Y4.8827
G01 X9.9902 Y4.8877
G01 X9.9400 Y4.9431
G01 X9.9355 Y4.9476
G01 X9.8801 Y4.9978
G01 X9.8751 Y5.0018
G01 X9.8151 Y5.0464
G01 X9.8098 Y5.0499
G01 X9.7456 Y5.0884
G01 X9.7182 Y5.1017
G01 X9.7181 Y5.9931
G01 X10.3564 Y6.6313
G01 X14.4617 Y6.6314
G01 X14.4943 Y6.6329
G01 X14.5007 Y6.6335
G01 X14.5298 Y6.6378
G01 X14.5361 Y6.6391
G01 X14.5646 Y6.6462
G01 X14.5707 Y6.6481
G01 X14.5985 Y6.6580
G01 X14.6044 Y6.6604
G01 X14.6310 Y6.6730
G01 X14.6366 Y6.6760
G01 X14.6619 Y6.6912
G01 X14.6672 Y6.6947
G01 X14.6908 Y6.7123
G01 X14.6958 Y6.7163
G01 X14.7199 Y6.7383
G01 X16.7778 Y8.7963
G01 X16.7976 Y8.8181
G01 X16.8016 Y8.8231
G01 X16.8192 Y8.8467
G01 X16.8227 Y8.8520
G01 X16.8379 Y8.8773
G01 X16.8409 Y8.8829
G01 X16.8535 Y8.9095
G01 X16.8559 Y8.9154
G01 X16.8658 Y8.9432
G01 X16.8677 Y8.9493
G01 X16.8748 Y8.9778
G01 X16.8761 Y8.9841
G01 X16.8804 Y9.0132
G01 X16.8810 Y9.0196
G01 X16.8825 Y9.0490
G01 X16.8825 Y12.4078
G00 Z2.0000
G00 X15.6680 Y16.5408
G01 F60.00
G01 Z-0.0851
G01 F60.00
G01 X15.6744 Y16.5411
G01 X15.6807 Y16.5420
G01 X15.6869 Y16.5436
G01 X15.6929 Y16.5457
G01 X15.6986 Y16.5485
G01 X15.7041 Y16.5518
G01 X15.7092 Y16.5556
G01 X15.7140 Y16.5598
G01 X15.7182 Y16.5646
G01 X15.7220 Y16.5697
G01 X15.7253 Y16.5752
G01 X15.7281 Y16.5809
G01 X15.7302 Y16.5869
G01 X15.7318 Y16.5931
G01 X15.7327 Y16.5994
G01 X15.7330 Y16.6058
G01 X15.7330 Y17.2058
G01 X15.7327 Y17.2122
G01 X15.7318 Y17.2185
G01 X15.7302 Y17.2247
G01 X15.7281 Y17.2307
G01 X15.7253 Y17.2364
G01 X15.7220 Y17.2419
G01 X15.7182 Y17.2470
G01 X15.7140 Y17.2518
G01 X15.7092 Y17.2560
G01 X15.7041 Y17.2598
G01 X15.6986 Y17.2631
G01 X15.6929 Y17.2659
G01 X15.6869 Y17.2680
G01 X15.6807 Y17.2696
G01 X15.6744 Y17.2705
G01 X15.6680 Y17.2708
G01 X14.5680 Y17.2709
G01 X10.5506 Y17.2709
G01 X9.8404 Y17.9811
G01 X9.8798 Y18.0205
G01 X9.8840 Y18.0252
G01 X9.8878 Y18.0303
G01 X9.8911 Y18.0358
G01 X9.8938 Y18.0416
G01 X9.8960 Y18.0476
G01 X9.8975 Y18.0538
G01 X9.8985 Y18.0601
G01 X9.8988 Y18.0665
G01 X9.8988 Y18.9081
G01 X9.8985 Y18.9145
G01 X9.8975 Y18.9208
G01 X9.8960 Y18.9270
G01 X9.8938 Y18.9330
G01 X9.8911 Y18.9388
G01 X9.8878 Y18.9443
G01 X9.8840 Y18.9494
G01 X9.8798 Y18.9541
G01 X9.2846 Y19.5493
G01 X9.2799 Y19.5535
G01 X9.2748 Y19.5573
G01 X9.2693 Y19.5606
G01 X9.2635 Y19.5633
G01 X9.2575 Y19.5655
G01 X9.2513 Y19.5670
G01 X9.2450 Y19.5680
G01 X9.2386 Y19.5683
G01 X8.3970 Y19.5683
G01 X8.3906 Y19.5680
G01 X8.3843 Y19.5670
G01 X8.3781 Y19.5655
G01 X8.3721 Y19.5633
G01 X8.3663 Y19.5606
G01 X8.3608 Y19.5573
G01 X8.3557 Y19.5535
G01 X8.3510 Y19.5493
G01 X7.7558 Y18.9541
G01 X7.7516 Y18.9494
G01 X7.7478 Y18.9443
G01 X7.7445 Y18.9388
G01 X7.7418 Y18.9330
G01 X7.7396 Y18.9270
G01 X7.7381 Y18.9208
G01 X7.7371 Y18.9145
G01 X7.7368 Y18.9081
G01 X7.7368 Y18.0665
G01 X7.7371 Y18.0601
G01 X7.7381 Y18.0538
G01 X7.7396 Y18.0476
G01 X7.7418 Y18.0416
G01 X7.7445 Y18.0358
G01 X7.7478 Y18.0303
G01 X7.7516 Y18.0252
G01 X7.7558 Y18.0205
G01 X8.3510 Y17.4253
G01 X8.3557 Y17.4211
G01 X8.3608 Y17.4173
G01 X8.3663 Y17.4140
G01 X8.3721 Y17.4113
G01 X8.3781 Y17.4091
G01 X8.3843 Y17.4076
G01 X8.3906 Y17.4066
G01 X8.3970 Y17.4063
G01 X9.2386 Y17.4063
G01 X9.2450 Y17.4066
G01 X9.2513 Y17.4076
G01 X9.2575 Y17.4091
G01 X9.2635 Y17.4113
G01 X9.2693 Y17.4140
G01 X9.2748 Y17.4173
G01 X9.2799 Y17.4211
G01 X9.2846 Y17.4253
G01 X9.3240 Y17.4647
G01 X10.1434 Y16.6454
G01 X10.1652 Y16.6256
G01 X10.1702 Y16.6216
G01 X10.1938 Y16.6040
G01 X10.1991 Y16.6005
G01 X10.2244 Y16.5853
G01 X10.2300 Y16.5823
G01 X10.2566 Y16.5697
G01 X10.2625 Y16.5673
G01 X10.2903 Y16.5574
G01 X10.2964 Y16.5555
G01 X10.3249 Y16.5484
G01 X10.3312 Y16.5471
G01 X10.3603 Y16.5428
G01 X10.3667 Y16.5422
G01 X10.3993 Y16.5407
G01 X15.6680 Y16.5408
G00 Z2.0000
G00 X20.8680 Y16.5408
G01 F60.00
G01 Z-0.0851
G01 F60.00
G01 X20.8744 Y16.5411
G01 X20.8807 Y16.5420
G01 X20.8869 Y16.5436
G01 X20.8929 Y16.5457
G01 X20.8986 Y16.5485
G01 X20.9041 Y16.5518
G01 X20.9092 Y16.5556
G01 X20.9140 Y16.5598
G01 X20.9182 Y16.5646
G01 X20.9220 Y16.5697
G01 X20.9253 Y16.5752
G01 X20.9281 Y16.5809
G01 X20.9302 Y16.5869
G01 X20.9318 Y16.5931
G01 X20.9327 Y16.5994
G01 X20.9330 Y16.6058
G01 X20.9330 Y17.2058
G01 X20.9327 Y17.2122
G01 X20.9318 Y17.2185
G01 X20.9302 Y17.2247
G01 X20.9281 Y17.2307
G01 X20.9253 Y17.2364
G01 X20.9220 Y17.2419
G01 X20.9182 Y17.2470
G01 X20.9140 Y17.2518
G01 X20.9092 Y17.2560
G01 X20.9041 Y17.2598
G01 X20.8986 Y17.2631
G01 X20.8929 Y17.2659
G01 X20.8869 Y17.2680
G01 X20.8807 Y17.2696
G01 X20.8744 Y17.2705
G01 X20.8680 Y17.2708
G01 X18.6680 Y17.2708
G01 X18.6616 Y17.2705
G01 X18.6553 Y17.2696
G01 X18.6491 Y17.2680
G01 X18.6431 Y17.2659
G01 X18.6374 Y17.2631
G01 X18.6319 Y17.2598
G01 X18.6268 Y17.2560
G01 X18.6220 Y17.2518
G01 X18.6178 Y17.2470
G01 X18.6140 Y17.2419
G01 X18.6107 Y17.2364
G01 X18.6079 Y17.2307
G01 X18.6058 Y17.2247
G01 X18.6042 Y17.2185
G01 X18.6033 Y17.2122
G01 X18.6030 Y17.2058
G01 X18.6030 Y16.6058
G01 X18.6033 Y16.5994
G01 X18.6042 Y16.5931
G01 X18.6058 Y16.5869
G01 X18.6079 Y16.5809
G01 X18.6107 Y16.5752
G01 X18.6140 Y16.5697
G01 X18.6178 Y16.5646
G01 X18.6220 Y16.5598
G01 X18.6268 Y16.5556
G01 X18.6319 Y16.5518
G01 X18.6374 Y16.5485
G01 X18.6431 Y16.5457
G01 X18.6491 Y16.5436
G01 X18.6553 Y16.5420
G01 X18.6616 Y16.5411
G01 X18.6680 Y16.5408
G01 X20.8680 Y16.5408
G00 Z2.0000
G00 X20.8680 Y17.8108
G01 F60.00
G01 Z-0.0851
G01 F60.00
G01 X20.8744 Y17.8111
G01 X20.8807 Y17.8120
G01 X20.8869 Y17.8136
G01 X20.8929 Y17.8157
G01 X20.8986 Y17.8185
G01 X20.9041 Y17.8218
G01 X20.9092 Y17.8256
G01 X20.9140 Y17.8298
G01 X20.9182 Y17.8346
G01 X20.9220 Y17.8397
G01 X20.9253 Y17.8452
G01 X20.9281 Y17.8509
G01 X20.9302 Y17.8569
G01 X20.9318 Y17.8631
G01 X20.9327 Y17.8694
G01 X20.9330 Y17.8758
G01 X20.9330 Y18.4758
G01 X20.9327 Y18.4822
G01 X20.9318 Y18.4885
G01 X20.9302 Y18.4947
G01 X20.9281 Y18.5007
G01 X20.9253 Y18.5064
G01 X20.9220 Y18.5119
G01 X20.9182 Y18.5170
G01 X20.9140 Y18.5218
G01 X20.9092 Y18.5260
G01 X20.9041 Y18.5298
G01 X20.8986 Y18.5331
G01 X20.8929 Y18.5359
G01 X20.8869 Y18.5380
G01 X20.8807 Y18.5396
G01 X20.8744 Y18.5405
G01 X20.8680 Y18.5408
G01 X18.6680 Y18.5408
G01 X18.6616 Y18.5405
G01 X18.6553 Y18.5396
G01 X18.6491 Y18.5380
G01 X18.6431 Y18.5359
G01 X18.6374 Y18.5331
G01 X18.6319 Y18.5298
G01 X18.6268 Y18.5260
G01 X18.6220 Y18.5218
G01 X18.6178 Y18.5170
G01 X18.6140 Y18.5119
G01 X18.6107 Y18.5064
G01 X18.6079 Y18.5007
G01 X18.6058 Y18.4947
G01 X18.6042 Y18.4885
G01 X18.6033 Y18.4822
G01 X18.6030 Y18.4758
G01 X18.6030 Y17.8758
G01 X18.6033 Y17.8694
G01 X18.6042 Y17.8631
G01 X18.6058 Y17.8569
G01 X18.6079 Y17.8509
G01 X18.6107 Y17.8452
G01 X18.6140 Y17.8397
G01 X18.6178 Y17.8346
G01 X18.6220 Y17.8298
G01 X18.6268 Y17.8256
G01 X18.6319 Y17.8218
G01 X18.6374 Y17.8185
G01 X18.6431 Y17.8157
G01 X18.6491 Y17.8136
G01 X18.6553 Y17.8120
G01 X18.6616 Y17.8111
G01 X18.6680 Y17.8108
G01 X20.8680 Y17.8108
G00 Z2.0000
G00 X20.8680 Y19.0808
G01 F60.00
G01 Z-0.0851
G01 F60.00
G01 X20.8744 Y19.0811
G01 X20.8807 Y19.0820
G01 X20.8869 Y19.0836
G01 X20.8929 Y19.0857
G01 X20.8986 Y19.0885
G01 X20.9041 Y19.0918
G01 X20.9092 Y19.0956
G01 X20.9140 Y19.0998
G01 X20.9182 Y19.1046
G01 X20.9220 Y19.1097
G01 X20.9253 Y19.1152
G01 X20.9281 Y19.1209
G01 X20.9302 Y19.1269
G01 X20.9318 Y19.1331
G01 X20.9327 Y19.1394
G01 X20.9330 Y19.1458
G01 X20.9330 Y19.7458
G01 X20.9327 Y19.7522
G01 X20.9318 Y19.7585
G01 X20.9302 Y19.7647
G01 X20.9281 Y19.7707
G01 X20.9253 Y19.7764
G01 X20.9220 Y19.7819
G01 X20.9182 Y19.7870
G01 X20.9140 Y19.7918
G01 X20.9092 Y19.7960
G01 X20.9041 Y19.7998
G01 X20.8986 Y19.8031
G01 X20.8929 Y19.8059
G01 X20.8869 Y19.8080
G01 X20.8807 Y19.8096
G01 X20.8744 Y19.8105
G01 X20.8680 Y19.8108
G01 X18.6680 Y19.8108
G01 X18.6616 Y19.8105
G01 X18.6553 Y19.8096
G01 X18.6491 Y19.8080
G01 X18.6431 Y19.8059
G01 X18.6374 Y19.8031
G01 X18.6319 Y19.7998
G01 X18.6268 Y19.7960
G01 X18.6220 Y19.7918
G01 X18.6178 Y19.7870
G01 X18.6140 Y19.7819
G01 X18.6107 Y19.7764
G01 X18.6079 Y19.7707
G01 X18.6058 Y19.7647
G01 X18.6042 Y19.7585
G01 X18.6033 Y19.7522
G01 X18.6030 Y19.7458
G01 X18.6030 Y19.1458
G01 X18.6033 Y19.1394
G01 X18.6042 Y19.1331
G01 X18.6058 Y19.1269
G01 X18.6079 Y19.1209
G01 X18.6107 Y19.1152
G01 X18.6140 Y19.1097
G01 X18.6178 Y19.1046
G01 X18.6220 Y19.0998
G01 X18.6268 Y19.0956
G01 X18.6319 Y19.0918
G01 X18.6374 Y19.0885
G01 X18.6431 Y19.0857
G01 X18.6491 Y19.0836
G01 X18.6553 Y19.0820
G01 X18.6616 Y19.0811
G01 X18.6680 Y19.0808
G01 X20.8680 Y19.0808
G00 Z2.0000
G00 X20.1031 Y21.0554
G01 F60.00
G01 Z-0.0851
G01 F60.00
G01 X20.2721 Y21.1415
G01 X20.4257 Y21.2531
G01 X20.5597 Y21.3871
G01 X20.6712 Y21.5407
G01 X20.7574 Y21.7097
G01 X20.8160 Y21.8900
G01 X20.8456 Y22.0773
G01 X20.8456 Y22.8233
G01 X20.7221 Y22.8233
G01 X20.7221 Y22.1722
G01 X20.7171 Y22.0694
G01 X20.7165 Y22.0630
G01 X20.7019 Y21.9644
G01 X20.7006 Y21.9581
G01 X20.6764 Y21.8613
G01 X20.6745 Y21.8552
G01 X20.6409 Y21.7613
G01 X20.6385 Y21.7554
G01 X20.5958 Y21.6652
G01 X20.5928 Y21.6596
G01 X20.5415 Y21.5740
G01 X20.5380 Y21.5687
G01 X20.4786 Y21.4886
G01 X20.4745 Y21.4837
G01 X20.4075 Y21.4098
G01 X20.4030 Y21.4053
G01 X20.3291 Y21.3383
G01 X20.3242 Y21.3342
G01 X20.2441 Y21.2748
G01 X20.2388 Y21.2713
G01 X20.1532 Y21.2200
G01 X20.1476 Y21.2170
G01 X20.0574 Y21.1743
G01 X20.0515 Y21.1719
G01 X20.0055 Y21.1554
G01 X20.0055 Y21.0237
G01 X20.1031 Y21.0554
G00 Z2.0000
G00 X20.8456 Y23.5532
G01 F60.00
G01 Z-0.0851
G01 F60.00
G01 X20.8456 Y24.2991
G01 X20.8160 Y24.4864
G01 X20.7574 Y24.6668
G01 X20.6712 Y24.8358
G01 X20.5597 Y24.9893
G01 X20.4257 Y25.1234
G01 X20.2721 Y25.2349
G01 X20.1031 Y25.3210
G01 X20.0055 Y25.3527
G01 X20.0055 Y25.2210
G01 X20.0515 Y25.2045
G01 X20.0574 Y25.2021
G01 X20.1476 Y25.1594
G01 X20.1532 Y25.1564
G01 X20.2388 Y25.1051
G01 X20.2441 Y25.1016
G01 X20.3242 Y25.0422
G01 X20.3291 Y25.0381
G01 X20.4030 Y24.9711
G01 X20.4075 Y24.9666
G01 X20.4745 Y24.8927
G01 X20.4786 Y24.8878
G01 X20.5380 Y24.8077
G01 X20.5415 Y24.8024
G01 X20.5928 Y24.7168
G01 X20.5958 Y24.7112
G01 X20.6385 Y24.6210
G01 X20.6409 Y24.6151
G01 X20.6745 Y24.5212
G01 X20.6764 Y24.5151
G01 X20.7006 Y24.4183
G01 X20.7019 Y24.4120
G01 X20.7165 Y24.3134
G01 X20.7171 Y24.3070
G01 X20.7221 Y24.2042
G01 X20.7221 Y23.5532
G01 X20.8456 Y23.5532
G00 Z2.0000
G00 X24.4799 Y18.4488
G01 F60.00
G01 Z-0.0851
G01 F60.00
G01 X24.4796 Y18.4552
G01 X24.4786 Y18.4615
G01 X24.4771 Y18.4677
G01 X24.4749 Y18.4737
G01 X24.4722 Y18.4795
G01 X24.4689 Y18.4850
G01 X24.4651 Y18.4901
G01 X24.4609 Y18.4948
G01 X23.8657 Y19.0900
G01 X23.8610 Y19.0942
G01 X23.8559 Y19.0980
G01 X23.8504 Y19.1013
G01 X23.8446 Y19.1040
G01 X23.8386 Y19.1062
G01 X23.8324 Y19.1077
G01 X23.8261 Y19.1087
G01 X23.8197 Y19.1090
G01 X22.9781 Y19.1090
G01 X22.9717 Y19.1087
G01 X22.9654 Y19.1077
G01 X22.9592 Y19.1062
G01 X22.9532 Y19.1040
G01 X22.9474 Y19.1013
G01 X22.9419 Y19.0980
G01 X22.9368 Y19.0942
G01 X22.9321 Y19.0900
G01 X22.3369 Y18.4948
G01 X22.3327 Y18.4901
G01 X22.3289 Y18.4850
G01 X22.3256 Y18.4795
G01 X22.3229 Y18.4737
G01 X22.3207 Y18.4677
G01 X22.3192 Y18.4615
G01 X22.3182 Y18.4552
G01 X22.3179 Y18.4488
G01 X22.3179 Y17.6072
G01 X22.3182 Y17.6008
G01 X22.3192 Y17.5945
G01 X22.3207 Y17.5883
G01 X22.3229 Y17.5823
G01 X22.3256 Y17.5765
G01 X22.3289 Y17.5710
G01 X22.3327 Y17.5659
G01 X22.3369 Y17.5612
G01 X22.9321 Y16.9660
G01 X22.9368 Y16.9618
G01 X22.9419 Y16.9580
G01 X22.9474 Y16.9547
G01 X22.9532 Y16.9520
G01 X22.9592 Y16.9498
G01 X22.9654 Y16.9483
G01 X22.9717 Y16.9473
G01 X22.9781 Y16.9470
G01 X23.0337 Y16.9470
G01 X23.0338 Y15.9683
G01 X21.7964 Y14.7310
G01 X18.6680 Y14.7308
G01 X18.6616 Y14.7305
G01 X18.6553 Y14.7296
G01 X18.6491 Y14.7280
G01 X18.6431 Y14.7259
G01 X18.6374 Y14.7231
G01 X18.6319 Y14.7198
G01 X18.6268 Y14.7160
G01 X18.6220 Y14.7118
G01 X18.6178 Y14.7070
G01 X18.6140 Y14.7019
G01 X18.6107 Y14.6964
G01 X18.6079 Y14.6907
G01 X18.6058 Y14.6847
G01 X18.6042 Y14.6785
G01 X18.6033 Y14.6722
G01 X18.6030 Y14.6658
G01 X18.6030 Y14.0658
G01 X18.6033 Y14.0594
G01 X18.6042 Y14.0531
G01 X18.6058 Y14.0469
G01 X18.6079 Y14.0409
G01 X18.6107 Y14.0352
G01 X18.6140 Y14.0297
G01 X18.6178 Y14.0246
G01 X18.6220 Y14.0198
G01 X18.6268 Y14.0156
G01 X18.6319 Y14.0118
G01 X18.6374 Y14.0085
G01 X18.6431 Y14.0057
G01 X18.6491 Y14.0036
G01 X18.6553 Y14.0020
G01 X18.6616 Y14.0011
G01 X18.6680 Y14.0008
G01 X21.9477 Y14.0007
G01 X21.9803 Y14.0022
G01 X21.9867 Y14.0028
G01 X22.0158 Y14.0071
G01 X22.0221 Y14.0084
G01 X22.0506 Y14.0155
G01 X22.0567 Y14.0174
G01 X22.0845 Y14.0273
G01 X22.0904 Y14.0297
G01 X22.1170 Y14.0423
G01 X22.1226 Y14.0453
G01 X22.1479 Y14.0605
G01 X22.1532 Y14.0640
G01 X22.1768 Y14.0816
G01 X22.1818 Y14.0856
G01 X22.2059 Y14.1076
G01 X23.6571 Y15.5588
G01 X23.6791 Y15.5829
G01 X23.6831 Y15.5879
G01 X23.7007 Y15.6115
G01 X23.7042 Y15.6168
G01 X23.7194 Y15.6421
G01 X23.7224 Y15.6477
G01 X23.7350 Y15.6743
G01 X23.7374 Y15.6802
G01 X23.7473 Y15.7080
G01 X23.7492 Y15.7141
G01 X23.7563 Y15.7426
G01 X23.7576 Y15.7489
G01 X23.7619 Y15.7780
G01 X23.7625 Y15.7844
G01 X23.7640 Y15.8138
G01 X23.7640 Y16.9470
G01 X23.8197 Y16.9470
G01 X23.8261 Y16.9473
G01 X23.8324 Y16.9483
G01 X23.8386 Y16.9498
G01 X23.8446 Y16.9520
G01 X23.8504 Y16.9547
G01 X23.8559 Y16.9580
G01 X23.8610 Y16.9618
G01 X23.8657 Y16.9660
G01 X24.4609 Y17.5612
G01 X24.4651 Y17.5659
G01 X24.4689 Y17.5710
G01 X24.4722 Y17.5765
G01 X24.4749 Y17.5823
G01 X24.4771 Y17.5883
G01 X24.4786 Y17.5945
G01 X24.4796 Y17.6008
G01 X24.4799 Y17.6072
G01 X24.4799 Y18.4488
G00 Z2.0000
G00 X21.3305 Y8.4195
G01 F60.00
G01 Z-0.0851
G01 F60.00
G01 X21.3347 Y8.4242
G01 X21.3385 Y8.4293
G01 X21.3418 Y8.4348
G01 X21.3445 Y8.4406
G01 X21.3467 Y8.4466
G01 X21.3482 Y8.4528
G01 X21.3492 Y8.4591
G01 X21.3495 Y8.4655
G01 X21.3495 Y9.3071
G01 X21.3492 Y9.3135
G01 X21.3482 Y9.3198
G01 X21.3467 Y9.3260
G01 X21.3445 Y9.3320
G01 X21.3418 Y9.3378
G01 X21.3385 Y9.3433
G01 X21.3347 Y9.3484
G01 X21.3305 Y9.3531
G01 X20.7353 Y9.9483
G01 X20.7306 Y9.9525
G01 X20.7255 Y9.9563
G01 X20.7200 Y9.9596
G01 X20.7142 Y9.9623
G01 X20.7082 Y9.9645
G01 X20.7020 Y9.9660
G01 X20.6957 Y9.9670
G01 X20.6893 Y9.9673
G01 X20.1332 Y9.9673
G01 X20.1331 Y11.4606
G01 X20.8680 Y11.4608
G01 X20.8744 Y11.4611
G01 X20.8807 Y11.4620
G01 X20.8869 Y11.4636
G01 X20.8929 Y11.4657
G01 X20.8986 Y11.4685
G01 X20.9041 Y11.4718
G01 X20.9092 Y11.4756
G01 X20.9140 Y11.4798
G01 X20.9182 Y11.4846
G01 X20.9220 Y11.4897
G01 X20.9253 Y11.4952
G01 X20.9281 Y11.5009
G01 X20.9302 Y11.5069
G01 X20.9318 Y11.5131
G01 X20.9327 Y11.5194
G01 X20.9330 Y11.5258
G01 X20.9330 Y12.1258
G01 X20.9327 Y12.1322
G01 X20.9318 Y12.1385
G01 X20.9302 Y12.1447
G01 X20.9281 Y12.1507
G01 X20.9253 Y12.1564
G01 X20.9220 Y12.1619
G01 X20.9182 Y12.1670
G01 X20.9140 Y12.1718
G01 X20.9092 Y12.1760
G01 X20.9041 Y12.1798
G01 X20.8986 Y12.1831
G01 X20.8929 Y12.1859
G01 X20.8869 Y12.1880
G01 X20.8807 Y12.1896
G01 X20.8744 Y12.1905
G01 X20.8680 Y12.1908
G01 X18.6680 Y12.1908
G01 X18.6616 Y12.1905
G01 X18.6553 Y12.1896
G01 X18.6491 Y12.1880
G01 X18.6431 Y12.1859
G01 X18.6374 Y12.1831
G01 X18.6319 Y12.1798
G01 X18.6268 Y12.1760
G01 X18.6220 Y12.1718
G01 X18.6178 Y12.1670
G01 X18.6140 Y12.1619
G01 X18.6107 Y12.1564
G01 X18.6079 Y12.1507
G01 X18.6058 Y12.1447
G01 X18.6042 Y12.1385
G01 X18.6033 Y12.1322
G01 X18.6030 Y12.1258
G01 X18.6030 Y11.5258
G01 X18.6033 Y11.5194
G01 X18.6042 Y11.5131
G01 X18.6058 Y11.5069
G01 X18.6079 Y11.5009
G01 X18.6107 Y11.4952
G01 X18.6140 Y11.4897
G01 X18.6178 Y11.4846
G01 X18.6220 Y11.4798
G01 X18.6268 Y11.4756
G01 X18.6319 Y11.4718
G01 X18.6374 Y11.4685
G01 X18.6431 Y11.4657
G01 X18.6491 Y11.4636
G01 X18.6553 Y11.4620
G01 X18.6616 Y11.4611
G01 X18.6680 Y11.4608
G01 X19.4028 Y11.4608
G01 X19.4029 Y9.5494
G01 X19.2065 Y9.3531
G01 X19.2023 Y9.3484
G01 X19.1985 Y9.3433
G01 X19.1952 Y9.3378
G01 X19.1925 Y9.3320
G01 X19.1903 Y9.3260
G01 X19.1888 Y9.3198
G01 X19.1878 Y9.3135
G01 X19.1875 Y9.3071
G01 X19.1875 Y8.4655
G01 X19.1878 Y8.4591
G01 X19.1888 Y8.4528
G01 X19.1903 Y8.4466
G01 X19.1925 Y8.4406
G01 X19.1952 Y8.4348
G01 X19.1985 Y8.4293
G01 X19.2023 Y8.4242
G01 X19.2065 Y8.4195
G01 X19.8017 Y7.8243
G01 X19.8064 Y7.8201
G01 X19.8115 Y7.8163
G01 X19.8170 Y7.8130
G01 X19.8228 Y7.8103
G01 X19.8288 Y7.8081
G01 X19.8350 Y7.8066
G01 X19.8413 Y7.8056
G01 X19.8477 Y7.8053
G01 X20.6893 Y7.8053
G01 X20.6957 Y7.8056
G01 X20.7020 Y7.8066
G01 X20.7082 Y7.8081
G01 X20.7142 Y7.8103
G01 X20.7200 Y7.8130
G01 X20.7255 Y7.8163
G01 X20.7306 Y7.8201
G01 X20.7353 Y7.8243
G01 X21.3305 Y8.4195
G00 Z2.0000
G00 X20.5917 Y4.0069
G01 F60.00
G01 Z-0.0851
G01 F60.00
G01 X20.5323 Y3.9628
G01 X20.5273 Y3.9588
G01 X20.4719 Y3.9086
G01 X20.4674 Y3.9041
G01 X20.4172 Y3.8487
G01 X20.4132 Y3.8437
G01 X20.3686 Y3.7837
G01 X20.3651 Y3.7784
G01 X20.3266 Y3.7142
G01 X20.3236 Y3.7086
G01 X20.2916 Y3.6410
G01 X20.2892 Y3.6351
G01 X20.2640 Y3.5647
G01 X20.2622 Y3.5586
G01 X20.2440 Y3.4861
G01 X20.2427 Y3.4798
G01 X20.2318 Y3.4058
G01 X20.2311 Y3.3995
G01 X20.2275 Y3.3248
G01 X20.2275 Y3.3184
G01 X20.2311 Y3.2437
G01 X20.2318 Y3.2374
G01 X20.2427 Y3.1634
G01 X20.2440 Y3.1571
G01 X20.2622 Y3.0846
G01 X20.2640 Y3.0785
G01 X20.2892 Y3.0081
G01 X20.2916 Y3.0022
G01 X20.3236 Y2.9346
G01 X20.3266 Y2.9290
G01 X20.3651 Y2.8648
G01 X20.3686 Y2.8595
G01 X20.4132 Y2.7995
G01 X20.4172 Y2.7945
G01 X20.4674 Y2.7391
G01 X20.4719 Y2.7346
G01 X20.5273 Y2.6844
G01 X20.5323 Y2.6804
G01 X20.5923 Y2.6358
G01 X20.5976 Y2.6323
G01 X20.6618 Y2.5938
G01 X20.6674 Y2.5908
G01 X20.7350 Y2.5588
G01 X20.7409 Y2.5564
G01 X20.8113 Y2.5312
G01 X20.8174 Y2.5294
G01 X20.8899 Y2.5112
G01 X20.8962 Y2.5099
G01 X20.9702 Y2.4990
G01 X20.9765 Y2.4983
G01 X21.0512 Y2.4947
G01 X21.0576 Y2.4947
G01 X21.1323 Y2.4983
G01 X21.1386 Y2.4990
G01 X21.2126 Y2.5099
G01 X21.2189 Y2.5112
G01 X21.2914 Y2.5294
G01 X21.2975 Y2.5312
G01 X21.3679 Y2.5564
G01 X21.3738 Y2.5588
G01 X21.4414 Y2.5908
G01 X21.4470 Y2.5938
G01 X21.5112 Y2.6323
G01 X21.5165 Y2.6358
G01 X21.5765 Y2.6804
G01 X21.5815 Y2.6844
G01 X21.6369 Y2.7346
G01 X21.6414 Y2.7391
G01 X21.6916 Y2.7945
G01 X21.6956 Y2.7995
G01 X21.7402 Y2.8595
G01 X21.7437 Y2.8648
G01 X21.7822 Y2.9290
G01 X21.7852 Y2.9346
G01 X21.8172 Y3.0022
G01 X21.8196 Y3.0081
G01 X21.8448 Y3.0785
G01 X21.8466 Y3.0846
G01 X21.8648 Y3.1571
G01 X21.8661 Y3.1634
G01 X21.8770 Y3.2374
G01 X21.8777 Y3.2437
G01 X21.8813 Y3.3184
G01 X21.8813 Y3.3248
G01 X21.8777 Y3.3995
G01 X21.8770 Y3.4058
G01 X21.8661 Y3.4798
G01 X21.8648 Y3.4861
G01 X21.8466 Y3.5586
G01 X21.8448 Y3.5647
G01 X21.8196 Y3.6351
G01 X21.8172 Y3.6410
G01 X21.7852 Y3.7086
G01 X21.7822 Y3.7142
G01 X21.7437 Y3.7784
G01 X21.7402 Y3.7837
G01 X21.6956 Y3.8437
G01 X21.6916 Y3.8487
G01 X21.6414 Y3.9041
G01 X21.6369 Y3.9086
G01 X21.5815 Y3.9588
