(G-CODE GENERATED BY FLATCAM v8.991 - www.flatcam.org - Version Date: 2019/12/27)

(Name: Corte)
(Type: G-code from Geometry)
(Units: MM)

(Created on Tuesday, 14 November 2023 at 08:54)

(TOOL DIAMETER: 1.0 mm)
(Feedrate: 60.0 mm/min)
(Feedrate_Z: 60.0 mm/min)
(Feedrate rapids 1500.0 mm/min)

(Z_Cut: -2.0 mm)
(DepthPerCut: 0.5 mm <=>4 passes)
(Z_Move: 2.0 mm)
(Z Toolchange: 15.0 mm)
(X,Y Toolchange: 0.0000, 0.0000 mm)
(Z Start: None mm)
(Z End: 2.0 mm)
(Steps per circle: 64)
(Preprocessor Geometry: default)

(X range:    0.3451 ...   31.7544  mm)
(Y range:    0.2206 ...   20.4075  mm)

(Spindle Speed: 800 RPM)
G21
G90
G94




G01 F60.00
G00 Z2.0000

M03 S800
G00 X0.3451 Y9.1141
G01 F60.00
G01 Z-0.5000
G01 F60.00
G01 X0.3451 Y1.0206
G01 X0.3490 Y0.9422
G01 X0.3605 Y0.8645
G01 X0.3796 Y0.7884
G01 X0.4060 Y0.7145
G01 X0.4396 Y0.6435
G01 X0.4799 Y0.5761
G01 X0.5267 Y0.5131
G01 X0.5794 Y0.4549
G01 X0.6376 Y0.4022
G01 X0.7007 Y0.3554
G01 X0.7680 Y0.3151
G01 X0.8390 Y0.2815
G01 X0.9129 Y0.2550
G01 X0.9891 Y0.2360
G01 X1.0667 Y0.2245
G01 X1.1451 Y0.2206
G01 X30.9544 Y0.2206
G00 X30.9544 Y0.2206
G01 F60.00
G01 Z-1.0000
G01 F60.00
G01 X1.1451 Y0.2206
G01 X1.0667 Y0.2245
G01 X0.9891 Y0.2360
G01 X0.9129 Y0.2550
G01 X0.8390 Y0.2815
G01 X0.7680 Y0.3151
G01 X0.7007 Y0.3554
G01 X0.6376 Y0.4022
G01 X0.5794 Y0.4549
G01 X0.5267 Y0.5131
G01 X0.4799 Y0.5761
G01 X0.4396 Y0.6435
G01 X0.4060 Y0.7145
G01 X0.3796 Y0.7884
G01 X0.3605 Y0.8645
G01 X0.3490 Y0.9422
G01 X0.3451 Y1.0206
G01 X0.3451 Y9.1141
G00 X0.3451 Y9.1141
G01 F60.00
G01 Z-1.5000
G01 F60.00
G01 X0.3451 Y1.0206
G01 X0.3490 Y0.9422
G01 X0.3605 Y0.8645
G01 X0.3796 Y0.7884
G01 X0.4060 Y0.7145
G01 X0.4396 Y0.6435
G01 X0.4799 Y0.5761
G01 X0.5267 Y0.5131
G01 X0.5794 Y0.4549
G01 X0.6376 Y0.4022
G01 X0.7007 Y0.3554
G01 X0.7680 Y0.3151
G01 X0.8390 Y0.2815
G01 X0.9129 Y0.2550
G01 X0.9891 Y0.2360
G01 X1.0667 Y0.2245
G01 X1.1451 Y0.2206
G01 X30.9544 Y0.2206
G00 X30.9544 Y0.2206
G01 F60.00
G01 Z-2.0000
G01 F60.00
G01 X1.1451 Y0.2206
G01 X1.0667 Y0.2245
G01 X0.9891 Y0.2360
G01 X0.9129 Y0.2550
G01 X0.8390 Y0.2815
G01 X0.7680 Y0.3151
G01 X0.7007 Y0.3554
G01 X0.6376 Y0.4022
G01 X0.5794 Y0.4549
G01 X0.5267 Y0.5131
G01 X0.4799 Y0.5761
G01 X0.4396 Y0.6435
G01 X0.4060 Y0.7145
G01 X0.3796 Y0.7884
G01 X0.3605 Y0.8645
G01 X0.3490 Y0.9422
G01 X0.3451 Y1.0206
G01 X0.3451 Y9.1141
G00 Z2.0000
G00 X0.3451 Y12.1141
G01 F60.00
G01 Z-0.5000
G01 F60.00
G01 X0.3451 Y19.6075
G01 X0.3490 Y19.6859
G01 X0.3605 Y19.7636
G01 X0.3796 Y19.8397
G01 X0.4060 Y19.9136
G01 X0.4396 Y19.9846
G01 X0.4799 Y20.0520
G01 X0.5267 Y20.1150
G01 X0.5794 Y20.1732
G01 X0.6376 Y20.2259
G01 X0.7007 Y20.2727
G01 X0.7680 Y20.3130
G01 X0.8390 Y20.3466
G01 X0.9129 Y20.3731
G01 X0.9891 Y20.3921
G01 X1.0667 Y20.4036
G01 X1.1451 Y20.4075
G01 X30.9544 Y20.4075
G01 X31.0328 Y20.4036
G01 X31.1105 Y20.3921
G01 X31.1866 Y20.3731
G01 X31.2605 Y20.3466
G01 X31.3315 Y20.3130
G01 X31.3989 Y20.2727
G01 X31.4619 Y20.2259
G01 X31.5201 Y20.1732
G01 X31.5728 Y20.1150
G01 X31.6196 Y20.0520
G01 X31.6599 Y19.9846
G01 X31.6935 Y19.9136
G01 X31.7200 Y19.8397
G01 X31.7390 Y19.7636
G01 X31.7505 Y19.6859
G01 X31.7544 Y19.6075
G01 X31.7544 Y12.1141
G00 X31.7544 Y12.1141
G01 F60.00
G01 Z-1.0000
G01 F60.00
G01 X31.7544 Y19.6075
G01 X31.7505 Y19.6859
G01 X31.7390 Y19.7636
G01 X31.7200 Y19.8397
G01 X31.6935 Y19.9136
G01 X31.6599 Y19.9846
G01 X31.6196 Y20.0520
G01 X31.5728 Y20.1150
G01 X31.5201 Y20.1732
G01 X31.4619 Y20.2259
G01 X31.3989 Y20.2727
G01 X31.3315 Y20.3130
G01 X31.2605 Y20.3466
G01 X31.1866 Y20.3731
G01 X31.1105 Y20.3921
G01 X31.0328 Y20.4036
G01 X30.9544 Y20.4075
G01 X1.1451 Y20.4075
G01 X1.0667 Y20.4036
G01 X0.9891 Y20.3921
G01 X0.9129 Y20.3731
G01 X0.8390 Y20.3466
G01 X0.7680 Y20.3130
G01 X0.7007 Y20.2727
G01 X0.6376 Y20.2259
G01 X0.5794 Y20.1732
G01 X0.5267 Y20.1150
G01 X0.4799 Y20.0520
G01 X0.4396 Y19.9846
G01 X0.4060 Y19.9136
G01 X0.3796 Y19.8397
G01 X0.3605 Y19.7636
G01 X0.3490 Y19.6859
G01 X0.3451 Y19.6075
G01 X0.3451 Y12.1141
G00 X0.3451 Y12.1141
G01 F60.00
G01 Z-1.5000
G01 F60.00
G01 X0.3451 Y19.6075
G01 X0.3490 Y19.6859
G01 X0.3605 Y19.7636
G01 X0.3796 Y19.8397
G01 X0.4060 Y19.9136
G01 X0.4396 Y19.9846
G01 X0.4799 Y20.0520
G01 X0.5267 Y20.1150
G01 X0.5794 Y20.1732
G01 X0.6376 Y20.2259
G01 X0.7007 Y20.2727
G01 X0.7680 Y20.3130
G01 X0.8390 Y20.3466
G01 X0.9129 Y20.3731
G01 X0.9891 Y20.3921
G01 X1.0667 Y20.4036
G01 X1.1451 Y20.4075
G01 X30.9544 Y20.4075
G01 X31.0328 Y20.4036
G01 X31.1105 Y20.3921
G01 X31.1866 Y20.3731
G01 X31.2605 Y20.3466
G01 X31.3315 Y20.3130
G01 X31.3989 Y20.2727
G01 X31.4619 Y20.2259
G01 X31.5201 Y20.1732
G01 X31.5728 Y20.1150
G01 X31.6196 Y20.0520
G01 X31.6599 Y19.9846
G01 X31.6935 Y19.9136
G01 X31.7200 Y19.8397
G01 X31.7390 Y19.7636
G01 X31.7505 Y19.6859
G01 X31.7544 Y19.6075
G01 X31.7544 Y12.1141
G00 X31.7544 Y12.1141
G01 F60.00
G01 Z-2.0000
G01 F60.00
G01 X31.7544 Y19.6075
G01 X31.7505 Y19.6859
G01 X31.7390 Y19.7636
G01 X31.7200 Y19.8397
G01 X31.6935 Y19.9136
G01 X31.6599 Y19.9846
G01 X31.6196 Y20.0520
G01 X31.5728 Y20.1150
G01 X31.5201 Y20.1732
G01 X31.4619 Y20.2259
G01 X31.3989 Y20.2727
G01 X31.3315 Y20.3130
G01 X31.2605 Y20.3466
G01 X31.1866 Y20.3731
G01 X31.1105 Y20.3921
G01 X31.0328 Y20.4036
G01 X30.9544 Y20.4075
G01 X1.1451 Y20.4075
G01 X1.0667 Y20.4036
G01 X0.9891 Y20.3921
G01 X0.9129 Y20.3731
G01 X0.8390 Y20.3466
G01 X0.7680 Y20.3130
G01 X0.7007 Y20.2727
G01 X0.6376 Y20.2259
G01 X0.5794 Y20.1732
G01 X0.5267 Y20.1150
G01 X0.4799 Y20.0520
G01 X0.4396 Y19.9846
G01 X0.4060 Y19.9136
G01 X0.3796 Y19.8397
G01 X0.3605 Y19.7636
G01 X0.3490 Y19.6859
G01 X0.3451 Y19.6075
G01 X0.3451 Y12.1141
G00 Z2.0000
G00 X31.7544 Y9.1141
G01 F60.00
G01 Z-0.5000
G01 F60.00
G01 X31.7544 Y1.0206
G01 X31.7505 Y0.9422
G01 X31.7390 Y0.8645
G01 X31.7200 Y0.7884
G01 X31.6935 Y0.7145
G01 X31.6599 Y0.6435
G01 X31.6196 Y0.5761
G01 X31.5728 Y0.5131
G01 X31.5201 Y0.4549
G01 X31.4619 Y0.4022
G01 X31.3989 Y0.3554
G01 X31.3315 Y0.3151
G01 X31.2605 Y0.2815
G01 X31.1866 Y0.2550
G01 X31.1105 Y0.2360
G01 X31.0328 Y0.2245
G01 X30.9544 Y0.2206
G00 X30.9544 Y0.2206
G01 F60.00
G01 Z-1.0000
G01 F60.00
G01 X31.0328 Y0.2245
G01 X31.1105 Y0.2360
G01 X31.1866 Y0.2550
G01 X31.2605 Y0.2815
G01 X31.3315 Y0.3151
G01 X31.3989 Y0.3554
G01 X31.4619 Y0.4022
G01 X31.5201 Y0.4549
G01 X31.5728 Y0.5131
G01 X31.6196 Y0.5761
G01 X31.6599 Y0.6435
G01 X31.6935 Y0.7145
G01 X31.7200 Y0.7884
G01 X31.7390 Y0.8645
G01 X31.7505 Y0.9422
G01 X31.7544 Y1.0206
G01 X31.7544 Y9.1141
G00 X31.7544 Y9.1141
G01 F60.00
G01 Z-1.5000
G01 F60.00
G01 X31.7544 Y1.0206
G01 X31.7505 Y0.9422
G01 X31.7390 Y0.8645
G01 X31.7200 Y0.7884
G01 X31.6935 Y0.7145
G01 X31.6599 Y0.6435
G01 X31.6196 Y0.5761
G01 X31.5728 Y0.5131
G01 X31.5201 Y0.4549
G01 X31.4619 Y0.4022
G01 X31.3989 Y0.3554
G01 X31.3315 Y0.3151
G01 X31.2605 Y0.2815
G01 X31.1866 Y0.2550
G01 X31.1105 Y0.2360
G01 X31.0328 Y0.2245
G01 X30.9544 Y0.2206
G00 X30.9544 Y0.2206
G01 F60.00
G01 Z-2.0000
G01 F60.00
G01 X31.0328 Y0.2245
G01 X31.1105 Y0.2360
G01 X31.1866 Y0.2550
G01 X31.2605 Y0.2815
G01 X31.3315 Y0.3151
G01 X31.3989 Y0.3554
G01 X31.4619 Y0.4022
G01 X31.5201 Y0.4549
G01 X31.5728 Y0.5131
G01 X31.6196 Y0.5761
G01 X31.6599 Y0.6435
G01 X31.6935 Y0.7145
G01 X31.7200 Y0.7884
G01 X31.7390 Y0.8645
G01 X31.7505 Y0.9422
G01 X31.7544 Y1.0206
G01 X31.7544 Y9.1141
G00 Z2.0000
M05
G00 Z2.0000
G00 Z2.00
G00 X0.0 Y0.0

