(G-CODE GENERATED BY FLATCAM v8.991 - www.flatcam.org - Version Date: 2019/12/27)

(Name: Drill_0.8)
(Type: G-code from Excellon)
(Units: MM)

(Created on Tuesday, 14 November 2023 at 08:51)

(Feedrate: 60.0 mm/min)
(Feedrate rapids 1500.0 mm/min)

(Z_Cut: -2.3 mm)
(Z_Move: 2.0 mm)
(Z Toolchange: 15.0 mm)
(X,Y Toolchange: 0.0000, 0.0000 mm)
(Z Start: None mm)
(Z End: 2.0 mm)
(Steps per circle: 64)
(Preprocessor Excellon: default)

(X range:    4.2545 ...   30.4030  mm)
(Y range:    2.8650 ...   18.1225  mm)

(Spindle Speed: 800.0 RPM)
G21
G90
G94




G01 F60.00
G00 Z2.0000

M03 S800.0
G00 X14.6675 Y13.2230
G01 Z-2.3000
G01 Z0
G00 Z2.0000
G00 X14.6675 Y16.7790
G01 Z-2.3000
G01 Z0
G00 Z2.0000
G00 X8.7145 Y9.2290
G01 Z-2.3000
G01 Z0
G00 Z2.0000
G00 X8.5505 Y6.4970
G01 Z-2.3000
G01 Z0
G00 Z2.0000
G00 X8.4515 Y3.5750
G01 Z-2.3000
G01 Z0
G00 Z2.0000
G00 X18.6115 Y3.5750
G01 Z-2.3000
G01 Z0
G00 Z2.0000
G00 X18.7105 Y6.4970
G01 Z-2.3000
G01 Z0
G00 Z2.0000
G00 X22.3765 Y7.1450
G01 Z-2.3000
G01 Z0
G00 Z2.0000
G00 X29.9965 Y7.1450
G01 Z-2.3000
G01 Z0
G00 Z2.0000
G00 X29.9965 Y9.6850
G01 Z-2.3000
G01 Z0
G00 Z2.0000
G00 X29.9965 Y12.2250
G01 Z-2.3000
G01 Z0
G00 Z2.0000
G00 X29.9965 Y14.7650
G01 Z-2.3000
G01 Z0
G00 Z2.0000
G00 X29.9835 Y17.7160
G01 Z-2.3000
G01 Z0
G00 Z2.0000
G00 X19.8235 Y17.7160
G01 Z-2.3000
G01 Z0
G00 Z2.0000
G00 X22.3765 Y14.7650
G01 Z-2.3000
G01 Z0
G00 Z2.0000
G00 X22.3765 Y12.2250
G01 Z-2.3000
G01 Z0
G00 Z2.0000
G00 X22.3765 Y9.6850
G01 Z-2.3000
G01 Z0
G00 Z2.0000
G00 X18.8745 Y9.2290
G01 Z-2.3000
G01 Z0
G00 Z2.0000
M05
G00 Z2.00
G00 X0.0 Y0.0

