(G-CODE GENERATED BY FLATCAM v8.991 - www.flatcam.org - Version Date: 2019/12/27)

(Name: Drill_1.0)
(Type: G-code from Excellon)
(Units: MM)

(Created on Tuesday, 14 November 2023 at 08:51)

(Feedrate: 60.0 mm/min)
(Feedrate rapids 1500.0 mm/min)

(Z_Cut: -2.3 mm)
(Z_Move: 2.0 mm)
(Z Toolchange: 15.0 mm)
(X,Y Toolchange: 0.0000, 0.0000 mm)
(Z Start: None mm)
(Z End: 2.0 mm)
(Steps per circle: 64)
(Preprocessor Excellon: default)

(X range:    4.2545 ...   30.4030  mm)
(Y range:    2.8650 ...   18.1225  mm)

(Spindle Speed: 800.0 RPM)
G21
G90
G94




G01 F60.00
G00 Z2.0000

M03 S800.0
G00 X4.7625 Y3.6180
G01 Z-2.3000
G01 Z0
G00 Z2.0000
G00 X4.7625 Y6.1580
G01 Z-2.3000
G01 Z0
G00 Z2.0000
G00 X5.1915 Y13.5800
G01 Z-2.3000
G01 Z0
G00 Z2.0000
G00 X5.1915 Y16.1200
G01 Z-2.3000
G01 Z0
G00 Z2.0000
G00 X29.5055 Y3.3730
G01 Z-2.3000
G01 Z0
G00 Z2.0000
G00 X26.9655 Y3.3730
G01 Z-2.3000
G01 Z0
G00 Z2.0000
G00 X24.4255 Y3.3730
G01 Z-2.3000
G01 Z0
G00 Z2.0000
M05
G00 Z2.00
G00 X0.0 Y0.0

