(G-CODE GENERATED BY FLATCAM v8.991 - www.flatcam.org - Version Date: 2019/12/27)

(Name: Pistas)
(Type: G-code from Geometry)
(Units: MM)

(Created on Tuesday, 14 November 2023 at 08:50)

(TOOL DIAMETER: 0.13 mm)
(Feedrate: 60.0 mm/min)
(Feedrate_Z: 800.0 mm/min)
(Feedrate rapids 1500.0 mm/min)

(Z_Cut: -0.0851 mm)
(Z_Move: 2.0 mm)
(Z Toolchange: 15.0 mm)
(X,Y Toolchange: 0.0000, 0.0000 mm)
(Z Start: None mm)
(Z End: 2.0 mm)
(Steps per circle: 64)
(Preprocessor Geometry: default)

(X range:    1.0801 ...   31.0194  mm)
(Y range:    0.9556 ...   19.6725  mm)

(Spindle Speed: None RPM)
G21
G90
G94




G01 F60.00
G00 Z2.0000

M03
G00 X1.0921 Y4.1098
G01 F800.00
G01 Z-0.0851
G01 F60.00
G01 X1.1004 Y3.9592
G01 X1.1019 Y3.9479
G01 X1.2649 Y3.2298
G01 X1.2675 Y3.2213
G01 X1.2697 Y3.2160
G01 X1.5895 Y2.5501
G01 X1.5926 Y2.5447
G01 X1.5963 Y2.5396
G01 X2.0548 Y1.9633
G01 X2.0597 Y1.9578
G01 X2.0651 Y1.9529
G01 X2.6404 Y1.4931
G01 X2.6464 Y1.4889
G01 X2.6528 Y1.4854
G01 X3.3160 Y1.1651
G01 X3.3227 Y1.1623
G01 X3.3297 Y1.1602
G01 X4.0530 Y0.9946
G01 X4.4267 Y0.9731
G01 X4.4395 Y0.9729
G01 X25.8748 Y0.9556
G01 X25.8808 Y0.9559
G01 X25.8868 Y0.9567
G01 X25.8927 Y0.9581
G01 X25.8984 Y0.9600
G01 X25.9043 Y0.9627
G01 X25.9099 Y0.9658
G01 X25.9151 Y0.9695
G01 X25.9199 Y0.9736
G01 X25.9243 Y0.9782
G01 X25.9283 Y0.9832
G01 X25.9317 Y0.9886
G01 X25.9346 Y0.9943
G01 X25.9369 Y1.0002
G01 X25.9386 Y1.0063
G01 X25.9397 Y1.0122
G01 X25.9403 Y1.0181
G01 X25.9403 Y1.0241
G01 X25.9397 Y1.0300
G01 X25.9386 Y1.0359
G01 X25.9369 Y1.0419
G01 X25.9347 Y1.0476
G01 X25.9320 Y1.0530
G01 X25.9289 Y1.0581
G01 X25.9252 Y1.0629
G01 X25.9212 Y1.0674
G01 X25.5666 Y1.4219
G01 X25.4912 Y1.6042
G01 X25.4885 Y1.6099
G01 X25.4852 Y1.6154
G01 X25.4814 Y1.6205
G01 X25.4771 Y1.6253
G01 X25.4722 Y1.6297
G01 X25.4670 Y1.6335
G01 X25.4616 Y1.6368
G01 X25.4558 Y1.6396
G01 X25.4498 Y1.6417
G01 X25.4436 Y1.6433
G01 X25.4373 Y1.6442
G01 X25.4309 Y1.6445
G01 X25.4244 Y1.6442
G01 X25.4184 Y1.6434
G01 X25.4126 Y1.6420
G01 X25.4069 Y1.6401
G01 X25.4014 Y1.6376
G01 X25.3957 Y1.6345
G01 X25.3906 Y1.6309
G01 X25.3859 Y1.6269
G01 X25.3815 Y1.6224
G01 X25.3776 Y1.6176
G01 X25.3446 Y1.5721
G01 X25.2106 Y1.4381
G01 X25.0572 Y1.3266
G01 X24.8883 Y1.2405
G01 X24.8078 Y1.2144
G01 X24.8106 Y1.2211
G01 X24.8222 Y1.2535
G01 X24.8241 Y1.2596
G01 X24.8324 Y1.2929
G01 X24.8337 Y1.2991
G01 X24.8387 Y1.3331
G01 X24.8402 Y1.3579
G01 X24.9329 Y1.4016
G01 X24.9385 Y1.4046
G01 X25.0241 Y1.4559
G01 X25.0294 Y1.4594
G01 X25.1095 Y1.5188
G01 X25.1144 Y1.5229
G01 X25.1884 Y1.5899
G01 X25.1929 Y1.5944
G01 X25.2599 Y1.6683
G01 X25.2639 Y1.6732
G01 X25.3233 Y1.7533
G01 X25.3269 Y1.7586
G01 X25.3782 Y1.8442
G01 X25.3812 Y1.8498
G01 X25.4238 Y1.9400
G01 X25.4263 Y1.9459
G01 X25.4599 Y2.0398
G01 X25.4617 Y2.0459
G01 X25.4860 Y2.1427
G01 X25.4872 Y2.1490
G01 X25.5018 Y2.2476
G01 X25.5025 Y2.2540
G01 X25.5074 Y2.3568
G01 X25.5074 Y4.3888
G01 X25.5025 Y4.4916
G01 X25.5018 Y4.4980
G01 X25.4872 Y4.5966
G01 X25.4860 Y4.6029
G01 X25.4617 Y4.6997
G01 X25.4599 Y4.7058
G01 X25.4263 Y4.7997
G01 X25.4238 Y4.8056
G01 X25.3812 Y4.8958
G01 X25.3782 Y4.9014
G01 X25.3269 Y4.9870
G01 X25.3233 Y4.9923
G01 X25.2639 Y5.0724
G01 X25.2599 Y5.0773
G01 X25.1929 Y5.1512
G01 X25.1884 Y5.1557
G01 X25.1144 Y5.2227
G01 X25.1095 Y5.2268
G01 X25.0294 Y5.2862
G01 X25.0241 Y5.2897
G01 X24.9385 Y5.3410
G01 X24.9329 Y5.3440
G01 X24.8411 Y5.3874
G01 X24.8411 Y5.5204
G01 X24.8883 Y5.5051
G01 X25.0572 Y5.4190
G01 X25.2106 Y5.3076
G01 X25.3446 Y5.1736
G01 X25.3812 Y5.1236
G01 X25.3852 Y5.1194
G01 X25.3895 Y5.1156
G01 X25.3945 Y5.1120
G01 X25.3999 Y5.1087
G01 X25.4057 Y5.1060
G01 X25.4117 Y5.1039
G01 X25.4179 Y5.1023
G01 X25.4242 Y5.1014
G01 X25.4306 Y5.1011
G01 X25.4370 Y5.1014
G01 X25.4433 Y5.1024
G01 X25.4501 Y5.1041
G01 X25.4563 Y5.1063
G01 X25.4622 Y5.1092
G01 X25.4678 Y5.1126
G01 X25.4730 Y5.1166
G01 X25.4778 Y5.1211
G01 X25.4821 Y5.1260
G01 X25.4859 Y5.1314
G01 X25.4893 Y5.1373
G01 X25.5666 Y5.3238
G01 X25.9622 Y5.7193
G01 X25.9665 Y5.7241
G01 X25.9703 Y5.7292
G01 X25.9738 Y5.7350
G01 X25.9765 Y5.7408
G01 X25.9786 Y5.7468
G01 X25.9802 Y5.7529
G01 X25.9811 Y5.7592
G01 X25.9814 Y5.7656
G01 X25.9814 Y6.1373
G01 X25.9811 Y6.1437
G01 X25.9802 Y6.1500
G01 X25.9786 Y6.1561
G01 X25.9765 Y6.1621
G01 X25.9738 Y6.1679
G01 X25.9703 Y6.1737
G01 X25.9665 Y6.1788
G01 X25.9622 Y6.1836
G01 X24.4861 Y7.6596
G01 X24.3362 Y8.0214
G01 X24.3362 Y12.3616
G01 X24.3357 Y12.3695
G01 X24.3342 Y12.3778
G01 X24.3325 Y12.3834
G01 X24.3303 Y12.3888
G01 X24.3277 Y12.3940
G01 X24.3246 Y12.3990
G01 X24.3210 Y12.4036
G01 X24.3171 Y12.4080
G01 X23.8752 Y12.8499
G01 X23.8707 Y12.8539
G01 X23.8659 Y12.8575
G01 X23.8608 Y12.8607
G01 X23.8554 Y12.8634
G01 X23.8495 Y12.8657
G01 X23.8428 Y12.8675
G01 X23.8359 Y12.8686
G01 X23.8289 Y12.8690
G01 X23.8226 Y12.8687
G01 X23.8166 Y12.8679
G01 X23.8108 Y12.8665
G01 X23.8051 Y12.8646
G01 X23.7994 Y12.8620
G01 X23.7936 Y12.8588
G01 X23.7883 Y12.8550
G01 X23.7833 Y12.8507
G01 X23.7788 Y12.8459
G01 X23.7748 Y12.8407
G01 X23.7714 Y12.8351
G01 X23.7685 Y12.8292
G01 X23.7663 Y12.8230
G01 X23.7647 Y12.8166
G01 X23.7636 Y12.8098
G01 X23.7633 Y12.8034
G01 X23.7636 Y12.7971
G01 X23.7646 Y12.7907
G01 X23.7661 Y12.7845
G01 X23.7683 Y12.7785
G01 X23.8742 Y12.5228
G01 X23.8742 Y11.9267
G01 X23.6462 Y11.3761
G01 X23.2711 Y11.0011
G01 X23.2668 Y10.9963
G01 X23.2630 Y10.9912
G01 X23.2597 Y10.9857
G01 X23.2570 Y10.9800
G01 X23.2548 Y10.9740
G01 X23.2533 Y10.9678
G01 X23.2523 Y10.9615
G01 X23.2520 Y10.9551
G01 X23.2523 Y10.9480
G01 X23.2533 Y10.9417
G01 X23.2548 Y10.9355
G01 X23.2570 Y10.9295
G01 X23.2597 Y10.9238
G01 X23.2630 Y10.9183
G01 X23.2668 Y10.9132
G01 X23.2711 Y10.9084
G01 X23.6462 Y10.5334
G01 X23.8742 Y9.9828
G01 X23.8742 Y9.3867
G01 X23.6462 Y8.8361
G01 X23.2711 Y8.4611
G01 X23.2668 Y8.4563
G01 X23.2630 Y8.4512
G01 X23.2597 Y8.4457
G01 X23.2570 Y8.4400
G01 X23.2548 Y8.4340
G01 X23.2533 Y8.4278
G01 X23.2523 Y8.4215
G01 X23.2520 Y8.4144
G01 X23.2523 Y8.4080
G01 X23.2533 Y8.4017
G01 X23.2548 Y8.3955
G01 X23.2570 Y8.3895
G01 X23.2597 Y8.3838
G01 X23.2630 Y8.3783
G01 X23.2668 Y8.3732
G01 X23.2711 Y8.3684
G01 X23.6462 Y7.9934
G01 X23.8742 Y7.4428
G01 X23.8742 Y6.8467
G01 X23.6462 Y6.2961
G01 X23.3799 Y6.0299
G01 X23.3752 Y6.0247
G01 X23.3711 Y6.0190
G01 X23.3677 Y6.0130
G01 X23.3650 Y6.0071
G01 X23.3631 Y6.0013
G01 X23.3617 Y5.9955
G01 X23.3609 Y5.9895
G01 X23.3606 Y5.9835
G01 X23.3606 Y5.6702
G01 X23.2107 Y5.3083
G01 X20.6426 Y2.7402
G01 X20.2808 Y2.5903
G01 X19.7728 Y2.5903
G01 X19.7659 Y2.5899
G01 X19.7590 Y2.5888
G01 X19.7523 Y2.5870
G01 X19.7463 Y2.5847
G01 X19.7410 Y2.5820
G01 X19.7358 Y2.5788
G01 X19.7310 Y2.5752
G01 X19.7266 Y2.5712
G01 X19.2321 Y2.0767
G01 X17.9910 Y2.0767
G01 X17.1134 Y2.9543
G01 X17.1134 Y4.1954
G01 X17.9571 Y5.0389
G01 X17.9614 Y5.0437
G01 X17.9652 Y5.0488
G01 X17.9684 Y5.0543
G01 X17.9712 Y5.0600
G01 X17.9733 Y5.0660
G01 X17.9749 Y5.0722
G01 X17.9758 Y5.0785
G01 X17.9761 Y5.0856
G01 X17.9758 Y5.0920
G01 X17.9749 Y5.0983
G01 X17.9733 Y5.1045
G01 X17.9712 Y5.1105
G01 X17.9684 Y5.1162
G01 X17.9652 Y5.1217
G01 X17.9614 Y5.1268
G01 X17.9571 Y5.1316
G01 X17.5951 Y5.4936
G01 X17.5903 Y5.4979
G01 X17.5852 Y5.5017
G01 X17.5794 Y5.5052
G01 X17.5737 Y5.5079
G01 X17.5677 Y5.5100
G01 X17.5615 Y5.5116
G01 X17.5552 Y5.5125
G01 X17.5488 Y5.5128
G01 X15.7964 Y5.5128
G01 X15.7904 Y5.5125
G01 X15.7844 Y5.5117
G01 X15.7786 Y5.5103
G01 X15.7729 Y5.5084
G01 X15.7674 Y5.5059
G01 X15.7609 Y5.5023
G01 X15.7552 Y5.4982
G01 X15.7501 Y5.4936
G01 X12.9966 Y2.7402
G01 X12.6348 Y2.5903
G01 X9.6128 Y2.5903
G01 X9.6059 Y2.5899
G01 X9.5990 Y2.5888
G01 X9.5923 Y2.5870
G01 X9.5863 Y2.5847
G01 X9.5810 Y2.5820
G01 X9.5758 Y2.5788
G01 X9.5710 Y2.5752
G01 X9.5666 Y2.5712
G01 X9.0721 Y2.0767
G01 X7.8310 Y2.0767
G01 X7.3366 Y2.5712
G01 X7.3321 Y2.5752
G01 X7.3273 Y2.5788
G01 X7.3222 Y2.5820
G01 X7.3168 Y2.5847
G01 X7.3109 Y2.5870
G01 X7.3042 Y2.5888
G01 X7.2973 Y2.5899
G01 X7.2903 Y2.5903
G01 X7.1118 Y2.5903
G01 X7.1039 Y2.5898
G01 X7.0961 Y2.5884
G01 X7.0901 Y2.5866
G01 X7.0846 Y2.5844
G01 X7.0794 Y2.5818
G01 X7.0744 Y2.5787
G01 X7.0698 Y2.5751
G01 X7.0655 Y2.5712
G01 X6.7134 Y2.2191
G01 X6.1068 Y1.9678
G01 X3.4182 Y1.9678
G01 X2.8115 Y2.2191
G01 X2.3472 Y2.6834
G01 X2.0959 Y3.2900
G01 X2.0959 Y3.9467
G01 X2.3472 Y4.5533
G01 X2.8115 Y5.0176
G01 X2.9938 Y5.0930
G01 X2.9996 Y5.0958
G01 X3.0050 Y5.0991
G01 X3.0102 Y5.1029
G01 X3.0149 Y5.1071
G01 X3.0191 Y5.1118
G01 X3.0228 Y5.1166
G01 X3.0259 Y5.1217
G01 X3.0286 Y5.1271
G01 X3.0309 Y5.1330
G01 X3.0326 Y5.1392
G01 X3.0337 Y5.1455
G01 X3.0342 Y5.1518
G01 X3.0341 Y5.1582
G01 X3.0333 Y5.1645
G01 X3.0319 Y5.1708
G01 X3.0299 Y5.1768
G01 X3.0272 Y5.1831
G01 X3.0241 Y5.1885
G01 X3.0206 Y5.1936
G01 X3.0165 Y5.1984
G01 X3.0121 Y5.2027
G01 X3.0072 Y5.2066
G01 X2.9618 Y5.2396
G01 X2.8277 Y5.3737
G01 X2.7162 Y5.5270
G01 X2.6302 Y5.6959
G01 X2.6148 Y5.7431
G01 X2.7479 Y5.7431
G01 X2.7912 Y5.6513
G01 X2.7942 Y5.6457
G01 X2.8455 Y5.5601
G01 X2.8490 Y5.5548
G01 X2.9084 Y5.4747
G01 X2.9125 Y5.4698
G01 X2.9795 Y5.3959
G01 X2.9840 Y5.3914
G01 X3.0579 Y5.3244
G01 X3.0628 Y5.3203
G01 X3.1430 Y5.2609
G01 X3.1483 Y5.2574
G01 X3.2338 Y5.2061
G01 X3.2395 Y5.2031
G01 X3.3296 Y5.1604
G01 X3.3355 Y5.1580
G01 X3.4295 Y5.1244
G01 X3.4356 Y5.1225
G01 X3.5323 Y5.0983
G01 X3.5386 Y5.0970
G01 X3.6373 Y5.0824
G01 X3.6436 Y5.0818
G01 X3.7464 Y5.0768
G01 X5.7784 Y5.0768
G01 X5.8812 Y5.0818
G01 X5.8876 Y5.0824
G01 X5.9863 Y5.0970
G01 X5.9925 Y5.0983
G01 X6.0893 Y5.1225
G01 X6.0954 Y5.1244
G01 X6.1893 Y5.1580
G01 X6.1952 Y5.1604
G01 X6.2854 Y5.2031
G01 X6.2910 Y5.2061
G01 X6.3766 Y5.2574
G01 X6.3819 Y5.2609
G01 X6.4620 Y5.3203
G01 X6.4669 Y5.3244
G01 X6.5409 Y5.3914
G01 X6.5454 Y5.3959
G01 X6.6124 Y5.4698
G01 X6.6164 Y5.4747
G01 X6.6758 Y5.5548
G01 X6.6794 Y5.5601
G01 X6.7307 Y5.6457
G01 X6.7337 Y5.6513
G01 X6.7770 Y5.7431
G01 X6.9033 Y5.7431
G01 X6.9091 Y5.7404
G01 X6.8947 Y5.6960
G01 X6.8086 Y5.5270
G01 X6.6972 Y5.3736
G01 X6.5632 Y5.2396
G01 X6.5177 Y5.2066
G01 X6.5132 Y5.2030
G01 X6.5091 Y5.1990
G01 X6.5052 Y5.1947
G01 X6.5016 Y5.1897
G01 X6.4984 Y5.1843
G01 X6.4957 Y5.1785
G01 X6.4935 Y5.1725
G01 X6.4920 Y5.1664
G01 X6.4910 Y5.1601
G01 X6.4907 Y5.1535
G01 X6.4911 Y5.1465
G01 X6.4922 Y5.1397
G01 X6.4941 Y5.1329
G01 X6.4965 Y5.1267
G01 X6.4994 Y5.1210
G01 X6.5028 Y5.1156
G01 X6.5067 Y5.1106
G01 X6.5111 Y5.1060
G01 X6.5160 Y5.1019
G01 X6.5212 Y5.0982
G01 X6.5267 Y5.0951
G01 X6.7134 Y5.0176
G01 X7.1525 Y4.5785
G01 X7.1572 Y4.5742
G01 X7.1624 Y4.5704
G01 X7.1681 Y4.5669
G01 X7.1739 Y4.5642
G01 X7.1799 Y4.5621
G01 X7.1861 Y4.5605
G01 X7.1924 Y4.5596
G01 X7.1987 Y4.5593
G01 X7.2903 Y4.5593
G01 X7.2967 Y4.5596
G01 X7.3030 Y4.5605
G01 X7.3092 Y4.5621
G01 X7.3152 Y4.5642
G01 X7.3209 Y4.5669
G01 X7.3264 Y4.5702
G01 X7.3318 Y4.5742
G01 X7.3366 Y4.5785
G01 X7.8310 Y5.0729
G01 X9.0721 Y5.0729
G01 X9.5666 Y4.5785
G01 X9.5713 Y4.5742
G01 X9.5765 Y4.5704
G01 X9.5822 Y4.5669
G01 X9.5880 Y4.5642
G01 X9.5940 Y4.5621
G01 X9.6002 Y4.5605
G01 X9.6065 Y4.5596
G01 X9.6128 Y4.5593
G01 X12.0040 Y4.5593
G01 X12.0100 Y4.5596
G01 X12.0160 Y4.5604
G01 X12.0219 Y4.5618
G01 X12.0276 Y4.5637
G01 X12.0331 Y4.5662
G01 X12.0396 Y4.5698
G01 X12.0452 Y4.5739
G01 X12.0504 Y4.5785
G01 X14.8037 Y7.3320
G01 X15.1656 Y7.4818
G01 X17.5488 Y7.4818
G01 X17.5552 Y7.4821
G01 X17.5615 Y7.4830
G01 X17.5677 Y7.4846
G01 X17.5737 Y7.4867
G01 X17.5794 Y7.4894
G01 X17.5852 Y7.4929
G01 X17.5903 Y7.4967
G01 X17.5951 Y7.5010
G01 X18.0895 Y7.9954
G01 X18.9913 Y7.9954
G01 X18.9977 Y7.9957
G01 X19.0040 Y7.9966
G01 X19.0102 Y7.9982
G01 X19.0162 Y8.0003
G01 X19.0219 Y8.0030
G01 X19.0274 Y8.0063
G01 X19.0328 Y8.0103
G01 X19.0375 Y8.0146
G01 X19.0876 Y8.0646
G01 X19.0916 Y8.0689
G01 X19.0952 Y8.0736
G01 X19.0983 Y8.0785
G01 X19.1009 Y8.0838
G01 X19.1031 Y8.0892
G01 X19.1049 Y8.0952
G01 X19.1062 Y8.1017
G01 X19.1068 Y8.1082
G01 X19.1067 Y8.1148
G01 X19.1060 Y8.1214
G01 X19.1046 Y8.1278
G01 X19.1026 Y8.1340
G01 X19.0998 Y8.1405
G01 X19.0966 Y8.1460
G01 X19.0930 Y8.1512
G01 X19.0888 Y8.1561
G01 X19.0842 Y8.1605
G01 X19.0792 Y8.1644
G01 X19.0738 Y8.1679
G01 X19.0681 Y8.1707
G01 X19.0619 Y8.1732
G01 X19.0552 Y8.1750
G01 X19.0483 Y8.1761
G01 X19.0413 Y8.1765
G01 X18.9404 Y8.1765
G01 X18.9404 Y8.3000
G01 X19.2326 Y8.3000
G01 X19.2390 Y8.3003
G01 X19.2453 Y8.3013
G01 X19.2515 Y8.3028
G01 X19.2575 Y8.3049
G01 X19.2633 Y8.3077
G01 X19.2688 Y8.3110
G01 X19.2739 Y8.3148
G01 X19.2786 Y8.3190
G01 X19.7845 Y8.8249
G01 X19.7888 Y8.8297
G01 X19.7919 Y8.8338
G01 X19.8199 Y8.8439
G01 X19.8258 Y8.8463
G01 X19.8569 Y8.8610
G01 X19.8625 Y8.8640
G01 X19.8920 Y8.8817
G01 X19.8973 Y8.8852
G01 X19.9249 Y8.9057
G01 X19.9298 Y8.9097
G01 X19.9576 Y8.9350
G01 X20.0340 Y9.0114
G01 X20.0389 Y9.0158
G01 X20.8588 Y9.8358
G01 X20.8631 Y9.8406
G01 X20.8669 Y9.8457
G01 X20.8704 Y9.8515
G01 X20.8731 Y9.8573
G01 X20.8752 Y9.8633
G01 X20.8768 Y9.8694
G01 X20.8777 Y9.8757
G01 X20.8780 Y9.8821
G01 X20.8780 Y9.9828
G01 X21.1061 Y10.5334
G01 X21.4812 Y10.9084
G01 X21.4855 Y10.9132
G01 X21.4893 Y10.9183
G01 X21.4925 Y10.9238
G01 X21.4953 Y10.9295
G01 X21.4974 Y10.9355
G01 X21.4990 Y10.9417
G01 X21.4999 Y10.9480
G01 X21.5002 Y10.9551
G01 X21.4999 Y10.9615
G01 X21.4990 Y10.9678
G01 X21.4974 Y10.9740
G01 X21.4953 Y10.9800
G01 X21.4925 Y10.9857
G01 X21.4893 Y10.9912
G01 X21.4855 Y10.9963
G01 X21.4812 Y11.0011
G01 X21.2612 Y11.2211
G01 X21.2560 Y11.2257
G01 X21.2504 Y11.2298
G01 X21.2439 Y11.2334
G01 X21.2384 Y11.2359
G01 X21.2327 Y11.2378
G01 X21.2268 Y11.2392
G01 X21.2208 Y11.2400
G01 X21.2148 Y11.2403
G01 X19.4259 Y11.2403
G01 X19.0640 Y11.3901
G01 X18.2128 Y12.2415
G01 X18.2085 Y12.2454
G01 X18.2038 Y12.2490
G01 X18.1989 Y12.2521
G01 X18.1936 Y12.2547
G01 X18.1882 Y12.2569
G01 X18.1826 Y12.2586
G01 X18.1744 Y12.2601
G01 X18.1664 Y12.2606
G01 X15.8507 Y12.2606
G01 X15.8428 Y12.2601
G01 X15.8346 Y12.2586
G01 X15.8290 Y12.2569
G01 X15.8235 Y12.2547
G01 X15.8183 Y12.2521
G01 X15.8133 Y12.2490
G01 X15.8087 Y12.2454
G01 X15.8044 Y12.2415
G01 X15.2879 Y11.7250
G01 X14.0468 Y11.7250
G01 X13.5524 Y12.2194
G01 X13.5476 Y12.2237
G01 X13.5425 Y12.2275
G01 X13.5367 Y12.2310
G01 X13.5310 Y12.2337
G01 X13.5250 Y12.2358
G01 X13.5188 Y12.2374
G01 X13.5125 Y12.2383
G01 X13.5061 Y12.2386
G01 X11.4473 Y12.2386
G01 X11.4410 Y12.2383
G01 X11.4347 Y12.2374
G01 X11.4285 Y12.2358
G01 X11.4225 Y12.2337
G01 X11.4167 Y12.2310
G01 X11.4110 Y12.2275
G01 X11.4058 Y12.2237
G01 X11.4011 Y12.2194
G01 X9.7186 Y10.5370
G01 X9.7145 Y10.5325
G01 X9.7109 Y10.5277
G01 X9.7077 Y10.5226
G01 X9.7050 Y10.5172
G01 X9.7028 Y10.5113
G01 X9.7009 Y10.5045
G01 X9.6998 Y10.4977
G01 X9.6994 Y10.4907
G01 X9.6994 Y10.3899
G01 X9.6999 Y10.3820
G01 X9.7014 Y10.3741
G01 X9.7031 Y10.3681
G01 X9.7053 Y10.3627
G01 X9.7080 Y10.3575
G01 X9.7111 Y10.3525
G01 X9.7146 Y10.3479
G01 X9.7186 Y10.3435
G01 X10.2130 Y9.8491
G01 X10.2130 Y8.6080
G01 X9.3354 Y7.7305
G01 X8.0943 Y7.7305
G01 X7.2168 Y8.6080
G01 X7.2168 Y9.8491
G01 X7.7112 Y10.3435
G01 X7.7158 Y10.3487
G01 X7.7199 Y10.3544
G01 X7.7234 Y10.3604
G01 X7.7260 Y10.3663
G01 X7.7279 Y10.3721
G01 X7.7293 Y10.3779
G01 X7.7301 Y10.3839
G01 X7.7304 Y10.3899
G01 X7.7304 Y11.1215
G01 X7.8802 Y11.4833
G01 X10.4547 Y14.0577
G01 X10.8166 Y14.2076
G01 X13.5061 Y14.2076
G01 X13.5131 Y14.2080
G01 X13.5200 Y14.2091
G01 X13.5267 Y14.2109
G01 X13.5326 Y14.2132
G01 X13.5380 Y14.2159
G01 X13.5431 Y14.2191
G01 X13.5479 Y14.2227
G01 X13.5524 Y14.2267
G01 X14.0468 Y14.7212
G01 X15.2879 Y14.7212
G01 X15.7603 Y14.2488
G01 X15.7646 Y14.2449
G01 X15.7692 Y14.2413
G01 X15.7742 Y14.2382
G01 X15.7794 Y14.2356
G01 X15.7849 Y14.2334
G01 X15.7905 Y14.2317
G01 X15.7987 Y14.2302
G01 X15.8066 Y14.2297
G01 X18.7972 Y14.2297
G01 X19.1591 Y14.0798
G01 X20.0104 Y13.2284
G01 X20.0147 Y13.2245
G01 X20.0193 Y13.2209
G01 X20.0243 Y13.2178
G01 X20.0295 Y13.2152
G01 X20.0350 Y13.2130
G01 X20.0410 Y13.2112
G01 X20.0488 Y13.2098
G01 X20.0567 Y13.2093
G01 X21.2148 Y13.2093
G01 X21.2228 Y13.2098
G01 X21.2306 Y13.2112
G01 X21.2366 Y13.2130
G01 X21.2420 Y13.2152
G01 X21.2473 Y13.2178
G01 X21.2522 Y13.2209
G01 X21.2569 Y13.2245
G01 X21.2612 Y13.2284
G01 X21.4812 Y13.4484
G01 X21.4855 Y13.4532
G01 X21.4893 Y13.4583
G01 X21.4925 Y13.4638
G01 X21.4953 Y13.4695
G01 X21.4974 Y13.4755
G01 X21.4990 Y13.4817
G01 X21.4999 Y13.4880
G01 X21.5002 Y13.4944
G01 X21.4999 Y13.5015
G01 X21.4990 Y13.5078
G01 X21.4974 Y13.5140
G01 X21.4953 Y13.5200
G01 X21.4925 Y13.5257
G01 X21.4893 Y13.5312
G01 X21.4855 Y13.5363
G01 X21.4812 Y13.5411
G01 X21.1061 Y13.9161
G01 X20.8780 Y14.4667
G01 X20.8780 Y15.0628
G01 X21.1061 Y15.6134
G01 X21.5275 Y16.0348
G01 X22.0782 Y16.2629
G01 X22.6741 Y16.2629
G01 X23.2247 Y16.0348
G01 X23.4911 Y15.7684
G01 X23.4954 Y15.7645
G01 X23.5000 Y15.7609
G01 X23.5050 Y15.7578
G01 X23.5102 Y15.7552
G01 X23.5157 Y15.7530
G01 X23.5217 Y15.7512
G01 X23.5295 Y15.7498
G01 X23.5374 Y15.7493
G01 X23.5484 Y15.7493
G01 X23.9103 Y15.5994
G01 X26.1554 Y13.3543
G01 X26.3053 Y12.9924
G01 X26.3053 Y8.6522
G01 X26.3057 Y8.6452
G01 X26.3068 Y8.6384
G01 X26.3088 Y8.6313
G01 X26.3109 Y8.6257
G01 X26.3136 Y8.6203
G01 X26.3168 Y8.6152
G01 X26.3204 Y8.6104
G01 X26.3245 Y8.6059
G01 X27.8005 Y7.1299
G01 X27.9504 Y6.7681
G01 X27.9504 Y5.7656
G01 X27.9508 Y5.7586
G01 X27.9519 Y5.7518
G01 X27.9538 Y5.7450
G01 X27.9560 Y5.7391
G01 X27.9587 Y5.7337
G01 X27.9619 Y5.7286
G01 X27.9655 Y5.7238
G01 X27.9696 Y5.7193
G01 X28.1896 Y5.4993
G01 X28.1943 Y5.4951
G01 X28.1994 Y5.4913
G01 X28.2049 Y5.4880
G01 X28.2107 Y5.4852
G01 X28.2167 Y5.4831
G01 X28.2228 Y5.4815
G01 X28.2292 Y5.4806
G01 X28.2362 Y5.4803
G01 X28.2426 Y5.4806
G01 X28.2489 Y5.4815
G01 X28.2551 Y5.4831
G01 X28.2611 Y5.4852
G01 X28.2669 Y5.4880
G01 X28.2723 Y5.4913
G01 X28.2775 Y5.4951
G01 X28.2822 Y5.4993
G01 X28.5709 Y5.7881
G01 X28.9511 Y5.9456
G01 X28.9567 Y5.9484
G01 X28.9620 Y5.9517
G01 X28.9669 Y5.9555
G01 X28.9715 Y5.9598
G01 X28.9756 Y5.9645
G01 X28.9792 Y5.9696
G01 X28.9824 Y5.9750
G01 X28.9850 Y5.9806
G01 X28.9870 Y5.9865
G01 X28.9885 Y5.9926
G01 X28.9894 Y5.9988
G01 X28.9897 Y6.0050
G01 X28.9894 Y6.0120
G01 X28.9885 Y6.0183
G01 X28.9869 Y6.0245
G01 X28.9848 Y6.0305
G01 X28.9821 Y6.0362
G01 X28.9788 Y6.0417
G01 X28.9750 Y6.0468
G01 X28.9707 Y6.0515
G01 X28.7261 Y6.2961
G01 X28.6344 Y6.5177
G01 X28.6317 Y6.5234
G01 X28.6284 Y6.5289
G01 X28.6246 Y6.5340
G01 X28.6203 Y6.5388
G01 X26.8513 Y8.3077
G01 X26.7014 Y8.6695
G01 X26.7014 Y16.1242
G01 X26.8513 Y16.4860
G01 X28.4667 Y18.1013
G01 X28.4706 Y18.1057
G01 X28.4742 Y18.1103
G01 X28.4773 Y18.1153
G01 X28.4799 Y18.1205
G01 X28.4821 Y18.1259
G01 X28.4838 Y18.1315
G01 X28.4853 Y18.1398
G01 X28.4858 Y18.1477
G01 X28.4858 Y18.3369
G01 X29.3634 Y19.2145
G01 X30.5738 Y19.2145
G01 X30.5798 Y19.2148
G01 X30.5858 Y19.2156
G01 X30.5917 Y19.2170
G01 X30.5974 Y19.2189
G01 X30.6033 Y19.2216
G01 X30.6089 Y19.2247
G01 X30.6141 Y19.2284
G01 X30.6189 Y19.2325
G01 X30.6233 Y19.2371
G01 X30.6273 Y19.2421
G01 X30.6307 Y19.2475
G01 X30.6336 Y19.2532
G01 X30.6360 Y19.2594
G01 X30.6377 Y19.2656
G01 X30.6388 Y19.2719
G01 X30.6393 Y19.2782
G01 X30.6392 Y19.2846
G01 X30.6384 Y19.2909
G01 X30.6370 Y19.2972
G01 X30.6350 Y19.3032
G01 X30.6323 Y19.3095
G01 X30.6292 Y19.3149
G01 X30.6257 Y19.3200
G01 X30.6217 Y19.3247
G01 X30.6172 Y19.3290
G01 X30.6124 Y19.3329
G01 X30.3984 Y19.4888
G01 X30.3927 Y19.4926
G01 X30.3866 Y19.4957
G01 X30.3803 Y19.4981
G01 X29.9715 Y19.6314
G01 X29.9641 Y19.6333
G01 X29.9565 Y19.6344
G01 X29.7362 Y19.6518
G01 X4.2040 Y19.6725
G01 X3.8016 Y19.6466
G01 X3.7960 Y19.6458
G01 X3.0242 Y19.4400
G01 X3.0144 Y19.4366
G01 X3.0084 Y19.4335
G01 X2.3229 Y19.0386
G01 X2.3175 Y19.0354
G01 X2.3123 Y19.0316
G01 X2.3076 Y19.0273
G01 X1.7461 Y18.4671
G01 X1.7421 Y18.4628
G01 X1.7387 Y18.4583
G01 X1.3384 Y17.7672
G01 X1.3339 Y17.7578
G01 X1.3318 Y17.7514
G01 X1.1255 Y16.9858
G01 X1.1241 Y16.9794
G01 X1.1234 Y16.9729
G01 X1.0967 Y16.5721
G01 X1.0801 Y4.3330
G01 X1.0921 Y4.1098
G00 Z2.0000
G00 X2.6148 Y6.5735
G01 F800.00
G01 Z-0.0851
G01 F60.00
G01 X2.7479 Y6.5735
G01 X2.7912 Y6.6653
G01 X2.7942 Y6.6709
G01 X2.8455 Y6.7565
G01 X2.8490 Y6.7618
G01 X2.9084 Y6.8419
G01 X2.9125 Y6.8468
G01 X2.9795 Y6.9207
G01 X2.9840 Y6.9252
G01 X3.0579 Y6.9922
G01 X3.0628 Y6.9963
G01 X3.1430 Y7.0557
G01 X3.1483 Y7.0592
G01 X3.2338 Y7.1105
G01 X3.2395 Y7.1135
G01 X3.3296 Y7.1562
G01 X3.3355 Y7.1586
G01 X3.4295 Y7.1922
G01 X3.4356 Y7.1941
G01 X3.5323 Y7.2183
G01 X3.5386 Y7.2196
G01 X3.6373 Y7.2342
G01 X3.6436 Y7.2348
G01 X3.7464 Y7.2398
G01 X4.3472 Y7.2398
G01 X4.3472 Y7.3628
G01 X3.6516 Y7.3628
G01 X3.4644 Y7.3332
G01 X3.2841 Y7.2746
G01 X3.1152 Y7.1885
G01 X2.9618 Y7.0770
G01 X2.8277 Y6.9429
G01 X2.7162 Y6.7896
G01 X2.6302 Y6.6207
G01 X2.6148 Y6.5735
G00 Z2.0000
G00 X5.1776 Y7.3628
G01 F800.00
G01 Z-0.0851
G01 F60.00
G01 X5.1776 Y7.2398
G01 X5.7784 Y7.2398
G01 X5.8812 Y7.2348
G01 X5.8876 Y7.2342
G01 X5.9863 Y7.2196
G01 X5.9925 Y7.2183
G01 X6.0893 Y7.1941
G01 X6.0954 Y7.1922
G01 X6.1893 Y7.1586
G01 X6.1952 Y7.1562
G01 X6.2854 Y7.1135
G01 X6.2910 Y7.1105
G01 X6.3766 Y7.0592
G01 X6.3819 Y7.0557
G01 X6.4620 Y6.9963
G01 X6.4669 Y6.9922
G01 X6.5409 Y6.9252
G01 X6.5454 Y6.9207
G01 X6.6124 Y6.8468
G01 X6.6164 Y6.8419
G01 X6.6758 Y6.7618
G01 X6.6794 Y6.7565
G01 X6.7307 Y6.6709
G01 X6.7337 Y6.6653
G01 X6.7770 Y6.5735
G01 X6.8651 Y6.5735
G01 X6.8990 Y6.6074
G01 X6.8947 Y6.6206
G01 X6.8086 Y6.7896
G01 X6.6972 Y6.9430
G01 X6.5632 Y7.0770
G01 X6.4098 Y7.1885
G01 X6.2409 Y7.2746
G01 X6.0605 Y7.3332
G01 X5.8732 Y7.3628
G01 X5.1776 Y7.3628
G00 Z2.0000
G00 X7.4979 Y6.9125
G01 F800.00
G01 Z-0.0851
G01 F60.00
G01 X7.6520 Y6.9125
G01 X8.1433 Y7.4038
G01 X8.1505 Y7.4324
G01 X8.1523 Y7.4385
G01 X8.1639 Y7.4709
G01 X8.1663 Y7.4768
G01 X8.1810 Y7.5079
G01 X8.1840 Y7.5135
G01 X8.2017 Y7.5430
G01 X8.2061 Y7.5494
G01 X8.1142 Y7.5494
G01 X7.4979 Y6.9331
G01 X7.4979 Y6.9125
G00 Z2.0000
G00 X7.5127 Y6.0468
G01 F800.00
G01 Z-0.0851
G01 F60.00
G01 X8.0706 Y5.4889
G01 X8.0693 Y5.5150
G01 X8.0693 Y5.6647
G01 X7.6520 Y6.0821
G01 X7.5480 Y6.0821
G01 X7.5127 Y6.0468
G00 Z2.0000
G00 X8.8935 Y5.4452
G01 F800.00
G01 Z-0.0851
G01 F60.00
G01 X8.9858 Y5.4452
G01 X9.6021 Y6.0615
G01 X9.6021 Y6.0821
G01 X9.4481 Y6.0821
G01 X8.9537 Y5.5877
G01 X8.9490 Y5.5835
G01 X8.9439 Y5.5797
G01 X8.9384 Y5.5764
G01 X8.9326 Y5.5736
G01 X8.9266 Y5.5715
G01 X8.9204 Y5.5700
G01 X8.9141 Y5.5690
G01 X8.8997 Y5.5687
G01 X8.8997 Y5.5150
G01 X8.8979 Y5.4775
G01 X8.8973 Y5.4711
G01 X8.8935 Y5.4452
G00 Z2.0000
G00 X8.8915 Y7.5494
G01 F800.00
G01 Z-0.0851
G01 F60.00
G01 X8.8969 Y7.5416
G01 X8.9146 Y7.5121
G01 X8.9176 Y7.5065
G01 X8.9323 Y7.4754
G01 X8.9347 Y7.4695
G01 X8.9463 Y7.4371
G01 X8.9482 Y7.4310
G01 X8.9544 Y7.4062
G01 X9.4481 Y6.9125
G01 X9.6021 Y6.9125
G01 X9.6021 Y6.9331
G01 X8.9858 Y7.5494
G01 X8.8915 Y7.5494
G00 Z2.0000
G00 X8.2997 Y10.1267
G01 F800.00
G01 Z-0.0851
G01 F60.00
G01 X7.8054 Y9.6323
G01 X7.8011 Y9.6275
G01 X7.7973 Y9.6224
G01 X7.7940 Y9.6170
G01 X7.7913 Y9.6112
G01 X7.7891 Y9.6052
G01 X7.7876 Y9.5990
G01 X7.7866 Y9.5927
G01 X7.7863 Y9.5863
G01 X7.7863 Y8.8709
G01 X7.7866 Y8.8645
G01 X7.7876 Y8.8582
G01 X7.7891 Y8.8520
G01 X7.7913 Y8.8460
G01 X7.7940 Y8.8402
G01 X7.7973 Y8.8348
G01 X7.8011 Y8.8297
G01 X7.8054 Y8.8249
G01 X8.3112 Y8.3190
G01 X8.3160 Y8.3148
G01 X8.3211 Y8.3110
G01 X8.3266 Y8.3077
G01 X8.3323 Y8.3049
G01 X8.3383 Y8.3028
G01 X8.3445 Y8.3013
G01 X8.3508 Y8.3003
G01 X8.3572 Y8.3000
G01 X9.0726 Y8.3000
G01 X9.0790 Y8.3003
G01 X9.0853 Y8.3013
G01 X9.0915 Y8.3028
G01 X9.0975 Y8.3049
G01 X9.1033 Y8.3077
G01 X9.1088 Y8.3110
G01 X9.1139 Y8.3148
G01 X9.1186 Y8.3190
G01 X9.6245 Y8.8249
G01 X9.6288 Y8.8297
G01 X9.6326 Y8.8348
G01 X9.6358 Y8.8402
G01 X9.6386 Y8.8460
G01 X9.6407 Y8.8520
G01 X9.6423 Y8.8582
G01 X9.6432 Y8.8645
G01 X9.6435 Y8.8709
G01 X9.6435 Y9.5863
G01 X9.6432 Y9.5927
G01 X9.6423 Y9.5990
G01 X9.6407 Y9.6052
G01 X9.6386 Y9.6112
G01 X9.6358 Y9.6170
G01 X9.6326 Y9.6224
G01 X9.6288 Y9.6275
G01 X9.6245 Y9.6323
G01 X9.1301 Y10.1267
G01 X9.1301 Y10.7536
G01 X11.1844 Y12.8079
G01 X13.7694 Y12.8079
G01 X14.2637 Y12.3135
G01 X14.2685 Y12.3093
G01 X14.2736 Y12.3055
G01 X14.2791 Y12.3022
G01 X14.2848 Y12.2994
G01 X14.2908 Y12.2973
G01 X14.2970 Y12.2958
G01 X14.3033 Y12.2948
G01 X14.3097 Y12.2945
G01 X15.0251 Y12.2945
G01 X15.0315 Y12.2948
G01 X15.0378 Y12.2958
G01 X15.0440 Y12.2973
G01 X15.0500 Y12.2994
G01 X15.0558 Y12.3022
G01 X15.0613 Y12.3055
G01 X15.0664 Y12.3093
G01 X15.0711 Y12.3135
G01 X15.5770 Y12.8194
G01 X15.5813 Y12.8242
G01 X15.5855 Y12.8299
G01 X18.4295 Y12.8299
G01 X19.3282 Y11.9312
G01 X19.3559 Y11.9059
G01 X19.3609 Y11.9019
G01 X19.3885 Y11.8814
G01 X19.3938 Y11.8779
G01 X19.4232 Y11.8602
G01 X19.4289 Y11.8572
G01 X19.4599 Y11.8425
G01 X19.4658 Y11.8401
G01 X19.4982 Y11.8285
G01 X19.5043 Y11.8267
G01 X19.5376 Y11.8183
G01 X19.5439 Y11.8171
G01 X19.5779 Y11.8120
G01 X19.5842 Y11.8114
G01 X19.6217 Y11.8096
G01 X21.5464 Y11.8096
G01 X21.5587 Y11.7843
G01 X21.6023 Y11.7116
G01 X21.6059 Y11.7063
G01 X21.6563 Y11.6382
G01 X21.6604 Y11.6333
G01 X21.7173 Y11.5705
G01 X21.7218 Y11.5660
G01 X21.7846 Y11.5091
G01 X21.7895 Y11.5050
G01 X21.8576 Y11.4545
G01 X21.8629 Y11.4510
G01 X21.9356 Y11.4074
G01 X21.9412 Y11.4044
G01 X22.0178 Y11.3682
G01 X22.0237 Y11.3657
G01 X22.1035 Y11.3372
G01 X22.1096 Y11.3353
G01 X22.1919 Y11.3147
G01 X22.1981 Y11.3135
G01 X22.2819 Y11.3011
G01 X22.2883 Y11.3004
G01 X22.3729 Y11.2963
G01 X22.3793 Y11.2963
G01 X22.4640 Y11.3004
G01 X22.4703 Y11.3011
G01 X22.5541 Y11.3135
G01 X22.5604 Y11.3147
G01 X22.6426 Y11.3353
G01 X22.6487 Y11.3372
G01 X22.7285 Y11.3657
G01 X22.7344 Y11.3682
G01 X22.8110 Y11.4044
G01 X22.8166 Y11.4074
G01 X22.8893 Y11.4510
G01 X22.8946 Y11.4545
G01 X22.9627 Y11.5050
G01 X22.9676 Y11.5091
G01 X23.0304 Y11.5660
G01 X23.0349 Y11.5705
G01 X23.0919 Y11.6333
G01 X23.0959 Y11.6382
G01 X23.1464 Y11.7063
G01 X23.1499 Y11.7116
G01 X23.1935 Y11.7843
G01 X23.1965 Y11.7899
G01 X23.2327 Y11.8665
G01 X23.2352 Y11.8724
G01 X23.2637 Y11.9522
G01 X23.2656 Y11.9583
G01 X23.2862 Y12.0405
G01 X23.2874 Y12.0468
G01 X23.2999 Y12.1306
G01 X23.3005 Y12.1370
G01 X23.3046 Y12.2216
G01 X23.3046 Y12.2280
G01 X23.3005 Y12.3126
G01 X23.2999 Y12.3190
G01 X23.2874 Y12.4028
G01 X23.2862 Y12.4091
G01 X23.2656 Y12.4913
G01 X23.2637 Y12.4974
G01 X23.2352 Y12.5772
G01 X23.2327 Y12.5831
G01 X23.1965 Y12.6597
G01 X23.1935 Y12.6653
G01 X23.1499 Y12.7380
G01 X23.1464 Y12.7433
G01 X23.0959 Y12.8114
G01 X23.0919 Y12.8163
G01 X23.0349 Y12.8791
G01 X23.0304 Y12.8836
G01 X22.9676 Y12.9405
G01 X22.9627 Y12.9446
G01 X22.8946 Y12.9951
G01 X22.8893 Y12.9986
G01 X22.8166 Y13.0422
G01 X22.8110 Y13.0452
G01 X22.7344 Y13.0814
G01 X22.7285 Y13.0839
G01 X22.6487 Y13.1124
G01 X22.6426 Y13.1143
G01 X22.5604 Y13.1349
G01 X22.5541 Y13.1361
G01 X22.4703 Y13.1485
G01 X22.4640 Y13.1492
G01 X22.3793 Y13.1533
G01 X22.3729 Y13.1533
G01 X22.2883 Y13.1492
G01 X22.2819 Y13.1485
G01 X22.1981 Y13.1361
G01 X22.1919 Y13.1349
G01 X22.1096 Y13.1143
G01 X22.1035 Y13.1124
G01 X22.0237 Y13.0839
G01 X22.0178 Y13.0814
G01 X21.9412 Y13.0452
G01 X21.9356 Y13.0422
G01 X21.8629 Y12.9986
G01 X21.8576 Y12.9951
G01 X21.7895 Y12.9446
G01 X21.7846 Y12.9405
G01 X21.7218 Y12.8836
G01 X21.7173 Y12.8791
G01 X21.6604 Y12.8163
G01 X21.6563 Y12.8114
G01 X21.6059 Y12.7433
G01 X21.6023 Y12.7380
G01 X21.5587 Y12.6653
G01 X21.5464 Y12.6400
G01 X19.7937 Y12.6400
G01 X18.8927 Y13.5409
G01 X18.8672 Y13.5640
G01 X18.8623 Y13.5680
G01 X18.8347 Y13.5885
G01 X18.8294 Y13.5920
G01 X18.7999 Y13.6097
G01 X18.7943 Y13.6127
G01 X18.7632 Y13.6274
G01 X18.7573 Y13.6298
G01 X18.7250 Y13.6414
G01 X18.7189 Y13.6432
G01 X18.6855 Y13.6516
G01 X18.6793 Y13.6528
G01 X18.6453 Y13.6579
G01 X18.6389 Y13.6585
G01 X18.6014 Y13.6603
G01 X15.5435 Y13.6603
G01 X15.0711 Y14.1327
G01 X15.0664 Y14.1369
G01 X15.0613 Y14.1407
G01 X15.0558 Y14.1440
G01 X15.0500 Y14.1468
G01 X15.0440 Y14.1489
G01 X15.0378 Y14.1504
G01 X15.0315 Y14.1514
G01 X15.0251 Y14.1517
G01 X14.3097 Y14.1517
G01 X14.3033 Y14.1514
G01 X14.2970 Y14.1504
G01 X14.2908 Y14.1489
G01 X14.2848 Y14.1468
G01 X14.2791 Y14.1440
G01 X14.2736 Y14.1407
G01 X14.2685 Y14.1369
G01 X14.2637 Y14.1327
G01 X13.7694 Y13.6383
G01 X11.0124 Y13.6383
G01 X10.9749 Y13.6365
G01 X10.9686 Y13.6359
G01 X10.9346 Y13.6308
G01 X10.9283 Y13.6296
G01 X10.8950 Y13.6212
G01 X10.8889 Y13.6194
G01 X10.8565 Y13.6078
G01 X10.8506 Y13.6054
G01 X10.8196 Y13.5907
G01 X10.8139 Y13.5877
G01 X10.7845 Y13.5700
G01 X10.7792 Y13.5665
G01 X10.7516 Y13.5460
G01 X10.7466 Y13.5420
G01 X10.7189 Y13.5167
G01 X8.4214 Y11.2192
G01 X8.3961 Y11.1914
G01 X8.3920 Y11.1865
G01 X8.3716 Y11.1589
G01 X8.3680 Y11.1536
G01 X8.3503 Y11.1241
G01 X8.3473 Y11.1185
G01 X8.3326 Y11.0874
G01 X8.3302 Y11.0815
G01 X8.3186 Y11.0491
G01 X8.3168 Y11.0430
G01 X8.3084 Y11.0097
G01 X8.3072 Y11.0035
G01 X8.3021 Y10.9695
G01 X8.3015 Y10.9631
G01 X8.2997 Y10.9256
G01 X8.2997 Y10.1267
G00 Z2.0000
G00 X6.3019 Y12.3757
G01 F800.00
G01 Z-0.0851
G01 F60.00
G01 X6.4891 Y12.4054
G01 X6.6695 Y12.4639
G01 X6.8384 Y12.5501
G01 X6.9918 Y12.6615
G01 X7.1258 Y12.7955
G01 X7.2372 Y12.9490
G01 X7.3234 Y13.1179
G01 X7.3387 Y13.1651
G01 X7.2056 Y13.1651
G01 X7.1623 Y13.0733
G01 X7.1593 Y13.0677
G01 X7.1080 Y12.9821
G01 X7.1044 Y12.9768
G01 X7.0450 Y12.8967
G01 X7.0410 Y12.8918
G01 X6.9740 Y12.8179
G01 X6.9695 Y12.8134
G01 X6.8955 Y12.7464
G01 X6.8906 Y12.7423
G01 X6.8105 Y12.6829
G01 X6.8052 Y12.6794
G01 X6.7196 Y12.6281
G01 X6.7140 Y12.6251
G01 X6.6238 Y12.5824
G01 X6.6179 Y12.5800
G01 X6.5240 Y12.5464
G01 X6.5179 Y12.5445
G01 X6.4211 Y12.5203
G01 X6.4149 Y12.5190
G01 X6.3162 Y12.5044
G01 X6.3098 Y12.5038
G01 X6.2070 Y12.4988
G01 X5.6062 Y12.4988
G01 X5.6062 Y12.3757
G01 X6.3019 Y12.3757
G00 Z2.0000
G00 X3.1765 Y13.1651
G01 F800.00
G01 Z-0.0851
G01 F60.00
G01 X3.0434 Y13.1651
G01 X3.0588 Y13.1179
G01 X3.1449 Y12.9490
G01 X3.2563 Y12.7955
G01 X3.3904 Y12.6615
G01 X3.5438 Y12.5501
G01 X3.7127 Y12.4639
G01 X3.8930 Y12.4054
G01 X4.0802 Y12.3757
G01 X4.7758 Y12.3757
G01 X4.7758 Y12.4988
G01 X4.1750 Y12.4988
G01 X4.0722 Y12.5038
G01 X4.0659 Y12.5044
G01 X3.9672 Y12.5190
G01 X3.9609 Y12.5203
G01 X3.8642 Y12.5445
G01 X3.8581 Y12.5464
G01 X3.7641 Y12.5800
G01 X3.7582 Y12.5824
G01 X3.6681 Y12.6251
G01 X3.6624 Y12.6281
G01 X3.5769 Y12.6794
G01 X3.5716 Y12.6829
G01 X3.4914 Y12.7423
G01 X3.4865 Y12.7464
G01 X3.4126 Y12.8134
G01 X3.4081 Y12.8179
G01 X3.3411 Y12.8918
G01 X3.3370 Y12.8967
G01 X3.2776 Y12.9768
G01 X3.2741 Y12.9821
G01 X3.2228 Y13.0677
G01 X3.2198 Y13.0733
G01 X3.1765 Y13.1651
G00 Z2.0000
G00 X3.0435 Y13.9955
G01 F800.00
G01 Z-0.0851
G01 F60.00
G01 X3.1765 Y13.9955
G01 X3.2198 Y14.0873
G01 X3.2228 Y14.0929
G01 X3.2741 Y14.1785
G01 X3.2776 Y14.1838
G01 X3.3370 Y14.2639
G01 X3.3411 Y14.2688
G01 X3.4081 Y14.3427
G01 X3.4126 Y14.3472
G01 X3.4865 Y14.4142
G01 X3.4914 Y14.4183
G01 X3.5716 Y14.4777
G01 X3.5769 Y14.4812
G01 X3.6624 Y14.5325
G01 X3.6681 Y14.5355
G01 X3.7582 Y14.5782
G01 X3.7641 Y14.5806
G01 X3.8581 Y14.6142
G01 X3.8642 Y14.6161
G01 X3.9609 Y14.6403
G01 X3.9672 Y14.6416
G01 X4.0659 Y14.6562
G01 X4.0722 Y14.6568
G01 X4.1750 Y14.6618
G01 X6.2070 Y14.6618
G01 X6.3098 Y14.6568
G01 X6.3162 Y14.6562
G01 X6.4149 Y14.6416
G01 X6.4211 Y14.6403
G01 X6.5179 Y14.6161
G01 X6.5240 Y14.6142
G01 X6.6179 Y14.5806
G01 X6.6238 Y14.5782
G01 X6.7140 Y14.5355
G01 X6.7196 Y14.5325
G01 X6.8052 Y14.4812
G01 X6.8105 Y14.4777
G01 X6.8906 Y14.4183
G01 X6.8955 Y14.4142
G01 X6.9695 Y14.3472
G01 X6.9740 Y14.3427
G01 X7.0410 Y14.2688
G01 X7.0450 Y14.2639
G01 X7.1044 Y14.1838
G01 X7.1080 Y14.1785
G01 X7.1593 Y14.0929
G01 X7.1623 Y14.0873
G01 X7.2056 Y13.9955
G01 X7.3387 Y13.9955
G01 X7.3234 Y14.0426
G01 X7.2372 Y14.2115
G01 X7.1258 Y14.3650
G01 X6.9918 Y14.4990
G01 X6.9463 Y14.5320
G01 X6.9415 Y14.5359
G01 X6.9370 Y14.5402
G01 X6.9330 Y14.5450
G01 X6.9294 Y14.5501
G01 X6.9263 Y14.5557
G01 X6.9238 Y14.5612
G01 X6.9219 Y14.5669
G01 X6.9205 Y14.5728
G01 X6.9197 Y14.5788
G01 X6.9194 Y14.5852
G01 X6.9197 Y14.5916
G01 X6.9207 Y14.5979
G01 X6.9222 Y14.6040
G01 X6.9244 Y14.6100
G01 X6.9271 Y14.6158
G01 X6.9305 Y14.6216
G01 X6.9343 Y14.6267
G01 X6.9386 Y14.6314
G01 X6.9434 Y14.6357
G01 X6.9485 Y14.6395
G01 X6.9540 Y14.6428
G01 X6.9598 Y14.6456
G01 X7.1420 Y14.7210
G01 X7.4905 Y15.0695
G01 X7.4956 Y15.0741
G01 X7.5013 Y15.0782
G01 X7.5078 Y15.0818
G01 X7.5133 Y15.0843
G01 X7.5190 Y15.0862
G01 X7.5248 Y15.0876
G01 X7.5308 Y15.0884
G01 X7.5368 Y15.0887
G01 X14.1573 Y15.0887
G01 X14.5192 Y15.2386
G01 X14.5424 Y15.2618
G01 X14.5475 Y15.2664
G01 X14.5532 Y15.2705
G01 X14.5593 Y15.2739
G01 X14.5652 Y15.2766
G01 X14.5709 Y15.2785
G01 X14.5767 Y15.2799
G01 X14.5827 Y15.2807
G01 X14.5887 Y15.2810
G01 X14.9654 Y15.2810
G01 X15.5160 Y15.5090
G01 X15.9374 Y15.9305
G01 X16.1655 Y16.4811
G01 X16.1655 Y16.6663
G01 X16.1658 Y16.6726
G01 X16.1667 Y16.6788
G01 X16.1682 Y16.6848
G01 X16.1703 Y16.6907
G01 X16.1729 Y16.6964
G01 X16.1761 Y16.7018
G01 X16.1802 Y16.7074
G01 X16.1845 Y16.7122
G01 X16.1892 Y16.7166
G01 X16.1944 Y16.7205
G01 X16.1999 Y16.7239
G01 X16.2057 Y16.7267
G01 X16.2118 Y16.7289
G01 X16.2181 Y16.7305
G01 X16.2245 Y16.7315
G01 X16.2309 Y16.7318
G01 X18.6627 Y16.7318
G01 X18.6697 Y16.7314
G01 X18.6766 Y16.7303
G01 X18.6833 Y16.7285
G01 X18.6892 Y16.7262
G01 X18.6946 Y16.7235
G01 X18.6997 Y16.7203
G01 X18.7045 Y16.7167
G01 X18.7090 Y16.7127
G01 X19.2034 Y16.2182
G01 X20.4445 Y16.2182
G01 X21.3221 Y17.0958
G01 X21.3221 Y18.3369
G01 X20.4445 Y19.2145
G01 X19.2034 Y19.2145
G01 X18.7090 Y18.7200
G01 X18.7045 Y18.7160
G01 X18.6997 Y18.7124
G01 X18.6946 Y18.7092
G01 X18.6892 Y18.7065
G01 X18.6833 Y18.7042
G01 X18.6766 Y18.7024
G01 X18.6697 Y18.7013
G01 X18.6627 Y18.7009
G01 X15.4089 Y18.7009
G01 X15.0470 Y18.5510
G01 X14.7924 Y18.2963
G01 X14.7881 Y18.2924
G01 X14.7834 Y18.2889
G01 X14.7785 Y18.2857
G01 X14.7732 Y18.2831
G01 X14.7678 Y18.2809
G01 X14.7618 Y18.2791
G01 X14.7540 Y18.2777
G01 X14.7460 Y18.2772
G01 X14.3694 Y18.2772
G01 X13.8187 Y18.0491
G01 X13.3973 Y17.6277
G01 X13.1780 Y17.0981
G01 X13.1750 Y17.0919
G01 X13.1713 Y17.0859
G01 X13.1671 Y17.0805
G01 X13.1623 Y17.0755
G01 X13.1569 Y17.0710
G01 X13.1516 Y17.0673
G01 X13.1464 Y17.0644
G01 X13.1409 Y17.0620
G01 X13.1352 Y17.0602
G01 X13.1294 Y17.0588
G01 X13.1235 Y17.0580
G01 X13.1175 Y17.0577
G01 X7.6309 Y17.0577
G01 X7.6249 Y17.0580
G01 X7.6189 Y17.0588
G01 X7.6131 Y17.0602
G01 X7.6074 Y17.0621
G01 X7.6019 Y17.0646
G01 X7.5954 Y17.0682
G01 X7.5897 Y17.0723
G01 X7.5846 Y17.0769
G01 X7.1420 Y17.5195
G01 X6.5354 Y17.7708
G01 X3.8468 Y17.7708
G01 X3.2401 Y17.5195
G01 X2.7758 Y17.0552
G01 X2.5245 Y16.4486
G01 X2.5245 Y15.7919
G01 X2.7758 Y15.1853
G01 X3.2401 Y14.7210
G01 X3.4224 Y14.6456
G01 X3.4282 Y14.6428
G01 X3.4336 Y14.6395
G01 X3.4388 Y14.6357
G01 X3.4435 Y14.6315
G01 X3.4476 Y14.6269
G01 X3.4512 Y14.6223
G01 X3.4543 Y14.6173
G01 X3.4569 Y14.6121
G01 X3.4591 Y14.6067
G01 X3.4609 Y14.6007
G01 X3.4622 Y14.5940
G01 X3.4628 Y14.5873
G01 X3.4627 Y14.5805
G01 X3.4619 Y14.5738
G01 X3.4604 Y14.5672
G01 X3.4582 Y14.5608
G01 X3.4554 Y14.5547
G01 X3.4519 Y14.5488
G01 X3.4483 Y14.5439
G01 X3.4445 Y14.5396
G01 X3.4403 Y14.5356
G01 X3.4358 Y14.5320
G01 X3.3904 Y14.4990
G01 X3.2563 Y14.3650
G01 X3.1449 Y14.2115
G01 X3.0588 Y14.0426
G01 X3.0435 Y13.9955
G00 Z2.0000
G00 X13.7863 Y16.4884
G01 F800.00
G01 Z-0.0851
G01 F60.00
G01 X7.2227 Y16.4884
G01 X7.2074 Y16.5312
G01 X7.2049 Y16.5371
G01 X7.1623 Y16.6273
G01 X7.1593 Y16.6329
G01 X7.1080 Y16.7185
G01 X7.1044 Y16.7238
G01 X7.0450 Y16.8039
G01 X7.0410 Y16.8088
G01 X6.9740 Y16.8827
G01 X6.9695 Y16.8872
G01 X6.8955 Y16.9542
G01 X6.8906 Y16.9583
G01 X6.8105 Y17.0177
G01 X6.8052 Y17.0212
G01 X6.7196 Y17.0725
G01 X6.7140 Y17.0755
G01 X6.6238 Y17.1182
G01 X6.6179 Y17.1206
G01 X6.5240 Y17.1542
G01 X6.5179 Y17.1561
G01 X6.4211 Y17.1803
G01 X6.4149 Y17.1816
G01 X6.3162 Y17.1962
G01 X6.3098 Y17.1968
G01 X6.2070 Y17.2018
G01 X4.1718 Y17.2017
G01 X4.0722 Y17.1968
G01 X4.0659 Y17.1962
G01 X3.9672 Y17.1816
G01 X3.9609 Y17.1803
G01 X3.8642 Y17.1561
G01 X3.8581 Y17.1542
G01 X3.7641 Y17.1206
G01 X3.7582 Y17.1182
G01 X3.6681 Y17.0755
G01 X3.6624 Y17.0725
G01 X3.5769 Y17.0212
G01 X3.5716 Y17.0177
G01 X3.4914 Y16.9583
G01 X3.4865 Y16.9542
G01 X3.4126 Y16.8872
G01 X3.4081 Y16.8827
G01 X3.3411 Y16.8088
G01 X3.3370 Y16.8039
G01 X3.2776 Y16.7238
G01 X3.2741 Y16.7185
G01 X3.2228 Y16.6329
G01 X3.2198 Y16.6273
G01 X3.1771 Y16.5371
G01 X3.1747 Y16.5312
G01 X3.1411 Y16.4373
G01 X3.1392 Y16.4312
G01 X3.1150 Y16.3344
G01 X3.1138 Y16.3281
G01 X3.0991 Y16.2295
G01 X3.0985 Y16.2231
G01 X3.0936 Y16.1235
G01 X3.0936 Y16.1171
G01 X3.0985 Y16.0175
G01 X3.0991 Y16.0111
G01 X3.1138 Y15.9125
G01 X3.1150 Y15.9062
G01 X3.1392 Y15.8094
G01 X3.1411 Y15.8033
G01 X3.1747 Y15.7094
G01 X3.1771 Y15.7035
G01 X3.2198 Y15.6133
G01 X3.2228 Y15.6077
G01 X3.2741 Y15.5221
G01 X3.2776 Y15.5168
G01 X3.3370 Y15.4367
G01 X3.3411 Y15.4318
G01 X3.4081 Y15.3579
G01 X3.4126 Y15.3534
G01 X3.4865 Y15.2864
G01 X3.4914 Y15.2823
G01 X3.5716 Y15.2229
G01 X3.5769 Y15.2194
G01 X3.6624 Y15.1681
G01 X3.6681 Y15.1651
G01 X3.7582 Y15.1224
G01 X3.7641 Y15.1200
G01 X3.8581 Y15.0864
G01 X3.8642 Y15.0845
G01 X3.9609 Y15.0603
G01 X3.9672 Y15.0590
G01 X4.0659 Y15.0444
G01 X4.0722 Y15.0438
G01 X4.1718 Y15.0389
G01 X6.2070 Y15.0388
G01 X6.3098 Y15.0438
G01 X6.3162 Y15.0444
G01 X6.4149 Y15.0590
G01 X6.4211 Y15.0603
G01 X6.5179 Y15.0845
G01 X6.5240 Y15.0864
G01 X6.6179 Y15.1200
G01 X6.6238 Y15.1224
G01 X6.7140 Y15.1651
G01 X6.7196 Y15.1681
G01 X6.8052 Y15.2194
G01 X6.8105 Y15.2229
G01 X6.8906 Y15.2823
G01 X6.8955 Y15.2864
G01 X6.9695 Y15.3534
G01 X6.9740 Y15.3579
G01 X7.0410 Y15.4318
G01 X7.0450 Y15.4367
G01 X7.1044 Y15.5168
G01 X7.1080 Y15.5221
G01 X7.1593 Y15.6077
G01 X7.1623 Y15.6133
G01 X7.1834 Y15.6580
G01 X13.9615 Y15.6580
G01 X13.9990 Y15.6598
G01 X14.0054 Y15.6604
G01 X14.0394 Y15.6655
G01 X14.0456 Y15.6667
G01 X14.0790 Y15.6751
G01 X14.0851 Y15.6769
G01 X14.1174 Y15.6885
G01 X14.1233 Y15.6909
G01 X14.1544 Y15.7056
G01 X14.1600 Y15.7086
G01 X14.1895 Y15.7263
G01 X14.1948 Y15.7298
G01 X14.2224 Y15.7503
G01 X14.2273 Y15.7543
G01 X14.2528 Y15.7774
G01 X14.3743 Y15.8988
G01 X14.4009 Y15.8896
G01 X14.4832 Y15.8690
G01 X14.4894 Y15.8678
G01 X14.5732 Y15.8554
G01 X14.5796 Y15.8547
G01 X14.6642 Y15.8506
G01 X14.6706 Y15.8506
G01 X14.7553 Y15.8547
G01 X14.7616 Y15.8554
G01 X14.8454 Y15.8678
G01 X14.8517 Y15.8690
G01 X14.9339 Y15.8896
G01 X14.9400 Y15.8915
G01 X15.0198 Y15.9200
G01 X15.0257 Y15.9225
G01 X15.1023 Y15.9587
G01 X15.1079 Y15.9617
G01 X15.1806 Y16.0053
G01 X15.1859 Y16.0088
G01 X15.2540 Y16.0593
G01 X15.2589 Y16.0634
G01 X15.3217 Y16.1203
G01 X15.3262 Y16.1248
G01 X15.3832 Y16.1876
G01 X15.3872 Y16.1925
G01 X15.4377 Y16.2606
G01 X15.4412 Y16.2659
G01 X15.4848 Y16.3386
G01 X15.4878 Y16.3442
G01 X15.5240 Y16.4208
G01 X15.5265 Y16.4267
G01 X15.5550 Y16.5065
G01 X15.5569 Y16.5126
G01 X15.5775 Y16.5948
G01 X15.5787 Y16.6011
G01 X15.5912 Y16.6849
G01 X15.5918 Y16.6913
G01 X15.5959 Y16.7759
G01 X15.5959 Y16.7823
G01 X15.5918 Y16.8669
G01 X15.5912 Y16.8733
G01 X15.5787 Y16.9571
G01 X15.5775 Y16.9634
G01 X15.5569 Y17.0456
G01 X15.5477 Y17.0722
G01 X15.7766 Y17.3011
G01 X18.9259 Y17.3011
G01 X19.4202 Y16.8067
G01 X19.4250 Y16.8025
G01 X19.4301 Y16.7987
G01 X19.4356 Y16.7954
G01 X19.4413 Y16.7926
G01 X19.4473 Y16.7905
G01 X19.4535 Y16.7890
G01 X19.4598 Y16.7880
G01 X19.4662 Y16.7877
G01 X20.1816 Y16.7877
G01 X20.1880 Y16.7880
G01 X20.1943 Y16.7890
G01 X20.2005 Y16.7905
G01 X20.2065 Y16.7926
G01 X20.2123 Y16.7954
G01 X20.2178 Y16.7987
G01 X20.2229 Y16.8025
G01 X20.2276 Y16.8067
G01 X20.7335 Y17.3126
G01 X20.7378 Y17.3174
G01 X20.7416 Y17.3225
G01 X20.7448 Y17.3279
G01 X20.7476 Y17.3337
G01 X20.7497 Y17.3397
G01 X20.7513 Y17.3459
G01 X20.7522 Y17.3522
G01 X20.7525 Y17.3586
G01 X20.7525 Y18.0740
G01 X20.7522 Y18.0804
G01 X20.7513 Y18.0867
G01 X20.7497 Y18.0929
G01 X20.7476 Y18.0989
G01 X20.7448 Y18.1047
G01 X20.7416 Y18.1101
G01 X20.7378 Y18.1152
G01 X20.7335 Y18.1200
G01 X20.2276 Y18.6259
G01 X20.2229 Y18.6301
G01 X20.2178 Y18.6339
G01 X20.2123 Y18.6372
G01 X20.2065 Y18.6400
G01 X20.2005 Y18.6421
G01 X20.1943 Y18.6436
G01 X20.1880 Y18.6446
G01 X20.1816 Y18.6449
G01 X19.4662 Y18.6449
G01 X19.4598 Y18.6446
G01 X19.4535 Y18.6436
G01 X19.4473 Y18.6421
G01 X19.4413 Y18.6400
G01 X19.4356 Y18.6372
G01 X19.4301 Y18.6339
G01 X19.4250 Y18.6301
G01 X19.4202 Y18.6259
G01 X18.9259 Y18.1315
G01 X15.6046 Y18.1315
G01 X15.5671 Y18.1297
G01 X15.5608 Y18.1291
G01 X15.5268 Y18.1240
G01 X15.5205 Y18.1228
G01 X15.4872 Y18.1144
G01 X15.4811 Y18.1126
G01 X15.4487 Y18.1010
G01 X15.4428 Y18.0986
G01 X15.4118 Y18.0839
G01 X15.4061 Y18.0809
G01 X15.3767 Y18.0632
G01 X15.3714 Y18.0597
G01 X15.3438 Y18.0392
G01 X15.3388 Y18.0352
G01 X15.3111 Y18.0099
G01 X14.9605 Y17.6594
G01 X14.9339 Y17.6686
G01 X14.8517 Y17.6892
G01 X14.8454 Y17.6904
G01 X14.7616 Y17.7028
G01 X14.7553 Y17.7035
G01 X14.6706 Y17.7076
G01 X14.6642 Y17.7076
G01 X14.5796 Y17.7035
G01 X14.5732 Y17.7028
G01 X14.4894 Y17.6904
G01 X14.4832 Y17.6892
G01 X14.4009 Y17.6686
G01 X14.3948 Y17.6667
G01 X14.3150 Y17.6382
G01 X14.3091 Y17.6357
G01 X14.2325 Y17.5995
G01 X14.2269 Y17.5965
G01 X14.1542 Y17.5529
G01 X14.1489 Y17.5494
G01 X14.0808 Y17.4989
G01 X14.0759 Y17.4948
G01 X14.0131 Y17.4379
G01 X14.0086 Y17.4334
G01 X13.9517 Y17.3706
G01 X13.9476 Y17.3657
G01 X13.8972 Y17.2976
G01 X13.8936 Y17.2923
G01 X13.8500 Y17.2196
G01 X13.8470 Y17.2140
G01 X13.8108 Y17.1374
G01 X13.8084 Y17.1315
G01 X13.7798 Y17.0517
G01 X13.7780 Y17.0456
G01 X13.7574 Y16.9634
G01 X13.7561 Y16.9571
G01 X13.7437 Y16.8733
G01 X13.7431 Y16.8669
G01 X13.7389 Y16.7823
G01 X13.7389 Y16.7759
G01 X13.7431 Y16.6913
G01 X13.7437 Y16.6849
G01 X13.7561 Y16.6011
G01 X13.7574 Y16.5948
G01 X13.7780 Y16.5126
G01 X13.7863 Y16.4884
G00 Z2.0000
G00 X17.8228 Y9.6438
G01 F800.00
G01 Z-0.0851
G01 F60.00
G01 X17.9769 Y9.6438
G01 X18.4650 Y10.1320
G01 X18.4650 Y10.2807
G01 X18.4391 Y10.2807
G01 X17.8228 Y9.6644
G01 X17.8228 Y9.6438
G00 Z2.0000
G00 X17.9769 Y8.8134
G01 F800.00
G01 Z-0.0851
G01 F60.00
G01 X17.8228 Y8.8134
G01 X17.8228 Y8.7928
G01 X18.4391 Y8.1765
G01 X18.8094 Y8.1765
G01 X18.8094 Y8.3000
G01 X18.5172 Y8.3000
G01 X18.5108 Y8.3003
G01 X18.5045 Y8.3013
G01 X18.4983 Y8.3028
G01 X18.4923 Y8.3049
G01 X18.4866 Y8.3077
G01 X18.4811 Y8.3110
G01 X18.4760 Y8.3148
G01 X18.4712 Y8.3190
G01 X17.9769 Y8.8134
G00 Z2.0000
G00 X19.2954 Y10.2807
G01 F800.00
G01 Z-0.0851
G01 F60.00
G01 X19.2954 Y10.1214
G01 X19.6325 Y9.7842
G01 X19.7198 Y9.8716
G01 X19.3107 Y10.2807
G01 X19.2954 Y10.2807
G00 Z2.0000
G00 X23.1977 Y14.3325
G01 F800.00
G01 Z-0.0851
G01 F60.00
G01 X24.9056 Y12.6246
G01 X24.9056 Y8.2173
G01 X24.9074 Y8.1798
G01 X24.9080 Y8.1734
G01 X24.9131 Y8.1394
G01 X24.9143 Y8.1332
G01 X24.9227 Y8.0999
G01 X24.9245 Y8.0938
G01 X24.9361 Y8.0614
G01 X24.9385 Y8.0555
G01 X24.9532 Y8.0244
G01 X24.9562 Y8.0188
G01 X24.9739 Y7.9893
G01 X24.9775 Y7.9840
G01 X24.9979 Y7.9564
G01 X25.0020 Y7.9515
G01 X25.0273 Y7.9237
G01 X26.5507 Y6.4002
G01 X26.5507 Y5.3874
G01 X26.4590 Y5.3440
G01 X26.4533 Y5.3410
G01 X26.3678 Y5.2897
G01 X26.3625 Y5.2862
G01 X26.2823 Y5.2268
G01 X26.2774 Y5.2227
G01 X26.2035 Y5.1557
G01 X26.1990 Y5.1512
G01 X26.1320 Y5.0773
G01 X26.1279 Y5.0724
G01 X26.0685 Y4.9923
G01 X26.0650 Y4.9870
G01 X26.0137 Y4.9014
G01 X26.0107 Y4.8958
G01 X25.9680 Y4.8056
G01 X25.9656 Y4.7997
G01 X25.9320 Y4.7058
G01 X25.9301 Y4.6997
G01 X25.9059 Y4.6029
G01 X25.9047 Y4.5966
G01 X25.8900 Y4.4980
G01 X25.8894 Y4.4916
G01 X25.8844 Y4.3888
G01 X25.8844 Y2.3568
G01 X25.8894 Y2.2540
G01 X25.8900 Y2.2476
G01 X25.9047 Y2.1490
G01 X25.9059 Y2.1427
G01 X25.9301 Y2.0459
G01 X25.9320 Y2.0398
G01 X25.9656 Y1.9459
G01 X25.9680 Y1.9400
G01 X26.0107 Y1.8498
G01 X26.0137 Y1.8442
G01 X26.0650 Y1.7586
G01 X26.0685 Y1.7533
G01 X26.1279 Y1.6732
G01 X26.1320 Y1.6683
G01 X26.1990 Y1.5944
G01 X26.2035 Y1.5899
G01 X26.2774 Y1.5229
G01 X26.2823 Y1.5188
G01 X26.3625 Y1.4594
G01 X26.3678 Y1.4559
G01 X26.4533 Y1.4046
G01 X26.4590 Y1.4016
G01 X26.5491 Y1.3589
G01 X26.5550 Y1.3565
G01 X26.6490 Y1.3229
G01 X26.6551 Y1.3210
G01 X26.7518 Y1.2968
G01 X26.7581 Y1.2955
G01 X26.8568 Y1.2809
G01 X26.8631 Y1.2803
G01 X26.9627 Y1.2754
G01 X26.9691 Y1.2754
G01 X27.0687 Y1.2803
G01 X27.0751 Y1.2809
G01 X27.1738 Y1.2955
G01 X27.1800 Y1.2968
G01 X27.2768 Y1.3210
G01 X27.2829 Y1.3229
G01 X27.3768 Y1.3565
G01 X27.3827 Y1.3589
G01 X27.4729 Y1.4016
G01 X27.4785 Y1.4046
G01 X27.5641 Y1.4559
G01 X27.5694 Y1.4594
G01 X27.6495 Y1.5188
G01 X27.6544 Y1.5229
G01 X27.7284 Y1.5899
G01 X27.7329 Y1.5944
G01 X27.7999 Y1.6683
G01 X27.8039 Y1.6732
G01 X27.8633 Y1.7533
G01 X27.8669 Y1.7586
G01 X27.9182 Y1.8442
G01 X27.9212 Y1.8498
G01 X27.9638 Y1.9400
G01 X27.9663 Y1.9459
G01 X27.9999 Y2.0398
G01 X28.0017 Y2.0459
G01 X28.0260 Y2.1427
G01 X28.0272 Y2.1490
G01 X28.0418 Y2.2476
G01 X28.0425 Y2.2540
G01 X28.0474 Y2.3568
G01 X28.0474 Y4.3888
G01 X28.0425 Y4.4916
G01 X28.0418 Y4.4980
G01 X28.0272 Y4.5966
G01 X28.0260 Y4.6029
G01 X28.0017 Y4.6997
G01 X27.9999 Y4.7058
G01 X27.9663 Y4.7997
G01 X27.9638 Y4.8056
G01 X27.9212 Y4.8958
G01 X27.9182 Y4.9014
G01 X27.8669 Y4.9870
G01 X27.8633 Y4.9923
G01 X27.8039 Y5.0724
G01 X27.7999 Y5.0773
G01 X27.7329 Y5.1512
G01 X27.7284 Y5.1557
G01 X27.6544 Y5.2227
G01 X27.6495 Y5.2268
G01 X27.5694 Y5.2862
G01 X27.5641 Y5.2897
G01 X27.4785 Y5.3410
G01 X27.4729 Y5.3440
G01 X27.3811 Y5.3874
G01 X27.3810 Y6.5754
G01 X27.3793 Y6.6097
G01 X27.3787 Y6.6161
G01 X27.3737 Y6.6501
G01 X27.3724 Y6.6563
G01 X27.3641 Y6.6896
G01 X27.3622 Y6.6957
G01 X27.3506 Y6.7281
G01 X27.3482 Y6.7340
G01 X27.3335 Y6.7651
G01 X27.3305 Y6.7707
G01 X27.3128 Y6.8002
G01 X27.3093 Y6.8055
G01 X27.2888 Y6.8331
G01 X27.2848 Y6.8380
G01 X27.2595 Y6.8658
G01 X25.7360 Y8.3893
G01 X25.7360 Y12.7966
G01 X25.7340 Y12.8373
G01 X25.7286 Y12.8745
G01 X25.7273 Y12.8807
G01 X25.7181 Y12.9171
G01 X25.7044 Y12.9555
G01 X25.6884 Y12.9895
G01 X25.6854 Y12.9951
G01 X25.6660 Y13.0273
G01 X25.6437 Y13.0575
G01 X25.6397 Y13.0624
G01 X25.6144 Y13.0902
G01 X23.6438 Y15.0606
G01 X23.6183 Y15.0837
G01 X23.6134 Y15.0877
G01 X23.5858 Y15.1082
G01 X23.5805 Y15.1117
G01 X23.5510 Y15.1294
G01 X23.5454 Y15.1324
G01 X23.5143 Y15.1471
G01 X23.5084 Y15.1495
G01 X23.4761 Y15.1611
G01 X23.4700 Y15.1629
G01 X23.4366 Y15.1713
G01 X23.4304 Y15.1725
G01 X23.3964 Y15.1776
G01 X23.3900 Y15.1782
G01 X23.3525 Y15.1800
G01 X23.2058 Y15.1800
G01 X23.1935 Y15.2053
G01 X23.1499 Y15.2780
G01 X23.1464 Y15.2833
G01 X23.0959 Y15.3514
G01 X23.0919 Y15.3563
G01 X23.0349 Y15.4191
G01 X23.0304 Y15.4236
G01 X22.9676 Y15.4805
G01 X22.9627 Y15.4846
G01 X22.8946 Y15.5351
G01 X22.8893 Y15.5386
G01 X22.8166 Y15.5822
G01 X22.8110 Y15.5852
G01 X22.7344 Y15.6214
G01 X22.7285 Y15.6239
G01 X22.6487 Y15.6524
G01 X22.6426 Y15.6543
G01 X22.5604 Y15.6749
G01 X22.5541 Y15.6761
G01 X22.4703 Y15.6885
G01 X22.4640 Y15.6892
G01 X22.3793 Y15.6933
G01 X22.3729 Y15.6933
G01 X22.2883 Y15.6892
G01 X22.2819 Y15.6885
G01 X22.1981 Y15.6761
G01 X22.1919 Y15.6749
G01 X22.1096 Y15.6543
G01 X22.1035 Y15.6524
G01 X22.0237 Y15.6239
G01 X22.0178 Y15.6214
G01 X21.9412 Y15.5852
G01 X21.9356 Y15.5822
G01 X21.8629 Y15.5386
G01 X21.8576 Y15.5351
G01 X21.7895 Y15.4846
G01 X21.7846 Y15.4805
G01 X21.7218 Y15.4236
G01 X21.7173 Y15.4191
G01 X21.6604 Y15.3563
G01 X21.6563 Y15.3514
G01 X21.6059 Y15.2833
G01 X21.6023 Y15.2780
G01 X21.5587 Y15.2053
G01 X21.5557 Y15.1997
G01 X21.5195 Y15.1231
G01 X21.5171 Y15.1172
G01 X21.4885 Y15.0374
G01 X21.4867 Y15.0313
G01 X21.4661 Y14.9491
G01 X21.4648 Y14.9428
G01 X21.4524 Y14.8590
G01 X21.4518 Y14.8526
G01 X21.4476 Y14.7680
G01 X21.4476 Y14.7616
G01 X21.4518 Y14.6770
G01 X21.4524 Y14.6706
G01 X21.4648 Y14.5868
G01 X21.4661 Y14.5805
G01 X21.4867 Y14.4983
G01 X21.4885 Y14.4922
G01 X21.5171 Y14.4124
G01 X21.5195 Y14.4065
G01 X21.5557 Y14.3299
G01 X21.5587 Y14.3243
G01 X21.6023 Y14.2516
G01 X21.6059 Y14.2463
G01 X21.6563 Y14.1782
G01 X21.6604 Y14.1733
G01 X21.7173 Y14.1105
G01 X21.7218 Y14.1060
G01 X21.7846 Y14.0491
G01 X21.7895 Y14.0450
G01 X21.8576 Y13.9945
G01 X21.8629 Y13.9910
G01 X21.9356 Y13.9474
G01 X21.9412 Y13.9444
G01 X22.0178 Y13.9082
G01 X22.0237 Y13.9057
G01 X22.1035 Y13.8772
G01 X22.1096 Y13.8753
G01 X22.1919 Y13.8547
G01 X22.1981 Y13.8535
G01 X22.2819 Y13.8411
G01 X22.2883 Y13.8404
G01 X22.3729 Y13.8363
G01 X22.3793 Y13.8363
G01 X22.4640 Y13.8404
G01 X22.4703 Y13.8411
G01 X22.5541 Y13.8535
G01 X22.5604 Y13.8547
G01 X22.6426 Y13.8753
G01 X22.6487 Y13.8772
G01 X22.7285 Y13.9057
G01 X22.7344 Y13.9082
G01 X22.8110 Y13.9444
G01 X22.8166 Y13.9474
G01 X22.8893 Y13.9910
G01 X22.8946 Y13.9945
G01 X22.9627 Y14.0450
G01 X22.9676 Y14.0491
G01 X23.0304 Y14.1060
G01 X23.0349 Y14.1105
G01 X23.0919 Y14.1733
G01 X23.0959 Y14.1782
G01 X23.1464 Y14.2463
G01 X23.1499 Y14.2516
G01 X23.1935 Y14.3243
G01 X23.1977 Y14.3325
G00 Z2.0000
G00 X29.0676 Y14.7680
G01 F800.00
G01 Z-0.0851
G01 F60.00
G01 X29.0676 Y14.7616
G01 X29.0718 Y14.6770
G01 X29.0724 Y14.6706
G01 X29.0848 Y14.5868
G01 X29.0861 Y14.5805
G01 X29.1067 Y14.4983
G01 X29.1085 Y14.4922
G01 X29.1371 Y14.4124
G01 X29.1395 Y14.4065
G01 X29.1757 Y14.3299
G01 X29.1787 Y14.3243
G01 X29.2223 Y14.2516
G01 X29.2259 Y14.2463
G01 X29.2763 Y14.1782
G01 X29.2804 Y14.1733
G01 X29.3373 Y14.1105
G01 X29.3418 Y14.1060
G01 X29.4046 Y14.0491
G01 X29.4095 Y14.0450
G01 X29.4776 Y13.9945
G01 X29.4829 Y13.9910
G01 X29.5556 Y13.9474
G01 X29.5612 Y13.9444
G01 X29.6378 Y13.9082
G01 X29.6437 Y13.9057
G01 X29.7235 Y13.8772
G01 X29.7296 Y13.8753
G01 X29.8119 Y13.8547
G01 X29.8181 Y13.8535
G01 X29.9019 Y13.8411
G01 X29.9083 Y13.8404
G01 X29.9929 Y13.8363
G01 X29.9993 Y13.8363
G01 X30.0840 Y13.8404
G01 X30.0903 Y13.8411
G01 X30.1741 Y13.8535
G01 X30.1804 Y13.8547
G01 X30.2626 Y13.8753
G01 X30.2687 Y13.8772
G01 X30.3485 Y13.9057
G01 X30.3544 Y13.9082
G01 X30.4310 Y13.9444
G01 X30.4366 Y13.9474
G01 X30.5093 Y13.9910
G01 X30.5146 Y13.9945
G01 X30.5827 Y14.0450
G01 X30.5876 Y14.0491
G01 X30.6504 Y14.1060
G01 X30.6549 Y14.1105
G01 X30.7119 Y14.1733
G01 X30.7159 Y14.1782
G01 X30.7664 Y14.2463
G01 X30.7699 Y14.2516
G01 X30.8135 Y14.3243
G01 X30.8165 Y14.3299
G01 X30.8527 Y14.4065
G01 X30.8552 Y14.4124
G01 X30.8837 Y14.4922
G01 X30.8856 Y14.4983
G01 X30.9062 Y14.5805
G01 X30.9074 Y14.5868
G01 X30.9199 Y14.6706
G01 X30.9205 Y14.6770
G01 X30.9246 Y14.7616
G01 X30.9246 Y14.7680
G01 X30.9205 Y14.8526
G01 X30.9199 Y14.8590
G01 X30.9074 Y14.9428
G01 X30.9062 Y14.9491
G01 X30.8856 Y15.0313
G01 X30.8837 Y15.0374
G01 X30.8552 Y15.1172
G01 X30.8527 Y15.1231
G01 X30.8165 Y15.1997
G01 X30.8135 Y15.2053
G01 X30.7699 Y15.2780
G01 X30.7664 Y15.2833
G01 X30.7159 Y15.3514
G01 X30.7119 Y15.3563
G01 X30.6549 Y15.4191
G01 X30.6504 Y15.4236
G01 X30.5876 Y15.4805
G01 X30.5827 Y15.4846
G01 X30.5146 Y15.5351
G01 X30.5093 Y15.5386
G01 X30.4366 Y15.5822
G01 X30.4310 Y15.5852
G01 X30.3544 Y15.6214
G01 X30.3485 Y15.6239
G01 X30.2687 Y15.6524
G01 X30.2626 Y15.6543
G01 X30.1804 Y15.6749
G01 X30.1741 Y15.6761
G01 X30.0903 Y15.6885
G01 X30.0840 Y15.6892
G01 X29.9993 Y15.6933
G01 X29.9929 Y15.6933
G01 X29.9083 Y15.6892
G01 X29.9019 Y15.6885
G01 X29.8181 Y15.6761
G01 X29.8119 Y15.6749
G01 X29.7296 Y15.6543
G01 X29.7235 Y15.6524
G01 X29.6437 Y15.6239
G01 X29.6378 Y15.6214
G01 X29.5612 Y15.5852
G01 X29.5556 Y15.5822
G01 X29.4829 Y15.5386
G01 X29.4776 Y15.5351
G01 X29.4095 Y15.4846
G01 X29.4046 Y15.4805
G01 X29.3418 Y15.4236
G01 X29.3373 Y15.4191
G01 X29.2804 Y15.3563
G01 X29.2763 Y15.3514
G01 X29.2259 Y15.2833
G01 X29.2223 Y15.2780
G01 X29.1787 Y15.2053
G01 X29.1757 Y15.1997
G01 X29.1395 Y15.1231
G01 X29.1371 Y15.1172
G01 X29.1085 Y15.0374
G01 X29.1067 Y15.0313
G01 X29.0861 Y14.9491
G01 X29.0848 Y14.9428
G01 X29.0724 Y14.8590
G01 X29.0718 Y14.8526
G01 X29.0676 Y14.7680
G00 Z2.0000
G00 X29.0676 Y12.2280
G01 F800.00
G01 Z-0.0851
G01 F60.00
G01 X29.0676 Y12.2216
G01 X29.0718 Y12.1370
G01 X29.0724 Y12.1306
G01 X29.0848 Y12.0468
G01 X29.0861 Y12.0405
G01 X29.1067 Y11.9583
G01 X29.1085 Y11.9522
G01 X29.1371 Y11.8724
G01 X29.1395 Y11.8665
G01 X29.1757 Y11.7899
G01 X29.1787 Y11.7843
G01 X29.2223 Y11.7116
G01 X29.2259 Y11.7063
G01 X29.2763 Y11.6382
G01 X29.2804 Y11.6333
G01 X29.3373 Y11.5705
G01 X29.3418 Y11.5660
G01 X29.4046 Y11.5091
G01 X29.4095 Y11.5050
G01 X29.4776 Y11.4545
G01 X29.4829 Y11.4510
G01 X29.5556 Y11.4074
G01 X29.5612 Y11.4044
G01 X29.6378 Y11.3682
G01 X29.6437 Y11.3657
G01 X29.7235 Y11.3372
G01 X29.7296 Y11.3353
G01 X29.8119 Y11.3147
G01 X29.8181 Y11.3135
G01 X29.9019 Y11.3011
G01 X29.9083 Y11.3004
G01 X29.9929 Y11.2963
G01 X29.9993 Y11.2963
G01 X30.0840 Y11.3004
G01 X30.0903 Y11.3011
G01 X30.1741 Y11.3135
G01 X30.1804 Y11.3147
G01 X30.2626 Y11.3353
G01 X30.2687 Y11.3372
G01 X30.3485 Y11.3657
G01 X30.3544 Y11.3682
G01 X30.4310 Y11.4044
G01 X30.4366 Y11.4074
G01 X30.5093 Y11.4510
G01 X30.5146 Y11.4545
G01 X30.5827 Y11.5050
G01 X30.5876 Y11.5091
G01 X30.6504 Y11.5660
G01 X30.6549 Y11.5705
G01 X30.7119 Y11.6333
G01 X30.7159 Y11.6382
G01 X30.7664 Y11.7063
G01 X30.7699 Y11.7116
G01 X30.8135 Y11.7843
G01 X30.8165 Y11.7899
G01 X30.8527 Y11.8665
G01 X30.8552 Y11.8724
G01 X30.8837 Y11.9522
G01 X30.8856 Y11.9583
G01 X30.9062 Y12.0405
G01 X30.9074 Y12.0468
G01 X30.9199 Y12.1306
G01 X30.9205 Y12.1370
G01 X30.9246 Y12.2216
G01 X30.9246 Y12.2280
G01 X30.9205 Y12.3126
G01 X30.9199 Y12.3190
G01 X30.9074 Y12.4028
G01 X30.9062 Y12.4091
G01 X30.8856 Y12.4913
G01 X30.8837 Y12.4974
G01 X30.8552 Y12.5772
G01 X30.8527 Y12.5831
G01 X30.8165 Y12.6597
G01 X30.8135 Y12.6653
G01 X30.7699 Y12.7380
G01 X30.7664 Y12.7433
G01 X30.7159 Y12.8114
G01 X30.7119 Y12.8163
G01 X30.6549 Y12.8791
G01 X30.6504 Y12.8836
G01 X30.5876 Y12.9405
G01 X30.5827 Y12.9446
G01 X30.5146 Y12.9951
G01 X30.5093 Y12.9986
G01 X30.4366 Y13.0422
G01 X30.4310 Y13.0452
G01 X30.3544 Y13.0814
G01 X30.3485 Y13.0839
G01 X30.2687 Y13.1124
G01 X30.2626 Y13.1143
G01 X30.1804 Y13.1349
G01 X30.1741 Y13.1361
G01 X30.0903 Y13.1485
G01 X30.0840 Y13.1492
G01 X29.9993 Y13.1533
G01 X29.9929 Y13.1533
G01 X29.9083 Y13.1492
G01 X29.9019 Y13.1485
G01 X29.8181 Y13.1361
G01 X29.8119 Y13.1349
G01 X29.7296 Y13.1143
G01 X29.7235 Y13.1124
G01 X29.6437 Y13.0839
G01 X29.6378 Y13.0814
G01 X29.5612 Y13.0452
G01 X29.5556 Y13.0422
G01 X29.4829 Y12.9986
G01 X29.4776 Y12.9951
G01 X29.4095 Y12.9446
G01 X29.4046 Y12.9405
G01 X29.3418 Y12.8836
G01 X29.3373 Y12.8791
G01 X29.2804 Y12.8163
G01 X29.2763 Y12.8114
G01 X29.2259 Y12.7433
G01 X29.2223 Y12.7380
G01 X29.1787 Y12.6653
G01 X29.1757 Y12.6597
G01 X29.1395 Y12.5831
G01 X29.1371 Y12.5772
G01 X29.1085 Y12.4974
G01 X29.1067 Y12.4913
G01 X29.0861 Y12.4091
G01 X29.0848 Y12.4028
G01 X29.0724 Y12.3190
G01 X29.0718 Y12.3126
G01 X29.0676 Y12.2280
G00 Z2.0000
G00 X29.0676 Y9.6880
G01 F800.00
G01 Z-0.0851
G01 F60.00
G01 X29.0676 Y9.6816
G01 X29.0718 Y9.5970
G01 X29.0724 Y9.5906
G01 X29.0848 Y9.5068
G01 X29.0861 Y9.5005
G01 X29.1067 Y9.4183
G01 X29.1085 Y9.4122
G01 X29.1371 Y9.3324
G01 X29.1395 Y9.3265
G01 X29.1757 Y9.2499
G01 X29.1787 Y9.2443
G01 X29.2223 Y9.1716
G01 X29.2259 Y9.1663
G01 X29.2763 Y9.0982
G01 X29.2804 Y9.0933
G01 X29.3373 Y9.0305
G01 X29.3418 Y9.0260
G01 X29.4046 Y8.9691
G01 X29.4095 Y8.9650
G01 X29.4776 Y8.9145
G01 X29.4829 Y8.9110
G01 X29.5556 Y8.8674
G01 X29.5612 Y8.8644
G01 X29.6378 Y8.8282
G01 X29.6437 Y8.8257
G01 X29.7235 Y8.7972
G01 X29.7296 Y8.7953
G01 X29.8119 Y8.7747
G01 X29.8181 Y8.7735
G01 X29.9019 Y8.7611
G01 X29.9083 Y8.7604
G01 X29.9929 Y8.7563
G01 X29.9993 Y8.7563
G01 X30.0840 Y8.7604
G01 X30.0903 Y8.7611
G01 X30.1741 Y8.7735
G01 X30.1804 Y8.7747
G01 X30.2626 Y8.7953
G01 X30.2687 Y8.7972
G01 X30.3485 Y8.8257
G01 X30.3544 Y8.8282
G01 X30.4310 Y8.8644
G01 X30.4366 Y8.8674
G01 X30.5093 Y8.9110
G01 X30.5146 Y8.9145
G01 X30.5827 Y8.9650
G01 X30.5876 Y8.9691
G01 X30.6504 Y9.0260
G01 X30.6549 Y9.0305
G01 X30.7119 Y9.0933
G01 X30.7159 Y9.0982
G01 X30.7664 Y9.1663
G01 X30.7699 Y9.1716
G01 X30.8135 Y9.2443
G01 X30.8165 Y9.2499
G01 X30.8527 Y9.3265
G01 X30.8552 Y9.3324
G01 X30.8837 Y9.4122
G01 X30.8856 Y9.4183
G01 X30.9062 Y9.5005
G01 X30.9074 Y9.5068
G01 X30.9199 Y9.5906
G01 X30.9205 Y9.5970
G01 X30.9246 Y9.6816
G01 X30.9246 Y9.6880
G01 X30.9205 Y9.7726
G01 X30.9199 Y9.7790
G01 X30.9074 Y9.8628
G01 X30.9062 Y9.8691
G01 X30.8856 Y9.9513
G01 X30.8837 Y9.9574
G01 X30.8552 Y10.0372
G01 X30.8527 Y10.0431
G01 X30.8165 Y10.1197
G01 X30.8135 Y10.1253
G01 X30.7699 Y10.1980
G01 X30.7664 Y10.2033
G01 X30.7159 Y10.2714
G01 X30.7119 Y10.2763
G01 X30.6549 Y10.3391
G01 X30.6504 Y10.3436
G01 X30.5876 Y10.4005
G01 X30.5827 Y10.4046
G01 X30.5146 Y10.4551
G01 X30.5093 Y10.4586
G01 X30.4366 Y10.5022
G01 X30.4310 Y10.5052
G01 X30.3544 Y10.5414
G01 X30.3485 Y10.5439
G01 X30.2687 Y10.5724
G01 X30.2626 Y10.5743
G01 X30.1804 Y10.5949
G01 X30.1741 Y10.5961
G01 X30.0903 Y10.6085
G01 X30.0840 Y10.6092
G01 X29.9993 Y10.6133
G01 X29.9929 Y10.6133
G01 X29.9083 Y10.6092
G01 X29.9019 Y10.6085
G01 X29.8181 Y10.5961
G01 X29.8119 Y10.5949
G01 X29.7296 Y10.5743
G01 X29.7235 Y10.5724
G01 X29.6437 Y10.5439
G01 X29.6378 Y10.5414
G01 X29.5612 Y10.5052
G01 X29.5556 Y10.5022
G01 X29.4829 Y10.4586
G01 X29.4776 Y10.4551
G01 X29.4095 Y10.4046
G01 X29.4046 Y10.4005
G01 X29.3418 Y10.3436
G01 X29.3373 Y10.3391
G01 X29.2804 Y10.2763
G01 X29.2763 Y10.2714
G01 X29.2259 Y10.2033
G01 X29.2223 Y10.1980
G01 X29.1787 Y10.1253
G01 X29.1757 Y10.1197
G01 X29.1395 Y10.0431
G01 X29.1371 Y10.0372
G01 X29.1085 Y9.9574
G01 X29.1067 Y9.9513
G01 X29.0861 Y9.8691
G01 X29.0848 Y9.8628
G01 X29.0724 Y9.7790
G01 X29.0718 Y9.7726
G01 X29.0676 Y9.6880
G00 Z2.0000
G00 X29.3384 Y7.8002
G01 F800.00
G01 Z-0.0851
G01 F60.00
G01 X28.1011 Y9.0374
G01 X28.1011 Y15.7563
G01 X29.3659 Y17.0211
G01 X29.5802 Y16.8067
G01 X29.5850 Y16.8025
G01 X29.5901 Y16.7987
G01 X29.5956 Y16.7954
G01 X29.6013 Y16.7926
G01 X29.6073 Y16.7905
G01 X29.6135 Y16.7890
G01 X29.6198 Y16.7880
G01 X29.6262 Y16.7877
G01 X30.3416 Y16.7877
G01 X30.3480 Y16.7880
G01 X30.3543 Y16.7890
G01 X30.3605 Y16.7905
G01 X30.3665 Y16.7926
G01 X30.3723 Y16.7954
G01 X30.3778 Y16.7987
G01 X30.3829 Y16.8025
G01 X30.3876 Y16.8067
G01 X30.8935 Y17.3126
G01 X30.8978 Y17.3174
G01 X30.9016 Y17.3225
G01 X30.9048 Y17.3279
G01 X30.9076 Y17.3337
G01 X30.9097 Y17.3397
G01 X30.9113 Y17.3459
G01 X30.9122 Y17.3522
G01 X30.9125 Y17.3586
G01 X30.9125 Y18.0740
G01 X30.9122 Y18.0804
G01 X30.9113 Y18.0867
G01 X30.9097 Y18.0929
G01 X30.9076 Y18.0989
G01 X30.9048 Y18.1047
G01 X30.9016 Y18.1101
G01 X30.8978 Y18.1152
G01 X30.8935 Y18.1200
G01 X30.3876 Y18.6259
G01 X30.3829 Y18.6301
G01 X30.3778 Y18.6339
G01 X30.3723 Y18.6372
G01 X30.3665 Y18.6400
G01 X30.3605 Y18.6421
G01 X30.3543 Y18.6436
G01 X30.3480 Y18.6446
G01 X30.3416 Y18.6449
G01 X29.6262 Y18.6449
G01 X29.6198 Y18.6446
G01 X29.6135 Y18.6436
G01 X29.6073 Y18.6421
G01 X29.6013 Y18.6400
G01 X29.5956 Y18.6372
G01 X29.5901 Y18.6339
G01 X29.5850 Y18.6301
G01 X29.5802 Y18.6259
G01 X29.0744 Y18.1200
G01 X29.0701 Y18.1152
G01 X29.0663 Y18.1101
G01 X29.0630 Y18.1047
G01 X29.0603 Y18.0989
G01 X29.0581 Y18.0929
G01 X29.0566 Y18.0867
G01 X29.0556 Y18.0804
G01 X29.0553 Y18.0740
G01 X29.0553 Y17.8848
G01 X27.3924 Y16.2219
G01 X27.3650 Y16.1917
G01 X27.3407 Y16.1590
G01 X27.3214 Y16.1268
G01 X27.3183 Y16.1212
G01 X27.3037 Y16.0901
G01 X27.3012 Y16.0842
G01 X27.2886 Y16.0488
G01 X27.2787 Y16.0093
G01 X27.2728 Y15.9690
G01 X27.2708 Y15.9315
G01 X27.2707 Y8.8654
G01 X27.2725 Y8.8279
G01 X27.2731 Y8.8215
G01 X27.2782 Y8.7875
G01 X27.2794 Y8.7813
G01 X27.2878 Y8.7480
G01 X27.2896 Y8.7418
G01 X27.3012 Y8.7095
G01 X27.3036 Y8.7036
G01 X27.3183 Y8.6725
G01 X27.3213 Y8.6669
G01 X27.3390 Y8.6374
G01 X27.3426 Y8.6321
G01 X27.3630 Y8.6045
G01 X27.3671 Y8.5996
G01 X27.3924 Y8.5718
G01 X29.1175 Y6.8471
G01 X29.1371 Y6.7924
G01 X29.1395 Y6.7865
G01 X29.1757 Y6.7099
G01 X29.1787 Y6.7043
G01 X29.2223 Y6.6316
G01 X29.2259 Y6.6263
G01 X29.2763 Y6.5582
G01 X29.2804 Y6.5533
G01 X29.3373 Y6.4905
G01 X29.3418 Y6.4860
G01 X29.4046 Y6.4291
G01 X29.4095 Y6.4250
G01 X29.4776 Y6.3745
G01 X29.4829 Y6.3710
G01 X29.5556 Y6.3274
G01 X29.5612 Y6.3244
G01 X29.6378 Y6.2882
G01 X29.6437 Y6.2857
G01 X29.7235 Y6.2572
G01 X29.7296 Y6.2553
G01 X29.8119 Y6.2347
G01 X29.8181 Y6.2335
G01 X29.9019 Y6.2211
G01 X29.9083 Y6.2204
G01 X29.9929 Y6.2163
G01 X29.9993 Y6.2163
G01 X30.0840 Y6.2204
G01 X30.0903 Y6.2211
G01 X30.1741 Y6.2335
G01 X30.1890 Y6.2369
G01 X30.1890 Y5.2271
G01 X30.1094 Y5.2862
G01 X30.1041 Y5.2897
G01 X30.0185 Y5.3410
G01 X30.0129 Y5.3440
G01 X29.9227 Y5.3867
G01 X29.9168 Y5.3891
G01 X29.8229 Y5.4227
G01 X29.8168 Y5.4246
G01 X29.7200 Y5.4488
G01 X29.7138 Y5.4501
G01 X29.6151 Y5.4647
G01 X29.6087 Y5.4653
G01 X29.5091 Y5.4702
G01 X29.5027 Y5.4702
G01 X29.4031 Y5.4653
G01 X29.3968 Y5.4647
G01 X29.2981 Y5.4501
G01 X29.2918 Y5.4488
G01 X29.1951 Y5.4246
G01 X29.1890 Y5.4227
G01 X29.0950 Y5.3891
G01 X29.0891 Y5.3867
G01 X28.9990 Y5.3440
G01 X28.9933 Y5.3410
G01 X28.9078 Y5.2897
G01 X28.9025 Y5.2862
G01 X28.8223 Y5.2268
G01 X28.8174 Y5.2227
G01 X28.7435 Y5.1557
G01 X28.7390 Y5.1512
G01 X28.6720 Y5.0773
G01 X28.6679 Y5.0724
G01 X28.6085 Y4.9923
G01 X28.6050 Y4.9870
G01 X28.5537 Y4.9014
G01 X28.5507 Y4.8958
G01 X28.5080 Y4.8056
G01 X28.5056 Y4.7997
G01 X28.4720 Y4.7058
G01 X28.4701 Y4.6997
G01 X28.4459 Y4.6029
G01 X28.4447 Y4.5966
G01 X28.4300 Y4.4980
G01 X28.4294 Y4.4916
G01 X28.4244 Y4.3888
G01 X28.4244 Y2.3568
G01 X28.4294 Y2.2540
G01 X28.4300 Y2.2476
G01 X28.4447 Y2.1490
G01 X28.4459 Y2.1427
G01 X28.4701 Y2.0459
G01 X28.4720 Y2.0398
G01 X28.5056 Y1.9459
G01 X28.5080 Y1.9400
G01 X28.5507 Y1.8498
G01 X28.5537 Y1.8442
G01 X28.6050 Y1.7586
G01 X28.6085 Y1.7533
G01 X28.6679 Y1.6732
G01 X28.6720 Y1.6683
G01 X28.7390 Y1.5944
G01 X28.7435 Y1.5899
G01 X28.8174 Y1.5229
G01 X28.8223 Y1.5188
G01 X28.9025 Y1.4594
G01 X28.9078 Y1.4559
G01 X28.9933 Y1.4046
G01 X28.9990 Y1.4016
G01 X29.0891 Y1.3589
G01 X29.0950 Y1.3565
G01 X29.1890 Y1.3229
G01 X29.1951 Y1.3210
G01 X29.2918 Y1.2968
G01 X29.2981 Y1.2955
G01 X29.3968 Y1.2809
G01 X29.4031 Y1.2803
G01 X29.5027 Y1.2754
G01 X29.5091 Y1.2754
G01 X29.6087 Y1.2803
G01 X29.6151 Y1.2809
G01 X29.7138 Y1.2955
G01 X29.7200 Y1.2968
G01 X29.8168 Y1.3210
G01 X29.8229 Y1.3229
G01 X29.9168 Y1.3565
G01 X29.9227 Y1.3589
G01 X30.0129 Y1.4016
G01 X30.0185 Y1.4046
G01 X30.1041 Y1.4559
G01 X30.1094 Y1.4594
G01 X30.1895 Y1.5188
G01 X30.1944 Y1.5229
G01 X30.2684 Y1.5899
G01 X30.2729 Y1.5944
G01 X30.3399 Y1.6683
G01 X30.3439 Y1.6732
G01 X30.4033 Y1.7533
G01 X30.4069 Y1.7586
G01 X30.4582 Y1.8442
G01 X30.4612 Y1.8498
G01 X30.5038 Y1.9400
G01 X30.5063 Y1.9459
G01 X30.5399 Y2.0398
G01 X30.5417 Y2.0459
G01 X30.5660 Y2.1427
G01 X30.5672 Y2.1490
G01 X30.5818 Y2.2476
G01 X30.5825 Y2.2540
G01 X30.5874 Y2.3536
G01 X30.5874 Y3.4174
G01 X30.8978 Y3.7277
G01 X30.9231 Y3.7555
G01 X30.9271 Y3.7604
G01 X30.9476 Y3.7880
G01 X30.9511 Y3.7933
G01 X30.9688 Y3.8228
G01 X30.9718 Y3.8284
G01 X30.9865 Y3.8595
G01 X30.9889 Y3.8654
G01 X31.0005 Y3.8978
G01 X31.0024 Y3.9039
G01 X31.0107 Y3.9372
G01 X31.0120 Y3.9434
G01 X31.0170 Y3.9774
G01 X31.0176 Y3.9838
G01 X31.0194 Y4.0213
G01 X31.0193 Y6.5399
G01 X31.0176 Y6.5742
G01 X31.0170 Y6.5806
G01 X31.0120 Y6.6146
G01 X31.0107 Y6.6208
G01 X31.0024 Y6.6541
G01 X31.0005 Y6.6602
G01 X30.9889 Y6.6926
G01 X30.9865 Y6.6985
G01 X30.9718 Y6.7296
G01 X30.9688 Y6.7352
G01 X30.9511 Y6.7647
G01 X30.9476 Y6.7700
G01 X30.9271 Y6.7976
G01 X30.9231 Y6.8025
G01 X30.9000 Y6.8280
G01 X30.8764 Y6.8517
G01 X30.8856 Y6.8783
G01 X30.9062 Y6.9605
G01 X30.9074 Y6.9668
G01 X30.9199 Y7.0506
G01 X30.9205 Y7.0570
G01 X30.9246 Y7.1416
G01 X30.9246 Y7.1480
G01 X30.9205 Y7.2326
G01 X30.9199 Y7.2390
G01 X30.9074 Y7.3228
G01 X30.9062 Y7.3291
G01 X30.8856 Y7.4113
G01 X30.8837 Y7.4174
G01 X30.8552 Y7.4972
G01 X30.8527 Y7.5031
G01 X30.8165 Y7.5797
G01 X30.8135 Y7.5853
G01 X30.7699 Y7.6580
G01 X30.7664 Y7.6633
G01 X30.7159 Y7.7314
G01 X30.7119 Y7.7363
G01 X30.6549 Y7.7991
G01 X30.6504 Y7.8036
G01 X30.5876 Y7.8605
G01 X30.5827 Y7.8646
G01 X30.5146 Y7.9151
G01 X30.5093 Y7.9186
G01 X30.4366 Y7.9622
G01 X30.4310 Y7.9652
G01 X30.3544 Y8.0014
G01 X30.3485 Y8.0039
G01 X30.2687 Y8.0324
G01 X30.2626 Y8.0343
G01 X30.1804 Y8.0549
G01 X30.1741 Y8.0561
G01 X30.0903 Y8.0685
G01 X30.0840 Y8.0692
G01 X29.9993 Y8.0733
G01 X29.9929 Y8.0733
G01 X29.9083 Y8.0692
G01 X29.9019 Y8.0685
G01 X29.8181 Y8.0561
G01 X29.8119 Y8.0549
G01 X29.7296 Y8.0343
G01 X29.7235 Y8.0324
G01 X29.6437 Y8.0039
G01 X29.6378 Y8.0014
G01 X29.5612 Y7.9652
G01 X29.5556 Y7.9622
G01 X29.4829 Y7.9186
G01 X29.4776 Y7.9151
G01 X29.4095 Y7.8646
G01 X29.4046 Y7.8605
G01 X29.3384 Y7.8002
G00 Z2.0000
G00 X23.2214 Y3.7880
G01 F800.00
G01 Z-0.0851
G01 F60.00
G01 X23.3444 Y3.7880
G01 X23.3444 Y4.3888
G01 X23.3494 Y4.4916
G01 X23.3500 Y4.4980
G01 X23.3647 Y4.5966
G01 X23.3659 Y4.6029
G01 X23.3901 Y4.6997
G01 X23.3920 Y4.7058
G01 X23.4256 Y4.7997
G01 X23.4280 Y4.8056
G01 X23.4707 Y4.8958
G01 X23.4737 Y4.9014
G01 X23.5250 Y4.9870
G01 X23.5285 Y4.9923
G01 X23.5879 Y5.0724
G01 X23.5920 Y5.0773
G01 X23.6590 Y5.1512
G01 X23.6635 Y5.1557
G01 X23.7374 Y5.2227
G01 X23.7423 Y5.2268
G01 X23.8225 Y5.2862
G01 X23.8278 Y5.2897
G01 X23.9133 Y5.3410
G01 X23.9190 Y5.3440
G01 X24.0107 Y5.3874
G01 X24.0107 Y5.5204
G01 X23.9635 Y5.5051
G01 X23.7946 Y5.4190
G01 X23.6412 Y5.3076
G01 X23.5071 Y5.1736
G01 X23.3957 Y5.0201
G01 X23.3097 Y4.8512
G01 X23.2510 Y4.6709
G01 X23.2214 Y4.4836
G01 X23.2214 Y3.7880
G00 Z2.0000
G00 X24.0065 Y1.3602
G01 F800.00
G01 Z-0.0851
G01 F60.00
G01 X23.9190 Y1.4016
G01 X23.9133 Y1.4046
G01 X23.8278 Y1.4559
G01 X23.8225 Y1.4594
G01 X23.7423 Y1.5188
G01 X23.7374 Y1.5229
G01 X23.6635 Y1.5899
G01 X23.6590 Y1.5944
G01 X23.5920 Y1.6683
G01 X23.5879 Y1.6732
G01 X23.5285 Y1.7533
G01 X23.5250 Y1.7586
G01 X23.4737 Y1.8442
G01 X23.4707 Y1.8498
G01 X23.4280 Y1.9400
G01 X23.4256 Y1.9459
G01 X23.3920 Y2.0398
G01 X23.3901 Y2.0459
G01 X23.3659 Y2.1427
G01 X23.3647 Y2.1490
G01 X23.3500 Y2.2476
G01 X23.3494 Y2.2540
G01 X23.3444 Y2.3568
G01 X23.3444 Y2.9576
G01 X23.2214 Y2.9576
G01 X23.2214 Y2.2620
G01 X23.2510 Y2.0748
G01 X23.3097 Y1.8945
G01 X23.3957 Y1.7256
G01 X23.5071 Y1.5721
G01 X23.6412 Y1.4381
G01 X23.7946 Y1.3266
G01 X23.9635 Y1.2405
G01 X24.0362 Y1.2169
G01 X24.0248 Y1.2487
G01 X24.0230 Y1.2548
G01 X24.0146 Y1.2881
G01 X24.0134 Y1.2943
G01 X24.0083 Y1.3283
G01 X24.0077 Y1.3347
G01 X24.0065 Y1.3602
G00 Z2.0000
G00 X19.5097 Y3.1596
G01 F800.00
G01 Z-0.0851
G01 F60.00
G01 X20.0849 Y3.1596
G01 X20.1224 Y3.1614
G01 X20.1288 Y3.1620
G01 X20.1628 Y3.1671
G01 X20.1690 Y3.1683
G01 X20.2024 Y3.1767
G01 X20.2085 Y3.1785
G01 X20.2408 Y3.1901
G01 X20.2467 Y3.1925
G01 X20.2778 Y3.2072
G01 X20.2834 Y3.2102
G01 X20.3129 Y3.2279
G01 X20.3182 Y3.2314
G01 X20.3458 Y3.2519
G01 X20.3507 Y3.2559
G01 X20.3785 Y3.2812
G01 X22.6697 Y5.5724
G01 X22.6950 Y5.6002
G01 X22.6990 Y5.6051
G01 X22.7195 Y5.6327
G01 X22.7230 Y5.6380
G01 X22.7407 Y5.6675
G01 X22.7437 Y5.6731
G01 X22.7584 Y5.7042
G01 X22.7608 Y5.7101
G01 X22.7724 Y5.7425
G01 X22.7743 Y5.7486
G01 X22.7826 Y5.7819
G01 X22.7839 Y5.7881
G01 X22.7889 Y5.8221
G01 X22.7895 Y5.8285
G01 X22.7913 Y5.8660
G01 X22.7913 Y6.3151
G01 X22.8166 Y6.3274
G01 X22.8893 Y6.3710
G01 X22.8946 Y6.3745
G01 X22.9627 Y6.4250
G01 X22.9676 Y6.4291
G01 X23.0304 Y6.4860
G01 X23.0349 Y6.4905
G01 X23.0919 Y6.5533
G01 X23.0959 Y6.5582
G01 X23.1464 Y6.6263
G01 X23.1499 Y6.6316
G01 X23.1935 Y6.7043
G01 X23.1965 Y6.7099
G01 X23.2327 Y6.7865
G01 X23.2352 Y6.7924
G01 X23.2637 Y6.8722
G01 X23.2656 Y6.8783
G01 X23.2862 Y6.9605
G01 X23.2874 Y6.9668
G01 X23.2999 Y7.0506
G01 X23.3005 Y7.0570
G01 X23.3046 Y7.1416
G01 X23.3046 Y7.1480
G01 X23.3005 Y7.2326
G01 X23.2999 Y7.2390
G01 X23.2874 Y7.3228
G01 X23.2862 Y7.3291
G01 X23.2656 Y7.4113
G01 X23.2637 Y7.4174
G01 X23.2352 Y7.4972
G01 X23.2327 Y7.5031
G01 X23.1965 Y7.5797
G01 X23.1935 Y7.5853
G01 X23.1499 Y7.6580
G01 X23.1464 Y7.6633
G01 X23.0959 Y7.7314
G01 X23.0919 Y7.7363
G01 X23.0349 Y7.7991
G01 X23.0304 Y7.8036
G01 X22.9676 Y7.8605
G01 X22.9627 Y7.8646
G01 X22.8946 Y7.9151
G01 X22.8893 Y7.9186
G01 X22.8166 Y7.9622
G01 X22.8110 Y7.9652
G01 X22.7344 Y8.0014
G01 X22.7285 Y8.0039
G01 X22.6487 Y8.0324
G01 X22.6426 Y8.0343
G01 X22.5604 Y8.0549
G01 X22.5541 Y8.0561
G01 X22.4703 Y8.0685
G01 X22.4640 Y8.0692
G01 X22.3793 Y8.0733
G01 X22.3729 Y8.0733
G01 X22.2883 Y8.0692
G01 X22.2819 Y8.0685
G01 X22.1981 Y8.0561
G01 X22.1919 Y8.0549
G01 X22.1096 Y8.0343
G01 X22.1035 Y8.0324
G01 X22.0237 Y8.0039
G01 X22.0178 Y8.0014
G01 X21.9412 Y7.9652
G01 X21.9356 Y7.9622
G01 X21.8629 Y7.9186
G01 X21.8576 Y7.9151
G01 X21.7895 Y7.8646
G01 X21.7846 Y7.8605
G01 X21.7218 Y7.8036
G01 X21.7173 Y7.7991
G01 X21.6604 Y7.7363
G01 X21.6563 Y7.7314
G01 X21.6059 Y7.6633
G01 X21.6023 Y7.6580
G01 X21.5587 Y7.5853
G01 X21.5557 Y7.5797
G01 X21.5195 Y7.5031
G01 X21.5171 Y7.4972
G01 X21.4885 Y7.4174
G01 X21.4867 Y7.4113
G01 X21.4661 Y7.3291
G01 X21.4648 Y7.3228
G01 X21.4524 Y7.2390
G01 X21.4518 Y7.2326
G01 X21.4476 Y7.1480
G01 X21.4476 Y7.1416
G01 X21.4518 Y7.0570
G01 X21.4524 Y7.0506
G01 X21.4648 Y6.9668
G01 X21.4661 Y6.9605
G01 X21.4867 Y6.8783
G01 X21.4885 Y6.8722
G01 X21.5171 Y6.7924
G01 X21.5195 Y6.7865
G01 X21.5557 Y6.7099
G01 X21.5587 Y6.7043
G01 X21.6023 Y6.6316
G01 X21.6059 Y6.6263
G01 X21.6563 Y6.5582
G01 X21.6604 Y6.5533
G01 X21.7173 Y6.4905
G01 X21.7218 Y6.4860
G01 X21.7846 Y6.4291
G01 X21.7895 Y6.4250
G01 X21.8576 Y6.3745
G01 X21.8629 Y6.3710
G01 X21.9356 Y6.3274
G01 X21.9609 Y6.3151
G01 X21.9609 Y6.0380
G01 X19.9130 Y3.9900
G01 X19.5097 Y3.9900
G01 X19.0153 Y4.4844
G01 X19.0106 Y4.4886
G01 X19.0055 Y4.4924
G01 X19.0000 Y4.4957
G01 X18.9942 Y4.4985
G01 X18.9882 Y4.5006
G01 X18.9820 Y4.5021
G01 X18.9757 Y4.5031
G01 X18.9693 Y4.5034
G01 X18.2539 Y4.5034
G01 X18.2475 Y4.5031
G01 X18.2412 Y4.5021
G01 X18.2350 Y4.5006
G01 X18.2290 Y4.4985
G01 X18.2233 Y4.4957
G01 X18.2178 Y4.4924
G01 X18.2127 Y4.4886
G01 X18.2079 Y4.4844
G01 X17.7021 Y3.9785
G01 X17.6978 Y3.9737
G01 X17.6940 Y3.9686
G01 X17.6907 Y3.9632
G01 X17.6880 Y3.9574
G01 X17.6858 Y3.9514
G01 X17.6843 Y3.9452
G01 X17.6833 Y3.9389
G01 X17.6830 Y3.9325
G01 X17.6830 Y3.2171
G01 X17.6833 Y3.2107
G01 X17.6843 Y3.2044
G01 X17.6858 Y3.1982
G01 X17.6880 Y3.1922
G01 X17.6907 Y3.1864
G01 X17.6940 Y3.1810
G01 X17.6978 Y3.1759
G01 X17.7021 Y3.1711
G01 X18.2079 Y2.6652
G01 X18.2127 Y2.6610
G01 X18.2178 Y2.6572
G01 X18.2233 Y2.6539
G01 X18.2290 Y2.6511
G01 X18.2350 Y2.6490
G01 X18.2412 Y2.6475
G01 X18.2475 Y2.6465
G01 X18.2539 Y2.6462
G01 X18.9693 Y2.6462
G01 X18.9757 Y2.6465
G01 X18.9820 Y2.6475
G01 X18.9882 Y2.6490
G01 X18.9942 Y2.6511
G01 X19.0000 Y2.6539
G01 X19.0055 Y2.6572
G01 X19.0106 Y2.6610
G01 X19.0153 Y2.6652
G01 X19.5097 Y3.1596
G00 Z2.0000
G00 X7.5536 Y3.1596
G01 F800.00
G01 Z-0.0851
G01 F60.00
G01 X8.0479 Y2.6652
G01 X8.0527 Y2.6610
G01 X8.0578 Y2.6572
G01 X8.0633 Y2.6539
G01 X8.0690 Y2.6511
G01 X8.0750 Y2.6490
G01 X8.0812 Y2.6475
G01 X8.0875 Y2.6465
G01 X8.0939 Y2.6462
G01 X8.8093 Y2.6462
G01 X8.8157 Y2.6465
G01 X8.8220 Y2.6475
G01 X8.8282 Y2.6490
G01 X8.8342 Y2.6511
G01 X8.8400 Y2.6539
G01 X8.8455 Y2.6572
G01 X8.8506 Y2.6610
G01 X8.8553 Y2.6652
G01 X9.3497 Y3.1596
G01 X12.4389 Y3.1596
G01 X12.4764 Y3.1614
G01 X12.4828 Y3.1620
G01 X12.5168 Y3.1671
G01 X12.5230 Y3.1683
G01 X12.5564 Y3.1767
G01 X12.5625 Y3.1785
G01 X12.5948 Y3.1901
G01 X12.6007 Y3.1925
G01 X12.6318 Y3.2072
G01 X12.6374 Y3.2102
G01 X12.6669 Y3.2279
G01 X12.6722 Y3.2314
G01 X12.6998 Y3.2519
G01 X12.7047 Y3.2559
G01 X12.7325 Y3.2812
G01 X15.5334 Y6.0821
G01 X17.8120 Y6.0821
G01 X18.3063 Y5.5877
G01 X18.3111 Y5.5835
G01 X18.3162 Y5.5797
G01 X18.3217 Y5.5764
G01 X18.3274 Y5.5736
G01 X18.3334 Y5.5715
G01 X18.3396 Y5.5700
G01 X18.3459 Y5.5690
G01 X18.3523 Y5.5687
G01 X19.0677 Y5.5687
G01 X19.0741 Y5.5690
G01 X19.0804 Y5.5700
G01 X19.0866 Y5.5715
G01 X19.0926 Y5.5736
G01 X19.0984 Y5.5764
G01 X19.1039 Y5.5797
G01 X19.1090 Y5.5835
G01 X19.1137 Y5.5877
G01 X19.6196 Y6.0936
G01 X19.6239 Y6.0984
G01 X19.6277 Y6.1035
G01 X19.6309 Y6.1089
G01 X19.6337 Y6.1147
G01 X19.6358 Y6.1207
G01 X19.6374 Y6.1269
G01 X19.6383 Y6.1332
G01 X19.6386 Y6.1396
G01 X19.6386 Y6.6362
G01 X21.8945 Y8.8920
G01 X21.9356 Y8.8674
G01 X21.9412 Y8.8644
G01 X22.0178 Y8.8282
G01 X22.0237 Y8.8257
G01 X22.1035 Y8.7972
G01 X22.1096 Y8.7953
G01 X22.1919 Y8.7747
G01 X22.1981 Y8.7735
G01 X22.2819 Y8.7611
G01 X22.2883 Y8.7604
G01 X22.3729 Y8.7563
G01 X22.3793 Y8.7563
G01 X22.4640 Y8.7604
G01 X22.4703 Y8.7611
G01 X22.5541 Y8.7735
G01 X22.5604 Y8.7747
G01 X22.6426 Y8.7953
G01 X22.6487 Y8.7972
G01 X22.7285 Y8.8257
G01 X22.7344 Y8.8282
G01 X22.8110 Y8.8644
G01 X22.8166 Y8.8674
G01 X22.8893 Y8.9110
G01 X22.8946 Y8.9145
G01 X22.9627 Y8.9650
G01 X22.9676 Y8.9691
G01 X23.0304 Y9.0260
G01 X23.0349 Y9.0305
G01 X23.0919 Y9.0933
G01 X23.0959 Y9.0982
G01 X23.1464 Y9.1663
G01 X23.1499 Y9.1716
G01 X23.1935 Y9.2443
G01 X23.1965 Y9.2499
G01 X23.2327 Y9.3265
G01 X23.2352 Y9.3324
G01 X23.2637 Y9.4122
G01 X23.2656 Y9.4183
G01 X23.2862 Y9.5005
G01 X23.2874 Y9.5068
G01 X23.2999 Y9.5906
G01 X23.3005 Y9.5970
G01 X23.3046 Y9.6816
G01 X23.3046 Y9.6880
G01 X23.3005 Y9.7726
G01 X23.2999 Y9.7790
G01 X23.2874 Y9.8628
G01 X23.2862 Y9.8691
G01 X23.2656 Y9.9513
G01 X23.2637 Y9.9574
G01 X23.2352 Y10.0372
G01 X23.2327 Y10.0431
G01 X23.1965 Y10.1197
G01 X23.1935 Y10.1253
G01 X23.1499 Y10.1980
G01 X23.1464 Y10.2033
G01 X23.0959 Y10.2714
G01 X23.0919 Y10.2763
G01 X23.0349 Y10.3391
G01 X23.0304 Y10.3436
G01 X22.9676 Y10.4005
G01 X22.9627 Y10.4046
G01 X22.8946 Y10.4551
G01 X22.8893 Y10.4586
G01 X22.8166 Y10.5022
G01 X22.8110 Y10.5052
G01 X22.7344 Y10.5414
G01 X22.7285 Y10.5439
G01 X22.6487 Y10.5724
G01 X22.6426 Y10.5743
G01 X22.5604 Y10.5949
G01 X22.5541 Y10.5961
G01 X22.4703 Y10.6085
G01 X22.4640 Y10.6092
G01 X22.3793 Y10.6133
G01 X22.3729 Y10.6133
G01 X22.2883 Y10.6092
G01 X22.2819 Y10.6085
G01 X22.1981 Y10.5961
G01 X22.1919 Y10.5949
G01 X22.1096 Y10.5743
G01 X22.1035 Y10.5724
G01 X22.0237 Y10.5439
G01 X22.0178 Y10.5414
G01 X21.9412 Y10.5052
G01 X21.9356 Y10.5022
G01 X21.8629 Y10.4586
G01 X21.8576 Y10.4551
G01 X21.7895 Y10.4046
G01 X21.7846 Y10.4005
G01 X21.7218 Y10.3436
G01 X21.7173 Y10.3391
G01 X21.6604 Y10.2763
G01 X21.6563 Y10.2714
G01 X21.6059 Y10.2033
G01 X21.6023 Y10.1980
G01 X21.5587 Y10.1253
G01 X21.5557 Y10.1197
G01 X21.5195 Y10.0431
G01 X21.5171 Y10.0372
G01 X21.4885 Y9.9574
G01 X21.4867 Y9.9513
G01 X21.4661 Y9.8691
G01 X21.4648 Y9.8628
G01 X21.4524 Y9.7790
G01 X21.4518 Y9.7726
G01 X21.4476 Y9.6880
G01 X21.4476 Y9.6816
G01 X21.4505 Y9.6223
G01 X19.1744 Y7.3462
G01 X19.1137 Y7.4069
G01 X19.1090 Y7.4111
G01 X19.1039 Y7.4149
G01 X19.0984 Y7.4182
G01 X19.0926 Y7.4210
G01 X19.0866 Y7.4231
G01 X19.0804 Y7.4246
G01 X19.0741 Y7.4256
G01 X19.0677 Y7.4259
G01 X18.3523 Y7.4259
G01 X18.3459 Y7.4256
G01 X18.3396 Y7.4246
G01 X18.3334 Y7.4231
G01 X18.3274 Y7.4210
G01 X18.3217 Y7.4182
G01 X18.3162 Y7.4149
G01 X18.3111 Y7.4111
G01 X18.3063 Y7.4069
G01 X17.8120 Y6.9125
G01 X15.3614 Y6.9125
G01 X15.3239 Y6.9107
G01 X15.3176 Y6.9101
G01 X15.2836 Y6.9050
G01 X15.2773 Y6.9038
G01 X15.2440 Y6.8954
G01 X15.2379 Y6.8936
G01 X15.2055 Y6.8820
G01 X15.1996 Y6.8796
G01 X15.1686 Y6.8649
G01 X15.1629 Y6.8619
G01 X15.1335 Y6.8442
G01 X15.1282 Y6.8407
G01 X15.1006 Y6.8202
G01 X15.0956 Y6.8162
G01 X15.0679 Y6.7909
G01 X12.2670 Y3.9900
G01 X9.3497 Y3.9900
G01 X8.8553 Y4.4844
G01 X8.8506 Y4.4886
G01 X8.8455 Y4.4924
G01 X8.8400 Y4.4957
G01 X8.8342 Y4.4985
G01 X8.8282 Y4.5006
G01 X8.8220 Y4.5021
G01 X8.8157 Y4.5031
G01 X8.8093 Y4.5034
G01 X8.0939 Y4.5034
G01 X8.0875 Y4.5031
G01 X8.0812 Y4.5021
G01 X8.0750 Y4.5006
G01 X8.0690 Y4.4985
G01 X8.0633 Y4.4957
G01 X8.0578 Y4.4924
G01 X8.0527 Y4.4886
G01 X8.0479 Y4.4844
G01 X7.5536 Y3.9900
G01 X6.7928 Y3.9900
G01 X6.7788 Y4.0292
G01 X6.7763 Y4.0351
G01 X6.7337 Y4.1253
G01 X6.7307 Y4.1309
G01 X6.6794 Y4.2165
G01 X6.6758 Y4.2218
G01 X6.6164 Y4.3019
G01 X6.6124 Y4.3068
G01 X6.5454 Y4.3807
G01 X6.5409 Y4.3852
G01 X6.4669 Y4.4522
G01 X6.4620 Y4.4563
G01 X6.3819 Y4.5157
G01 X6.3766 Y4.5192
G01 X6.2910 Y4.5705
G01 X6.2854 Y4.5735
G01 X6.1952 Y4.6162
G01 X6.1893 Y4.6186
G01 X6.0954 Y4.6522
G01 X6.0893 Y4.6541
G01 X5.9925 Y4.6783
G01 X5.9863 Y4.6796
G01 X5.8876 Y4.6942
G01 X5.8812 Y4.6948
G01 X5.7784 Y4.6998
G01 X3.7432 Y4.6997
G01 X3.6436 Y4.6948
G01 X3.6373 Y4.6942
G01 X3.5386 Y4.6796
G01 X3.5323 Y4.6783
G01 X3.4356 Y4.6541
G01 X3.4295 Y4.6522
G01 X3.3355 Y4.6186
G01 X3.3296 Y4.6162
G01 X3.2395 Y4.5735
G01 X3.2338 Y4.5705
G01 X3.1483 Y4.5192
G01 X3.1430 Y4.5157
G01 X3.0628 Y4.4563
G01 X3.0579 Y4.4522
G01 X2.9840 Y4.3852
G01 X2.9795 Y4.3807
G01 X2.9125 Y4.3068
G01 X2.9084 Y4.3019
G01 X2.8490 Y4.2218
G01 X2.8455 Y4.2165
G01 X2.7942 Y4.1309
G01 X2.7912 Y4.1253
G01 X2.7485 Y4.0351
G01 X2.7461 Y4.0292
G01 X2.7125 Y3.9353
G01 X2.7106 Y3.9292
G01 X2.6864 Y3.8324
G01 X2.6852 Y3.8261
G01 X2.6705 Y3.7275
G01 X2.6699 Y3.7211
G01 X2.6650 Y3.6215
G01 X2.6650 Y3.6151
G01 X2.6699 Y3.5155
G01 X2.6705 Y3.5091
G01 X2.6852 Y3.4105
G01 X2.6864 Y3.4042
G01 X2.7106 Y3.3074
G01 X2.7125 Y3.3013
G01 X2.7461 Y3.2074
G01 X2.7485 Y3.2015
G01 X2.7912 Y3.1113
G01 X2.7942 Y3.1057
G01 X2.8455 Y3.0201
G01 X2.8490 Y3.0148
G01 X2.9084 Y2.9347
G01 X2.9125 Y2.9298
G01 X2.9795 Y2.8559
G01 X2.9840 Y2.8514
G01 X3.0579 Y2.7844
G01 X3.0628 Y2.7803
G01 X3.1430 Y2.7209
G01 X3.1483 Y2.7174
G01 X3.2338 Y2.6661
G01 X3.2395 Y2.6631
G01 X3.3296 Y2.6204
G01 X3.3355 Y2.6180
G01 X3.4295 Y2.5844
G01 X3.4356 Y2.5825
G01 X3.5323 Y2.5583
G01 X3.5386 Y2.5570
G01 X3.6373 Y2.5424
G01 X3.6436 Y2.5418
G01 X3.7464 Y2.5368
G01 X5.7784 Y2.5368
G01 X5.8812 Y2.5418
G01 X5.8876 Y2.5424
G01 X5.9863 Y2.5570
G01 X5.9925 Y2.5583
G01 X6.0893 Y2.5825
G01 X6.0954 Y2.5844
G01 X6.1893 Y2.6180
G01 X6.1952 Y2.6204
G01 X6.2854 Y2.6631
G01 X6.2910 Y2.6661
G01 X6.3766 Y2.7174
G01 X6.3819 Y2.7209
G01 X6.4620 Y2.7803
G01 X6.4669 Y2.7844
G01 X6.5409 Y2.8514
G01 X6.5454 Y2.8559
G01 X6.6124 Y2.9298
G01 X6.6164 Y2.9347
G01 X6.6758 Y3.0148
G01 X6.6794 Y3.0201
G01 X6.7307 Y3.1057
G01 X6.7337 Y3.1113
G01 X6.7565 Y3.1596
G01 X7.5536 Y3.1596
G00 Z2.0000
M05
G00 Z2.0000
G00 Z2.00
G00 X0.0 Y0.0

