(G-CODE GENERATED BY FLATCAM v8.991 - www.flatcam.org - Version Date: 2019/12/27)

(Name: Drill_0.8)
(Type: G-code from Excellon)
(Units: MM)

(Created on Tuesday, 14 November 2023 at 10:30)

(Feedrate: 60.0 mm/min)
(Feedrate rapids 1500.0 mm/min)

(Z_Cut: -2.1 mm)
(Z_Move: 2.0 mm)
(Z Toolchange: 15.0 mm)
(X,Y Toolchange: 0.0000, 0.0000 mm)
(Z Start: None mm)
(Z End: 2.0 mm)
(Steps per circle: 64)
(Preprocessor Excellon: default)

(X range:    8.1174 ...   35.2999  mm)
(Y range:    5.0730 ...   32.1485  mm)

(Spindle Speed: 800.0 RPM)
G21
G90
G94




G01 F60.00
G00 Z2.0000

M03 S800.0
G00 X23.6654 Y30.1820
G01 Z-2.1000
G01 Z0
G00 Z2.0000
G00 X16.0454 Y30.1820
G01 Z-2.1000
G01 Z0
G00 Z2.0000
G00 X11.3914 Y31.1230
G01 Z-2.1000
G01 Z0
G00 Z2.0000
G00 X8.8754 Y31.4680
G01 Z-2.1000
G01 Z0
G00 Z2.0000
G00 X16.0454 Y27.6420
G01 Z-2.1000
G01 Z0
G00 Z2.0000
G00 X16.0454 Y25.1020
G01 Z-2.1000
G01 Z0
G00 Z2.0000
G00 X16.0454 Y22.5620
G01 Z-2.1000
G01 Z0
G00 Z2.0000
G00 X16.0454 Y20.0220
G01 Z-2.1000
G01 Z0
G00 Z2.0000
G00 X16.0454 Y17.4820
G01 Z-2.1000
G01 Z0
G00 Z2.0000
G00 X16.0454 Y14.9420
G01 Z-2.1000
G01 Z0
G00 Z2.0000
G00 X16.0454 Y12.4020
G01 Z-2.1000
G01 Z0
G00 Z2.0000
G00 X23.6654 Y12.4020
G01 Z-2.1000
G01 Z0
G00 Z2.0000
G00 X23.6654 Y14.9420
G01 Z-2.1000
G01 Z0
G00 Z2.0000
G00 X23.6654 Y17.4820
G01 Z-2.1000
G01 Z0
G00 Z2.0000
G00 X23.6654 Y20.0220
G01 Z-2.1000
G01 Z0
G00 Z2.0000
G00 X23.6654 Y22.5620
G01 Z-2.1000
G01 Z0
G00 Z2.0000
G00 X23.6654 Y25.1020
G01 Z-2.1000
G01 Z0
G00 Z2.0000
G00 X23.6654 Y27.6420
G01 Z-2.1000
G01 Z0
G00 Z2.0000
G00 X34.8934 Y31.7420
G01 Z-2.1000
G01 Z0
G00 Z2.0000
G00 X27.2734 Y31.7420
G01 Z-2.1000
G01 Z0
G00 Z2.0000
M05
G00 Z2.00
G00 X0.0 Y0.0

