(G-CODE GENERATED BY FLATCAM v8.991 - www.flatcam.org - Version Date: 2019/12/27)

(Name: Corte)
(Type: G-code from Geometry)
(Units: MM)

(Created on Tuesday, 14 November 2023 at 10:31)

(TOOL DIAMETER: 1.0 mm)
(Feedrate: 60.0 mm/min)
(Feedrate_Z: 60.0 mm/min)
(Feedrate rapids 1500.0 mm/min)

(Z_Cut: -2.0 mm)
(DepthPerCut: 0.5 mm <=>4 passes)
(Z_Move: 2.0 mm)
(Z Toolchange: 15.0 mm)
(X,Y Toolchange: 0.0000, 0.0000 mm)
(Z Start: None mm)
(Z End: 2.0 mm)
(Steps per circle: 64)
(Preprocessor Geometry: default)

(X range:    0.1158 ...   37.7246  mm)
(Y range:    0.2170 ...   35.1845  mm)

(Spindle Speed: 800 RPM)
G21
G90
G94




G01 F60.00
G00 Z2.0000

M03 S800
G00 X0.1158 Y16.5007
G01 F60.00
G01 Z-0.5000
G01 F60.00
G01 X0.1158 Y1.0170
G01 X0.1197 Y0.9386
G01 X0.1312 Y0.8609
G01 X0.1502 Y0.7848
G01 X0.1767 Y0.7109
G01 X0.2103 Y0.6399
G01 X0.2506 Y0.5725
G01 X0.2974 Y0.5095
G01 X0.3501 Y0.4513
G01 X0.4083 Y0.3986
G01 X0.4713 Y0.3518
G01 X0.5387 Y0.3115
G01 X0.6097 Y0.2779
G01 X0.6836 Y0.2514
G01 X0.7597 Y0.2324
G01 X0.8374 Y0.2209
G01 X0.9158 Y0.2170
G01 X36.9246 Y0.2170
G00 X36.9246 Y0.2170
G01 F60.00
G01 Z-1.0000
G01 F60.00
G01 X0.9158 Y0.2170
G01 X0.8374 Y0.2209
G01 X0.7597 Y0.2324
G01 X0.6836 Y0.2514
G01 X0.6097 Y0.2779
G01 X0.5387 Y0.3115
G01 X0.4713 Y0.3518
G01 X0.4083 Y0.3986
G01 X0.3501 Y0.4513
G01 X0.2974 Y0.5095
G01 X0.2506 Y0.5725
G01 X0.2103 Y0.6399
G01 X0.1767 Y0.7109
G01 X0.1502 Y0.7848
G01 X0.1312 Y0.8609
G01 X0.1197 Y0.9386
G01 X0.1158 Y1.0170
G01 X0.1158 Y16.5007
G00 X0.1158 Y16.5007
G01 F60.00
G01 Z-1.5000
G01 F60.00
G01 X0.1158 Y1.0170
G01 X0.1197 Y0.9386
G01 X0.1312 Y0.8609
G01 X0.1502 Y0.7848
G01 X0.1767 Y0.7109
G01 X0.2103 Y0.6399
G01 X0.2506 Y0.5725
G01 X0.2974 Y0.5095
G01 X0.3501 Y0.4513
G01 X0.4083 Y0.3986
G01 X0.4713 Y0.3518
G01 X0.5387 Y0.3115
G01 X0.6097 Y0.2779
G01 X0.6836 Y0.2514
G01 X0.7597 Y0.2324
G01 X0.8374 Y0.2209
G01 X0.9158 Y0.2170
G01 X36.9246 Y0.2170
G00 X36.9246 Y0.2170
G01 F60.00
G01 Z-2.0000
G01 F60.00
G01 X0.9158 Y0.2170
G01 X0.8374 Y0.2209
G01 X0.7597 Y0.2324
G01 X0.6836 Y0.2514
G01 X0.6097 Y0.2779
G01 X0.5387 Y0.3115
G01 X0.4713 Y0.3518
G01 X0.4083 Y0.3986
G01 X0.3501 Y0.4513
G01 X0.2974 Y0.5095
G01 X0.2506 Y0.5725
G01 X0.2103 Y0.6399
G01 X0.1767 Y0.7109
G01 X0.1502 Y0.7848
G01 X0.1312 Y0.8609
G01 X0.1197 Y0.9386
G01 X0.1158 Y1.0170
G01 X0.1158 Y16.5007
G00 Z2.0000
G00 X0.1158 Y19.5007
G01 F60.00
G01 Z-0.5000
G01 F60.00
G01 X0.1158 Y34.3845
G01 X0.1197 Y34.4629
G01 X0.1312 Y34.5406
G01 X0.1502 Y34.6167
G01 X0.1767 Y34.6906
G01 X0.2103 Y34.7616
G01 X0.2506 Y34.8290
G01 X0.2974 Y34.8920
G01 X0.3501 Y34.9502
G01 X0.4083 Y35.0029
G01 X0.4713 Y35.0497
G01 X0.5387 Y35.0900
G01 X0.6097 Y35.1236
G01 X0.6836 Y35.1501
G01 X0.7597 Y35.1691
G01 X0.8374 Y35.1806
G01 X0.9158 Y35.1845
G01 X36.9246 Y35.1845
G01 X37.0030 Y35.1806
G01 X37.0807 Y35.1691
G01 X37.1568 Y35.1501
G01 X37.2307 Y35.1236
G01 X37.3017 Y35.0900
G01 X37.3691 Y35.0497
G01 X37.4321 Y35.0029
G01 X37.4903 Y34.9502
G01 X37.5430 Y34.8920
G01 X37.5898 Y34.8290
G01 X37.6301 Y34.7616
G01 X37.6637 Y34.6906
G01 X37.6902 Y34.6167
G01 X37.7092 Y34.5406
G01 X37.7207 Y34.4629
G01 X37.7246 Y34.3845
G01 X37.7246 Y19.5007
G00 X37.7246 Y19.5007
G01 F60.00
G01 Z-1.0000
G01 F60.00
G01 X37.7246 Y34.3845
G01 X37.7207 Y34.4629
G01 X37.7092 Y34.5406
G01 X37.6902 Y34.6167
G01 X37.6637 Y34.6906
G01 X37.6301 Y34.7616
G01 X37.5898 Y34.8290
G01 X37.5430 Y34.8920
G01 X37.4903 Y34.9502
G01 X37.4321 Y35.0029
G01 X37.3691 Y35.0497
G01 X37.3017 Y35.0900
G01 X37.2307 Y35.1236
G01 X37.1568 Y35.1501
G01 X37.0807 Y35.1691
G01 X37.0030 Y35.1806
G01 X36.9246 Y35.1845
G01 X0.9158 Y35.1845
G01 X0.8374 Y35.1806
G01 X0.7597 Y35.1691
G01 X0.6836 Y35.1501
G01 X0.6097 Y35.1236
G01 X0.5387 Y35.0900
G01 X0.4713 Y35.0497
G01 X0.4083 Y35.0029
G01 X0.3501 Y34.9502
G01 X0.2974 Y34.8920
G01 X0.2506 Y34.8290
G01 X0.2103 Y34.7616
G01 X0.1767 Y34.6906
G01 X0.1502 Y34.6167
G01 X0.1312 Y34.5406
G01 X0.1197 Y34.4629
G01 X0.1158 Y34.3845
G01 X0.1158 Y19.5007
G00 X0.1158 Y19.5007
G01 F60.00
G01 Z-1.5000
G01 F60.00
G01 X0.1158 Y34.3845
G01 X0.1197 Y34.4629
G01 X0.1312 Y34.5406
G01 X0.1502 Y34.6167
G01 X0.1767 Y34.6906
G01 X0.2103 Y34.7616
G01 X0.2506 Y34.8290
G01 X0.2974 Y34.8920
G01 X0.3501 Y34.9502
G01 X0.4083 Y35.0029
G01 X0.4713 Y35.0497
G01 X0.5387 Y35.0900
G01 X0.6097 Y35.1236
G01 X0.6836 Y35.1501
G01 X0.7597 Y35.1691
G01 X0.8374 Y35.1806
G01 X0.9158 Y35.1845
G01 X36.9246 Y35.1845
G01 X37.0030 Y35.1806
G01 X37.0807 Y35.1691
G01 X37.1568 Y35.1501
G01 X37.2307 Y35.1236
G01 X37.3017 Y35.0900
G01 X37.3691 Y35.0497
G01 X37.4321 Y35.0029
G01 X37.4903 Y34.9502
G01 X37.5430 Y34.8920
G01 X37.5898 Y34.8290
G01 X37.6301 Y34.7616
G01 X37.6637 Y34.6906
G01 X37.6902 Y34.6167
G01 X37.7092 Y34.5406
G01 X37.7207 Y34.4629
G01 X37.7246 Y34.3845
G01 X37.7246 Y19.5007
G00 X37.7246 Y19.5007
G01 F60.00
G01 Z-2.0000
G01 F60.00
G01 X37.7246 Y34.3845
G01 X37.7207 Y34.4629
G01 X37.7092 Y34.5406
G01 X37.6902 Y34.6167
G01 X37.6637 Y34.6906
G01 X37.6301 Y34.7616
G01 X37.5898 Y34.8290
G01 X37.5430 Y34.8920
G01 X37.4903 Y34.9502
G01 X37.4321 Y35.0029
G01 X37.3691 Y35.0497
G01 X37.3017 Y35.0900
G01 X37.2307 Y35.1236
G01 X37.1568 Y35.1501
G01 X37.0807 Y35.1691
G01 X37.0030 Y35.1806
G01 X36.9246 Y35.1845
G01 X0.9158 Y35.1845
G01 X0.8374 Y35.1806
G01 X0.7597 Y35.1691
G01 X0.6836 Y35.1501
G01 X0.6097 Y35.1236
G01 X0.5387 Y35.0900
G01 X0.4713 Y35.0497
G01 X0.4083 Y35.0029
G01 X0.3501 Y34.9502
G01 X0.2974 Y34.8920
G01 X0.2506 Y34.8290
G01 X0.2103 Y34.7616
G01 X0.1767 Y34.6906
G01 X0.1502 Y34.6167
G01 X0.1312 Y34.5406
G01 X0.1197 Y34.4629
G01 X0.1158 Y34.3845
G01 X0.1158 Y19.5007
G00 Z2.0000
G00 X37.7246 Y16.5007
G01 F60.00
G01 Z-0.5000
G01 F60.00
G01 X37.7246 Y1.0170
G01 X37.7207 Y0.9386
G01 X37.7092 Y0.8609
G01 X37.6902 Y0.7848
G01 X37.6637 Y0.7109
G01 X37.6301 Y0.6399
G01 X37.5898 Y0.5725
G01 X37.5430 Y0.5095
G01 X37.4903 Y0.4513
G01 X37.4321 Y0.3986
G01 X37.3691 Y0.3518
G01 X37.3017 Y0.3115
G01 X37.2307 Y0.2779
G01 X37.1568 Y0.2514
G01 X37.0807 Y0.2324
G01 X37.0030 Y0.2209
G01 X36.9246 Y0.2170
G00 X36.9246 Y0.2170
G01 F60.00
G01 Z-1.0000
G01 F60.00
G01 X37.0030 Y0.2209
G01 X37.0807 Y0.2324
G01 X37.1568 Y0.2514
G01 X37.2307 Y0.2779
G01 X37.3017 Y0.3115
G01 X37.3691 Y0.3518
G01 X37.4321 Y0.3986
G01 X37.4903 Y0.4513
G01 X37.5430 Y0.5095
G01 X37.5898 Y0.5725
G01 X37.6301 Y0.6399
G01 X37.6637 Y0.7109
G01 X37.6902 Y0.7848
G01 X37.7092 Y0.8609
G01 X37.7207 Y0.9386
G01 X37.7246 Y1.0170
G01 X37.7246 Y16.5007
G00 X37.7246 Y16.5007
G01 F60.00
G01 Z-1.5000
G01 F60.00
G01 X37.7246 Y1.0170
G01 X37.7207 Y0.9386
G01 X37.7092 Y0.8609
G01 X37.6902 Y0.7848
G01 X37.6637 Y0.7109
G01 X37.6301 Y0.6399
G01 X37.5898 Y0.5725
G01 X37.5430 Y0.5095
G01 X37.4903 Y0.4513
G01 X37.4321 Y0.3986
G01 X37.3691 Y0.3518
G01 X37.3017 Y0.3115
G01 X37.2307 Y0.2779
G01 X37.1568 Y0.2514
G01 X37.0807 Y0.2324
G01 X37.0030 Y0.2209
G01 X36.9246 Y0.2170
G00 X36.9246 Y0.2170
G01 F60.00
G01 Z-2.0000
G01 F60.00
G01 X37.0030 Y0.2209
G01 X37.0807 Y0.2324
G01 X37.1568 Y0.2514
G01 X37.2307 Y0.2779
G01 X37.3017 Y0.3115
G01 X37.3691 Y0.3518
G01 X37.4321 Y0.3986
G01 X37.4903 Y0.4513
G01 X37.5430 Y0.5095
G01 X37.5898 Y0.5725
G01 X37.6301 Y0.6399
G01 X37.6637 Y0.7109
G01 X37.6902 Y0.7848
G01 X37.7092 Y0.8609
G01 X37.7207 Y0.9386
G01 X37.7246 Y1.0170
G01 X37.7246 Y16.5007
G00 Z2.0000
M05
G00 Z2.0000
G00 Z2.00
G00 X0.0 Y0.0

