(G-CODE GENERATED BY FLATCAM v8.991 - www.flatcam.org - Version Date: 2019/12/27)

(Name: Pistas)
(Type: G-code from Geometry)
(Units: MM)

(Created on Tuesday, 14 November 2023 at 10:29)

(TOOL DIAMETER: 0.13 mm)
(Feedrate: 60.0 mm/min)
(Feedrate_Z: 60.0 mm/min)
(Feedrate rapids 1500.0 mm/min)

(Z_Cut: -0.0851 mm)
(Z_Move: 2.0 mm)
(Z Toolchange: 15.0 mm)
(X,Y Toolchange: 0.0000, 0.0000 mm)
(Z Start: None mm)
(Z End: 2.0 mm)
(Steps per circle: 64)
(Preprocessor Geometry: default)

(X range:    0.8508 ...   36.9896  mm)
(Y range:    0.9520 ...   34.4495  mm)

(Spindle Speed: 800 RPM)
G21
G90
G94




G01 F60.00
G00 Z2.0000

M03 S800
G00 X10.6081 Y11.2089
G01 F60.00
G01 Z-0.0851
G01 F60.00
G01 X10.5903 Y11.2324
G01 X10.5351 Y11.2933
G01 X10.5305 Y11.2979
G01 X10.4696 Y11.3531
G01 X10.4646 Y11.3572
G01 X10.3985 Y11.4062
G01 X10.3932 Y11.4097
G01 X10.3226 Y11.4520
G01 X10.3170 Y11.4551
G01 X10.2426 Y11.4902
G01 X10.2367 Y11.4927
G01 X10.1592 Y11.5204
G01 X10.1531 Y11.5223
G01 X10.0733 Y11.5423
G01 X10.0670 Y11.5435
G01 X9.9856 Y11.5556
G01 X9.9793 Y11.5562
G01 X9.8939 Y11.5603
G01 X8.2175 Y11.5603
G01 X8.1321 Y11.5562
G01 X8.1258 Y11.5556
G01 X8.0444 Y11.5435
G01 X8.0381 Y11.5423
G01 X7.9583 Y11.5223
G01 X7.9522 Y11.5204
G01 X7.8747 Y11.4927
G01 X7.8688 Y11.4902
G01 X7.7944 Y11.4551
G01 X7.7888 Y11.4520
G01 X7.7182 Y11.4097
G01 X7.7129 Y11.4062
G01 X7.6468 Y11.3572
G01 X7.6418 Y11.3531
G01 X7.5809 Y11.2979
G01 X7.5763 Y11.2933
G01 X7.5211 Y11.2324
G01 X7.5170 Y11.2274
G01 X7.4680 Y11.1613
G01 X7.4645 Y11.1560
G01 X7.4222 Y11.0854
G01 X7.4191 Y11.0798
G01 X7.3840 Y11.0054
G01 X7.3815 Y10.9995
G01 X7.3538 Y10.9220
G01 X7.3519 Y10.9159
G01 X7.3319 Y10.8361
G01 X7.3307 Y10.8298
G01 X7.3186 Y10.7484
G01 X7.3180 Y10.7421
G01 X7.3140 Y10.6599
G01 X7.3140 Y10.6535
G01 X7.3180 Y10.5713
G01 X7.3186 Y10.5650
G01 X7.3307 Y10.4836
G01 X7.3319 Y10.4773
G01 X7.3519 Y10.3975
G01 X7.3538 Y10.3914
G01 X7.3815 Y10.3139
G01 X7.3840 Y10.3080
G01 X7.4191 Y10.2336
G01 X7.4222 Y10.2280
G01 X7.4645 Y10.1574
G01 X7.4680 Y10.1521
G01 X7.5170 Y10.0860
G01 X7.5211 Y10.0810
G01 X7.5763 Y10.0201
G01 X7.5809 Y10.0155
G01 X7.6418 Y9.9603
G01 X7.6468 Y9.9562
G01 X7.7129 Y9.9072
G01 X7.7182 Y9.9037
G01 X7.7888 Y9.8614
G01 X7.7944 Y9.8583
G01 X7.8688 Y9.8232
G01 X7.8747 Y9.8207
G01 X7.9522 Y9.7930
G01 X7.9583 Y9.7911
G01 X8.0381 Y9.7711
G01 X8.0444 Y9.7699
G01 X8.1258 Y9.7578
G01 X8.1321 Y9.7572
G01 X8.2175 Y9.7531
G01 X9.8971 Y9.7532
G01 X9.9793 Y9.7572
G01 X9.9856 Y9.7578
G01 X10.0670 Y9.7699
G01 X10.0733 Y9.7711
G01 X10.1531 Y9.7911
G01 X10.1592 Y9.7930
G01 X10.2367 Y9.8207
G01 X10.2426 Y9.8232
G01 X10.3170 Y9.8583
G01 X10.3226 Y9.8614
G01 X10.3932 Y9.9037
G01 X10.3985 Y9.9072
G01 X10.4646 Y9.9562
G01 X10.4696 Y9.9603
G01 X10.5305 Y10.0155
G01 X10.5351 Y10.0201
G01 X10.5903 Y10.0810
G01 X10.5944 Y10.0860
G01 X10.6434 Y10.1521
G01 X10.6469 Y10.1574
G01 X10.6892 Y10.2280
G01 X10.6979 Y10.2456
G01 X10.7271 Y10.2502
G01 X10.7604 Y10.2586
G01 X10.7665 Y10.2604
G01 X10.7989 Y10.2720
G01 X10.8048 Y10.2744
G01 X10.8359 Y10.2891
G01 X10.8576 Y10.3018
G01 X10.8763 Y10.3133
G01 X10.9039 Y10.3338
G01 X10.9088 Y10.3378
G01 X10.9366 Y10.3631
G01 X14.8544 Y14.2810
G01 X14.8655 Y14.2731
G01 X14.9276 Y14.2359
G01 X14.9332 Y14.2329
G01 X14.9986 Y14.2020
G01 X15.0045 Y14.1995
G01 X15.0726 Y14.1752
G01 X15.0787 Y14.1733
G01 X15.1488 Y14.1557
G01 X15.1551 Y14.1545
G01 X15.2266 Y14.1439
G01 X15.2330 Y14.1433
G01 X15.3084 Y14.1396
G01 X16.7816 Y14.1396
G01 X16.8570 Y14.1433
G01 X16.8634 Y14.1439
G01 X16.9349 Y14.1545
G01 X16.9412 Y14.1557
G01 X17.0113 Y14.1733
G01 X17.0174 Y14.1752
G01 X17.0855 Y14.1995
G01 X17.0914 Y14.2020
G01 X17.1568 Y14.2329
G01 X17.1624 Y14.2359
G01 X17.2245 Y14.2731
G01 X17.2298 Y14.2766
G01 X17.2878 Y14.3197
G01 X17.2928 Y14.3238
G01 X17.3464 Y14.3723
G01 X17.3509 Y14.3768
G01 X17.3994 Y14.4304
G01 X17.4035 Y14.4354
G01 X17.4466 Y14.4934
G01 X17.4501 Y14.4987
G01 X17.4873 Y14.5608
G01 X17.4903 Y14.5664
G01 X17.5212 Y14.6318
G01 X17.5237 Y14.6377
G01 X17.5480 Y14.7058
G01 X17.5499 Y14.7119
G01 X17.5675 Y14.7820
G01 X17.5687 Y14.7883
G01 X17.5793 Y14.8598
G01 X17.5799 Y14.8662
G01 X17.5835 Y14.9384
G01 X17.5835 Y14.9448
G01 X17.5799 Y15.0170
G01 X17.5793 Y15.0234
G01 X17.5687 Y15.0949
G01 X17.5675 Y15.1012
G01 X17.5499 Y15.1713
G01 X17.5480 Y15.1774
G01 X17.5237 Y15.2455
G01 X17.5212 Y15.2514
G01 X17.4903 Y15.3168
G01 X17.4873 Y15.3224
G01 X17.4501 Y15.3845
G01 X17.4466 Y15.3898
G01 X17.4035 Y15.4478
G01 X17.3994 Y15.4528
G01 X17.3509 Y15.5064
G01 X17.3464 Y15.5109
G01 X17.2928 Y15.5594
G01 X17.2878 Y15.5635
G01 X17.2298 Y15.6066
G01 X17.2245 Y15.6101
G01 X17.1624 Y15.6473
G01 X17.1568 Y15.6503
G01 X17.0914 Y15.6812
G01 X17.0855 Y15.6837
G01 X17.0174 Y15.7080
G01 X17.0113 Y15.7099
G01 X16.9412 Y15.7275
G01 X16.9349 Y15.7287
G01 X16.8634 Y15.7393
G01 X16.8570 Y15.7399
G01 X16.7816 Y15.7436
G01 X15.3084 Y15.7436
G01 X15.2330 Y15.7399
G01 X15.2266 Y15.7393
G01 X15.1551 Y15.7287
G01 X15.1488 Y15.7275
G01 X15.0787 Y15.7099
G01 X15.0726 Y15.7080
G01 X15.0045 Y15.6837
G01 X14.9986 Y15.6812
G01 X14.9332 Y15.6503
G01 X14.9276 Y15.6473
G01 X14.8655 Y15.6101
G01 X14.8602 Y15.6066
G01 X14.8022 Y15.5635
G01 X14.7972 Y15.5594
G01 X14.7436 Y15.5109
G01 X14.7391 Y15.5064
G01 X14.6906 Y15.4528
G01 X14.6865 Y15.4478
G01 X14.6434 Y15.3898
G01 X14.6399 Y15.3845
G01 X14.6027 Y15.3224
G01 X14.5997 Y15.3168
G01 X14.5688 Y15.2514
G01 X14.5663 Y15.2455
G01 X14.5420 Y15.1774
G01 X14.5401 Y15.1713
G01 X14.5300 Y15.1308
G01 X10.6081 Y11.2089
G00 Z2.0000
G00 X15.3067 Y7.1070
G01 F60.00
G01 Z-0.0851
G01 F60.00
G01 X15.2836 Y7.1455
G01 X15.2800 Y7.1508
G01 X15.2258 Y7.2240
G01 X15.2218 Y7.2289
G01 X15.1606 Y7.2963
G01 X15.1561 Y7.3008
G01 X15.0887 Y7.3620
G01 X15.0838 Y7.3660
G01 X15.0106 Y7.4202
G01 X15.0053 Y7.4238
G01 X14.9273 Y7.4706
G01 X14.9216 Y7.4736
G01 X14.8394 Y7.5125
G01 X14.8335 Y7.5150
G01 X14.7478 Y7.5456
G01 X14.7417 Y7.5475
G01 X14.6534 Y7.5696
G01 X14.6471 Y7.5708
G01 X14.5571 Y7.5842
G01 X14.5507 Y7.5848
G01 X14.4598 Y7.5893
G01 X14.4534 Y7.5893
G01 X14.3625 Y7.5848
G01 X14.3561 Y7.5842
G01 X14.2661 Y7.5708
G01 X14.2598 Y7.5696
G01 X14.1715 Y7.5475
G01 X14.1654 Y7.5456
G01 X14.0797 Y7.5150
G01 X14.0738 Y7.5125
G01 X13.9916 Y7.4736
G01 X13.9859 Y7.4706
G01 X13.9079 Y7.4238
G01 X13.9026 Y7.4202
G01 X13.8294 Y7.3660
G01 X13.8245 Y7.3620
G01 X13.7571 Y7.3008
G01 X13.7526 Y7.2963
G01 X13.6914 Y7.2289
G01 X13.6874 Y7.2240
G01 X13.6332 Y7.1508
G01 X13.6296 Y7.1455
G01 X13.5828 Y7.0675
G01 X13.5798 Y7.0618
G01 X13.5409 Y6.9796
G01 X13.5384 Y6.9737
G01 X13.5078 Y6.8880
G01 X13.5059 Y6.8819
G01 X13.4838 Y6.7936
G01 X13.4826 Y6.7873
G01 X13.4692 Y6.6973
G01 X13.4686 Y6.6909
G01 X13.4640 Y6.5968
G01 X13.4640 Y6.0849
G01 X9.6859 Y6.0849
G01 X3.0306 Y12.7403
G01 X3.0306 Y24.7489
G01 X7.0762 Y28.7946
G01 X13.0394 Y28.7946
G01 X13.0769 Y28.7964
G01 X13.0833 Y28.7970
G01 X13.1204 Y28.8026
G01 X13.1568 Y28.8116
G01 X13.1629 Y28.8135
G01 X13.1983 Y28.8262
G01 X13.2351 Y28.8436
G01 X13.2673 Y28.8629
G01 X13.2727 Y28.8664
G01 X13.3003 Y28.8869
G01 X13.3052 Y28.8909
G01 X13.3330 Y28.9162
G01 X14.1833 Y29.7664
G01 X14.6233 Y29.7664
G01 X14.6399 Y29.7387
G01 X14.6434 Y29.7334
G01 X14.6865 Y29.6754
G01 X14.6906 Y29.6704
G01 X14.7391 Y29.6168
G01 X14.7436 Y29.6123
G01 X14.7972 Y29.5638
G01 X14.8022 Y29.5597
G01 X14.8602 Y29.5166
G01 X14.8655 Y29.5131
G01 X14.9276 Y29.4759
G01 X14.9332 Y29.4729
G01 X14.9986 Y29.4420
G01 X15.0045 Y29.4395
G01 X15.0726 Y29.4152
G01 X15.0787 Y29.4133
G01 X15.1488 Y29.3957
G01 X15.1551 Y29.3945
G01 X15.2266 Y29.3839
G01 X15.2330 Y29.3833
G01 X15.3052 Y29.3797
G01 X16.7816 Y29.3796
G01 X16.8570 Y29.3833
G01 X16.8634 Y29.3839
G01 X16.9349 Y29.3945
G01 X16.9412 Y29.3957
G01 X17.0113 Y29.4133
G01 X17.0174 Y29.4152
G01 X17.0855 Y29.4395
G01 X17.0914 Y29.4420
G01 X17.1568 Y29.4729
G01 X17.1624 Y29.4759
G01 X17.2245 Y29.5131
G01 X17.2298 Y29.5166
G01 X17.2878 Y29.5597
G01 X17.2928 Y29.5638
G01 X17.3464 Y29.6123
G01 X17.3509 Y29.6168
G01 X17.3994 Y29.6704
G01 X17.4035 Y29.6754
G01 X17.4466 Y29.7334
G01 X17.4501 Y29.7387
G01 X17.4667 Y29.7664
G01 X22.2433 Y29.7664
G01 X22.2599 Y29.7387
G01 X22.2634 Y29.7334
G01 X22.3065 Y29.6754
G01 X22.3106 Y29.6704
G01 X22.3591 Y29.6168
G01 X22.3636 Y29.6123
G01 X22.4172 Y29.5638
G01 X22.4222 Y29.5597
G01 X22.4802 Y29.5166
G01 X22.4855 Y29.5131
G01 X22.5476 Y29.4759
G01 X22.5532 Y29.4729
G01 X22.6186 Y29.4420
G01 X22.6245 Y29.4395
G01 X22.6926 Y29.4152
G01 X22.6987 Y29.4133
G01 X22.7688 Y29.3957
G01 X22.7751 Y29.3945
G01 X22.8466 Y29.3839
G01 X22.8530 Y29.3833
G01 X22.9252 Y29.3797
G01 X23.8798 Y29.3796
G01 X24.0786 Y29.1808
G01 X24.1061 Y29.1558
G01 X24.1110 Y29.1518
G01 X24.1383 Y29.1314
G01 X24.1436 Y29.1279
G01 X24.1727 Y29.1104
G01 X24.1783 Y29.1074
G01 X24.2090 Y29.0927
G01 X24.2149 Y29.0903
G01 X24.2469 Y29.0787
G01 X24.2529 Y29.0768
G01 X24.2859 Y29.0684
G01 X24.2921 Y29.0671
G01 X24.3257 Y29.0619
G01 X24.3320 Y29.0612
G01 X24.3691 Y29.0592
G01 X32.5628 Y28.9988
G01 X32.6004 Y29.0003
G01 X32.6098 Y29.0012
G01 X32.6470 Y29.0069
G01 X32.6833 Y29.0159
G01 X32.6894 Y29.0177
G01 X32.7218 Y29.0293
G01 X32.7560 Y29.0450
G01 X32.7644 Y29.0494
G01 X32.7913 Y29.0654
G01 X32.7992 Y29.0706
G01 X32.8268 Y29.0911
G01 X32.8550 Y29.1161
G01 X34.6790 Y30.9400
G01 X35.1986 Y30.9400
G01 X35.2050 Y30.9403
G01 X35.2113 Y30.9413
G01 X35.2175 Y30.9428
G01 X35.2235 Y30.9449
G01 X35.2292 Y30.9477
G01 X35.2347 Y30.9510
G01 X35.2398 Y30.9548
G01 X35.2446 Y30.9590
G01 X35.6761 Y31.3905
G01 X35.6803 Y31.3953
G01 X35.6841 Y31.4004
G01 X35.6874 Y31.4059
G01 X35.6902 Y31.4116
G01 X35.6923 Y31.4176
G01 X35.6938 Y31.4238
G01 X35.6948 Y31.4301
G01 X35.6951 Y31.4365
G01 X35.6951 Y32.0467
G01 X35.6948 Y32.0531
G01 X35.6938 Y32.0594
G01 X35.6923 Y32.0656
G01 X35.6902 Y32.0716
G01 X35.6874 Y32.0773
G01 X35.6841 Y32.0828
G01 X35.6803 Y32.0879
G01 X35.6761 Y32.0927
G01 X35.2446 Y32.5242
G01 X35.2398 Y32.5284
G01 X35.2347 Y32.5322
G01 X35.2292 Y32.5355
G01 X35.2235 Y32.5383
G01 X35.2175 Y32.5404
G01 X35.2113 Y32.5419
G01 X35.2050 Y32.5429
G01 X35.1986 Y32.5432
G01 X34.5884 Y32.5432
G01 X34.5820 Y32.5429
G01 X34.5757 Y32.5419
G01 X34.5695 Y32.5404
G01 X34.5635 Y32.5383
G01 X34.5578 Y32.5355
G01 X34.5523 Y32.5322
G01 X34.5472 Y32.5284
G01 X34.5424 Y32.5242
G01 X34.1109 Y32.0927
G01 X34.1067 Y32.0879
G01 X34.1029 Y32.0828
G01 X34.0996 Y32.0773
G01 X34.0968 Y32.0716
G01 X34.0947 Y32.0656
G01 X34.0932 Y32.0594
G01 X34.0922 Y32.0531
G01 X34.0919 Y32.0467
G01 X34.0919 Y31.5271
G01 X32.3952 Y29.8304
G01 X25.1459 Y29.8839
G01 X25.1680 Y29.9458
G01 X25.1699 Y29.9519
G01 X25.1875 Y30.0220
G01 X25.1887 Y30.0283
G01 X25.1993 Y30.0998
G01 X25.1999 Y30.1062
G01 X25.2035 Y30.1784
G01 X25.2035 Y30.1848
G01 X25.1999 Y30.2570
G01 X25.1993 Y30.2634
G01 X25.1887 Y30.3349
G01 X25.1875 Y30.3412
G01 X25.1699 Y30.4113
G01 X25.1680 Y30.4174
G01 X25.1437 Y30.4855
G01 X25.1412 Y30.4914
G01 X25.1103 Y30.5568
G01 X25.1073 Y30.5624
G01 X25.0701 Y30.6245
G01 X25.0666 Y30.6298
G01 X25.0235 Y30.6878
G01 X25.0194 Y30.6928
G01 X24.9709 Y30.7464
G01 X24.9664 Y30.7509
G01 X24.9128 Y30.7994
G01 X24.9078 Y30.8035
G01 X24.8498 Y30.8466
G01 X24.8445 Y30.8501
G01 X24.7824 Y30.8873
G01 X24.7768 Y30.8903
G01 X24.7114 Y30.9212
G01 X24.7055 Y30.9237
G01 X24.6374 Y30.9480
G01 X24.6313 Y30.9499
G01 X24.5612 Y30.9675
G01 X24.5549 Y30.9687
G01 X24.4834 Y30.9793
G01 X24.4770 Y30.9799
G01 X24.4016 Y30.9836
G01 X22.9284 Y30.9836
G01 X22.8530 Y30.9799
G01 X22.8466 Y30.9793
G01 X22.7751 Y30.9687
G01 X22.7688 Y30.9675
G01 X22.6987 Y30.9499
G01 X22.6926 Y30.9480
G01 X22.6245 Y30.9237
G01 X22.6186 Y30.9212
G01 X22.5532 Y30.8903
G01 X22.5476 Y30.8873
G01 X22.4855 Y30.8501
G01 X22.4802 Y30.8466
G01 X22.4222 Y30.8035
G01 X22.4172 Y30.7994
G01 X22.3636 Y30.7509
G01 X22.3591 Y30.7464
G01 X22.3106 Y30.6928
G01 X22.3065 Y30.6878
G01 X22.2634 Y30.6298
G01 X22.2599 Y30.6245
G01 X22.2433 Y30.5968
G01 X17.4667 Y30.5968
G01 X17.4501 Y30.6245
G01 X17.4466 Y30.6298
G01 X17.4035 Y30.6878
G01 X17.3994 Y30.6928
G01 X17.3509 Y30.7464
G01 X17.3464 Y30.7509
G01 X17.2928 Y30.7994
G01 X17.2878 Y30.8035
G01 X17.2298 Y30.8466
G01 X17.2245 Y30.8501
G01 X17.1624 Y30.8873
G01 X17.1568 Y30.8903
G01 X17.0914 Y30.9212
G01 X17.0855 Y30.9237
G01 X17.0174 Y30.9480
G01 X17.0113 Y30.9499
G01 X16.9412 Y30.9675
G01 X16.9349 Y30.9687
G01 X16.8634 Y30.9793
G01 X16.8570 Y30.9799
G01 X16.7816 Y30.9836
G01 X15.3084 Y30.9836
G01 X15.2330 Y30.9799
G01 X15.2266 Y30.9793
G01 X15.1551 Y30.9687
G01 X15.1488 Y30.9675
G01 X15.0787 Y30.9499
G01 X15.0726 Y30.9480
G01 X15.0045 Y30.9237
G01 X14.9986 Y30.9212
G01 X14.9332 Y30.8903
G01 X14.9276 Y30.8873
G01 X14.8655 Y30.8501
G01 X14.8602 Y30.8466
G01 X14.8022 Y30.8035
G01 X14.7972 Y30.7994
G01 X14.7436 Y30.7509
G01 X14.7391 Y30.7464
G01 X14.6906 Y30.6928
G01 X14.6865 Y30.6878
G01 X14.6434 Y30.6298
G01 X14.6399 Y30.6245
G01 X14.6233 Y30.5968
G01 X14.0113 Y30.5968
G01 X13.9738 Y30.5950
G01 X13.9674 Y30.5944
G01 X13.9335 Y30.5893
G01 X13.9272 Y30.5881
G01 X13.8939 Y30.5798
G01 X13.8878 Y30.5779
G01 X13.8554 Y30.5663
G01 X13.8495 Y30.5639
G01 X13.8184 Y30.5492
G01 X13.8128 Y30.5462
G01 X13.7833 Y30.5285
G01 X13.7780 Y30.5250
G01 X13.7504 Y30.5045
G01 X13.7455 Y30.5005
G01 X13.7177 Y30.4752
G01 X12.8674 Y29.6250
G01 X6.9042 Y29.6250
G01 X6.8635 Y29.6230
G01 X6.8232 Y29.6170
G01 X6.7837 Y29.6071
G01 X6.7483 Y29.5945
G01 X6.7424 Y29.5921
G01 X6.7085 Y29.5760
G01 X6.6762 Y29.5567
G01 X6.6709 Y29.5532
G01 X6.6408 Y29.5307
G01 X6.6106 Y29.5034
G01 X2.3218 Y25.2145
G01 X2.2945 Y25.1843
G01 X2.2702 Y25.1516
G01 X2.2508 Y25.1194
G01 X2.2478 Y25.1138
G01 X2.2331 Y25.0827
G01 X2.2307 Y25.0768
G01 X2.2181 Y25.0414
G01 X2.2082 Y25.0019
G01 X2.2022 Y24.9616
G01 X2.2002 Y24.9209
G01 X2.2002 Y12.5683
G01 X2.2020 Y12.5308
G01 X2.2026 Y12.5244
G01 X2.2077 Y12.4904
G01 X2.2089 Y12.4842
G01 X2.2173 Y12.4509
G01 X2.2191 Y12.4448
G01 X2.2307 Y12.4124
G01 X2.2331 Y12.4065
G01 X2.2478 Y12.3754
G01 X2.2508 Y12.3698
G01 X2.2685 Y12.3403
G01 X2.2720 Y12.3350
G01 X2.2925 Y12.3074
G01 X2.2965 Y12.3025
G01 X2.3218 Y12.2747
G01 X9.2203 Y5.3761
G01 X9.2505 Y5.3488
G01 X9.2832 Y5.3245
G01 X9.3154 Y5.3051
G01 X9.3210 Y5.3021
G01 X9.3550 Y5.2861
G01 X9.3934 Y5.2724
G01 X9.4298 Y5.2632
G01 X9.4360 Y5.2620
G01 X9.4732 Y5.2565
G01 X9.5139 Y5.2545
G01 X13.4640 Y5.2545
G01 X13.4641 Y4.7394
G01 X13.4686 Y4.6485
G01 X13.4692 Y4.6421
G01 X13.4826 Y4.5521
G01 X13.4838 Y4.5458
G01 X13.5059 Y4.4575
G01 X13.5078 Y4.4514
G01 X13.5384 Y4.3657
G01 X13.5409 Y4.3598
G01 X13.5798 Y4.2776
G01 X13.5828 Y4.2719
G01 X13.6296 Y4.1939
G01 X13.6332 Y4.1886
G01 X13.6874 Y4.1154
G01 X13.6914 Y4.1105
G01 X13.7526 Y4.0431
G01 X13.7571 Y4.0386
G01 X13.8245 Y3.9774
G01 X13.8294 Y3.9734
G01 X13.9026 Y3.9192
G01 X13.9079 Y3.9156
G01 X13.9859 Y3.8688
G01 X13.9916 Y3.8658
G01 X14.0738 Y3.8269
G01 X14.0797 Y3.8244
G01 X14.1654 Y3.7938
G01 X14.1715 Y3.7919
G01 X14.2598 Y3.7698
G01 X14.2661 Y3.7686
G01 X14.3561 Y3.7552
G01 X14.3625 Y3.7546
G01 X14.4534 Y3.7501
G01 X14.4598 Y3.7501
G01 X14.5507 Y3.7546
G01 X14.5571 Y3.7552
G01 X14.6471 Y3.7686
G01 X14.6534 Y3.7698
G01 X14.7417 Y3.7919
G01 X14.7478 Y3.7938
G01 X14.8335 Y3.8244
G01 X14.8394 Y3.8269
G01 X14.9216 Y3.8658
G01 X14.9273 Y3.8688
G01 X15.0053 Y3.9156
G01 X15.0106 Y3.9192
G01 X15.0838 Y3.9734
G01 X15.0887 Y3.9774
G01 X15.1561 Y4.0386
G01 X15.1606 Y4.0431
G01 X15.2218 Y4.1105
G01 X15.2258 Y4.1154
G01 X15.2800 Y4.1886
G01 X15.2836 Y4.1939
G01 X15.3304 Y4.2719
G01 X15.3334 Y4.2776
G01 X15.3723 Y4.3598
G01 X15.3748 Y4.3657
G01 X15.4054 Y4.4514
G01 X15.4073 Y4.4575
G01 X15.4294 Y4.5458
G01 X15.4306 Y4.5521
G01 X15.4440 Y4.6421
G01 X15.4446 Y4.6485
G01 X15.4492 Y4.7426
G01 X15.4492 Y6.0751
G01 X16.3408 Y6.9668
G01 X16.3639 Y6.9923
G01 X16.3679 Y6.9972
G01 X16.3884 Y7.0248
G01 X16.3919 Y7.0301
G01 X16.4096 Y7.0596
G01 X16.4126 Y7.0652
G01 X16.4273 Y7.0963
G01 X16.4297 Y7.1022
G01 X16.4413 Y7.1346
G01 X16.4431 Y7.1407
G01 X16.4515 Y7.1740
G01 X16.4527 Y7.1802
G01 X16.4578 Y7.2142
G01 X16.4584 Y7.2206
G01 X16.4602 Y7.2581
G01 X16.4602 Y11.5996
G01 X16.7848 Y11.5997
G01 X16.8570 Y11.6033
G01 X16.8634 Y11.6039
G01 X16.9349 Y11.6145
G01 X16.9412 Y11.6157
G01 X17.0113 Y11.6333
G01 X17.0174 Y11.6352
G01 X17.0855 Y11.6595
G01 X17.0914 Y11.6620
G01 X17.1568 Y11.6929
G01 X17.1624 Y11.6959
G01 X17.2245 Y11.7331
G01 X17.2298 Y11.7366
G01 X17.2878 Y11.7797
G01 X17.2928 Y11.7838
G01 X17.3464 Y11.8323
G01 X17.3509 Y11.8368
G01 X17.3994 Y11.8904
G01 X17.4035 Y11.8954
G01 X17.4466 Y11.9534
G01 X17.4501 Y11.9587
G01 X17.4873 Y12.0208
G01 X17.4903 Y12.0264
G01 X17.5212 Y12.0918
G01 X17.5237 Y12.0977
G01 X17.5480 Y12.1658
G01 X17.5499 Y12.1719
G01 X17.5675 Y12.2420
G01 X17.5687 Y12.2483
G01 X17.5793 Y12.3198
G01 X17.5799 Y12.3262
G01 X17.5835 Y12.3984
G01 X17.5835 Y12.4048
G01 X17.5799 Y12.4770
G01 X17.5793 Y12.4834
G01 X17.5687 Y12.5549
G01 X17.5675 Y12.5612
G01 X17.5499 Y12.6313
G01 X17.5480 Y12.6374
G01 X17.5237 Y12.7055
G01 X17.5212 Y12.7114
G01 X17.4903 Y12.7768
G01 X17.4873 Y12.7824
G01 X17.4501 Y12.8445
G01 X17.4466 Y12.8498
G01 X17.4035 Y12.9078
G01 X17.3994 Y12.9128
G01 X17.3509 Y12.9664
G01 X17.3464 Y12.9709
G01 X17.2928 Y13.0194
G01 X17.2878 Y13.0235
G01 X17.2298 Y13.0666
G01 X17.2245 Y13.0701
G01 X17.1624 Y13.1073
G01 X17.1568 Y13.1103
G01 X17.0914 Y13.1412
G01 X17.0855 Y13.1437
G01 X17.0174 Y13.1680
G01 X17.0113 Y13.1699
G01 X16.9412 Y13.1875
G01 X16.9349 Y13.1887
G01 X16.8634 Y13.1993
G01 X16.8570 Y13.1999
G01 X16.7816 Y13.2036
G01 X15.3084 Y13.2036
G01 X15.2330 Y13.1999
G01 X15.2266 Y13.1993
G01 X15.1551 Y13.1887
G01 X15.1488 Y13.1875
G01 X15.0787 Y13.1699
G01 X15.0726 Y13.1680
G01 X15.0045 Y13.1437
G01 X14.9986 Y13.1412
G01 X14.9332 Y13.1103
G01 X14.9276 Y13.1073
G01 X14.8655 Y13.0701
G01 X14.8602 Y13.0666
G01 X14.8022 Y13.0235
G01 X14.7972 Y13.0194
G01 X14.7436 Y12.9709
G01 X14.7391 Y12.9664
G01 X14.6906 Y12.9128
G01 X14.6865 Y12.9078
G01 X14.6434 Y12.8498
G01 X14.6399 Y12.8445
G01 X14.6027 Y12.7824
G01 X14.5997 Y12.7768
G01 X14.5688 Y12.7114
G01 X14.5663 Y12.7055
G01 X14.5420 Y12.6374
G01 X14.5401 Y12.6313
G01 X14.5225 Y12.5612
G01 X14.5213 Y12.5549
G01 X14.5107 Y12.4834
G01 X14.5101 Y12.4770
G01 X14.5065 Y12.4048
G01 X14.5065 Y12.3984
G01 X14.5101 Y12.3262
G01 X14.5107 Y12.3198
G01 X14.5213 Y12.2483
G01 X14.5225 Y12.2420
G01 X14.5401 Y12.1719
G01 X14.5420 Y12.1658
G01 X14.5663 Y12.0977
G01 X14.5688 Y12.0918
G01 X14.5997 Y12.0264
G01 X14.6027 Y12.0208
G01 X14.6399 Y11.9587
G01 X14.6434 Y11.9534
G01 X14.6865 Y11.8954
G01 X14.6906 Y11.8904
G01 X14.7391 Y11.8368
G01 X14.7436 Y11.8323
G01 X14.7972 Y11.7838
G01 X14.8022 Y11.7797
G01 X14.8602 Y11.7366
G01 X14.8655 Y11.7331
G01 X14.9276 Y11.6959
G01 X14.9332 Y11.6929
G01 X14.9986 Y11.6620
G01 X15.0045 Y11.6595
G01 X15.0726 Y11.6352
G01 X15.0787 Y11.6333
G01 X15.1488 Y11.6157
G01 X15.1551 Y11.6145
G01 X15.2266 Y11.6039
G01 X15.2330 Y11.6033
G01 X15.3084 Y11.5996
G01 X15.6298 Y11.5996
G01 X15.6298 Y7.4301
G01 X15.3067 Y7.1070
G00 Z2.0000
G00 X19.0414 Y7.4972
G01 F60.00
G01 Z-0.0851
G01 F60.00
G01 X18.9916 Y7.4736
G01 X18.9859 Y7.4706
G01 X18.9079 Y7.4238
G01 X18.9026 Y7.4202
G01 X18.8294 Y7.3660
G01 X18.8245 Y7.3620
G01 X18.7571 Y7.3008
G01 X18.7526 Y7.2963
G01 X18.6914 Y7.2289
G01 X18.6874 Y7.2240
G01 X18.6332 Y7.1508
G01 X18.6296 Y7.1455
G01 X18.5828 Y7.0675
G01 X18.5798 Y7.0618
G01 X18.5409 Y6.9796
G01 X18.5384 Y6.9737
G01 X18.5078 Y6.8880
G01 X18.5059 Y6.8819
G01 X18.4838 Y6.7936
G01 X18.4826 Y6.7873
G01 X18.4692 Y6.6973
G01 X18.4686 Y6.6909
G01 X18.4640 Y6.5968
G01 X18.4640 Y4.7426
G01 X18.4686 Y4.6485
G01 X18.4692 Y4.6421
G01 X18.4826 Y4.5521
G01 X18.4838 Y4.5458
G01 X18.5059 Y4.4575
G01 X18.5078 Y4.4514
G01 X18.5384 Y4.3657
G01 X18.5409 Y4.3598
G01 X18.5798 Y4.2776
G01 X18.5828 Y4.2719
G01 X18.6296 Y4.1939
G01 X18.6332 Y4.1886
G01 X18.6874 Y4.1154
G01 X18.6914 Y4.1105
G01 X18.7526 Y4.0431
G01 X18.7571 Y4.0386
G01 X18.8245 Y3.9774
G01 X18.8294 Y3.9734
G01 X18.9026 Y3.9192
G01 X18.9079 Y3.9156
G01 X18.9859 Y3.8688
G01 X18.9916 Y3.8658
G01 X19.0738 Y3.8269
G01 X19.0797 Y3.8244
G01 X19.1654 Y3.7938
G01 X19.1715 Y3.7919
G01 X19.2598 Y3.7698
G01 X19.2661 Y3.7686
G01 X19.3561 Y3.7552
G01 X19.3625 Y3.7546
G01 X19.4534 Y3.7501
G01 X19.4598 Y3.7501
G01 X19.5507 Y3.7546
G01 X19.5571 Y3.7552
G01 X19.6471 Y3.7686
G01 X19.6534 Y3.7698
G01 X19.7417 Y3.7919
G01 X19.7478 Y3.7938
G01 X19.8335 Y3.8244
G01 X19.8394 Y3.8269
G01 X19.9216 Y3.8658
G01 X19.9273 Y3.8688
G01 X20.0053 Y3.9156
G01 X20.0106 Y3.9192
G01 X20.0838 Y3.9734
G01 X20.0887 Y3.9774
G01 X20.1561 Y4.0386
G01 X20.1606 Y4.0431
G01 X20.2218 Y4.1105
G01 X20.2258 Y4.1154
G01 X20.2800 Y4.1886
G01 X20.2836 Y4.1939
G01 X20.3304 Y4.2719
G01 X20.3334 Y4.2776
G01 X20.3723 Y4.3598
G01 X20.3748 Y4.3657
G01 X20.4054 Y4.4514
G01 X20.4073 Y4.4575
G01 X20.4294 Y4.5458
G01 X20.4306 Y4.5521
G01 X20.4440 Y4.6421
G01 X20.4446 Y4.6485
G01 X20.4492 Y4.7426
G01 X20.4492 Y6.5968
G01 X20.4446 Y6.6909
G01 X20.4440 Y6.6973
G01 X20.4306 Y6.7873
G01 X20.4294 Y6.7936
G01 X20.4073 Y6.8819
G01 X20.4054 Y6.8880
G01 X20.3748 Y6.9737
G01 X20.3723 Y6.9796
G01 X20.3334 Y7.0618
G01 X20.3304 Y7.0675
G01 X20.2836 Y7.1455
G01 X20.2800 Y7.1508
G01 X20.2258 Y7.2240
G01 X20.2218 Y7.2289
G01 X20.1606 Y7.2963
G01 X20.1561 Y7.3008
G01 X20.0887 Y7.3620
G01 X20.0838 Y7.3660
G01 X20.0106 Y7.4202
G01 X20.0053 Y7.4238
G01 X19.9273 Y7.4706
G01 X19.9216 Y7.4736
G01 X19.8718 Y7.4972
G01 X19.8718 Y8.0212
G01 X23.4502 Y11.5996
G01 X24.4016 Y11.5996
G01 X24.4770 Y11.6033
G01 X24.4834 Y11.6039
G01 X24.5549 Y11.6145
G01 X24.5612 Y11.6157
G01 X24.6313 Y11.6333
G01 X24.6374 Y11.6352
G01 X24.7055 Y11.6595
G01 X24.7114 Y11.6620
G01 X24.7768 Y11.6929
G01 X24.7824 Y11.6959
G01 X24.8445 Y11.7331
G01 X24.8498 Y11.7366
G01 X24.9078 Y11.7797
G01 X24.9128 Y11.7838
G01 X24.9664 Y11.8323
G01 X24.9709 Y11.8368
G01 X25.0194 Y11.8904
G01 X25.0235 Y11.8954
G01 X25.0666 Y11.9534
G01 X25.0701 Y11.9587
G01 X25.1073 Y12.0208
G01 X25.1103 Y12.0264
G01 X25.1412 Y12.0918
G01 X25.1437 Y12.0977
G01 X25.1680 Y12.1658
G01 X25.1699 Y12.1719
G01 X25.1875 Y12.2420
G01 X25.1887 Y12.2483
G01 X25.1993 Y12.3198
G01 X25.1999 Y12.3262
G01 X25.2035 Y12.3984
G01 X25.2035 Y12.4048
G01 X25.1999 Y12.4770
G01 X25.1993 Y12.4834
G01 X25.1887 Y12.5549
G01 X25.1875 Y12.5612
G01 X25.1699 Y12.6313
G01 X25.1680 Y12.6374
G01 X25.1437 Y12.7055
G01 X25.1412 Y12.7114
G01 X25.1103 Y12.7768
G01 X25.1073 Y12.7824
G01 X25.0701 Y12.8445
G01 X25.0666 Y12.8498
G01 X25.0235 Y12.9078
G01 X25.0194 Y12.9128
G01 X24.9709 Y12.9664
G01 X24.9664 Y12.9709
G01 X24.9128 Y13.0194
G01 X24.9078 Y13.0235
G01 X24.8498 Y13.0666
G01 X24.8445 Y13.0701
G01 X24.7824 Y13.1073
G01 X24.7768 Y13.1103
G01 X24.7114 Y13.1412
G01 X24.7055 Y13.1437
G01 X24.6374 Y13.1680
G01 X24.6313 Y13.1699
G01 X24.5612 Y13.1875
G01 X24.5549 Y13.1887
G01 X24.4834 Y13.1993
G01 X24.4770 Y13.1999
G01 X24.4016 Y13.2036
G01 X22.9284 Y13.2036
G01 X22.8530 Y13.1999
G01 X22.8466 Y13.1993
G01 X22.7751 Y13.1887
G01 X22.7688 Y13.1875
G01 X22.6987 Y13.1699
G01 X22.6926 Y13.1680
G01 X22.6245 Y13.1437
G01 X22.6186 Y13.1412
G01 X22.5532 Y13.1103
G01 X22.5476 Y13.1073
G01 X22.4855 Y13.0701
G01 X22.4802 Y13.0666
G01 X22.4222 Y13.0235
G01 X22.4172 Y13.0194
G01 X22.3636 Y12.9709
G01 X22.3591 Y12.9664
G01 X22.3106 Y12.9128
G01 X22.3065 Y12.9078
G01 X22.2634 Y12.8498
G01 X22.2599 Y12.8445
G01 X22.2227 Y12.7824
G01 X22.2197 Y12.7768
G01 X22.1888 Y12.7114
G01 X22.1863 Y12.7055
G01 X22.1620 Y12.6374
G01 X22.1601 Y12.6313
G01 X22.1425 Y12.5612
G01 X22.1413 Y12.5549
G01 X22.1307 Y12.4834
G01 X22.1301 Y12.4770
G01 X22.1265 Y12.4048
G01 X22.1265 Y12.3984
G01 X22.1301 Y12.3262
G01 X22.1307 Y12.3198
G01 X22.1413 Y12.2483
G01 X22.1425 Y12.2420
G01 X22.1601 Y12.1719
G01 X22.1620 Y12.1658
G01 X22.1863 Y12.0977
G01 X22.1888 Y12.0918
G01 X22.2197 Y12.0264
G01 X22.2227 Y12.0208
G01 X22.2599 Y11.9587
G01 X22.2634 Y11.9534
G01 X22.3065 Y11.8954
G01 X22.3106 Y11.8904
G01 X22.3591 Y11.8368
G01 X22.3636 Y11.8323
G01 X22.4172 Y11.7838
G01 X22.4416 Y11.7653
G01 X19.1630 Y8.4868
G01 X19.1377 Y8.4590
G01 X19.1337 Y8.4541
G01 X19.1132 Y8.4265
G01 X19.1097 Y8.4212
G01 X19.0920 Y8.3917
G01 X19.0890 Y8.3861
G01 X19.0743 Y8.3550
G01 X19.0719 Y8.3491
G01 X19.0603 Y8.3167
G01 X19.0585 Y8.3106
G01 X19.0501 Y8.2773
G01 X19.0489 Y8.2711
G01 X19.0438 Y8.2371
G01 X19.0432 Y8.2307
G01 X19.0414 Y8.1932
G01 X19.0414 Y7.4972
G00 Z2.0000
G00 X19.7673 Y3.1810
G01 F60.00
G01 Z-0.0851
G01 F60.00
G01 X20.3412 Y3.4187
G01 X20.7805 Y3.8580
G01 X21.0182 Y4.4319
G01 X21.0182 Y6.9075
G01 X20.7805 Y7.4814
G01 X20.5051 Y7.7567
G01 X20.5011 Y7.7612
G01 X20.4975 Y7.7659
G01 X20.4944 Y7.7710
G01 X20.4917 Y7.7763
G01 X20.4895 Y7.7819
G01 X20.4879 Y7.7876
G01 X20.4868 Y7.7935
G01 X20.4861 Y7.8007
G01 X20.4861 Y7.8073
G01 X20.4868 Y7.8138
G01 X20.4882 Y7.8202
G01 X20.4902 Y7.8264
G01 X20.4928 Y7.8324
G01 X20.4960 Y7.8381
G01 X20.4998 Y7.8435
G01 X20.5041 Y7.8484
G01 X23.6670 Y11.0113
G01 X23.6718 Y11.0156
G01 X23.6772 Y11.0196
G01 X23.6827 Y11.0229
G01 X23.6885 Y11.0256
G01 X23.6945 Y11.0277
G01 X23.7006 Y11.0293
G01 X23.7069 Y11.0302
G01 X23.7133 Y11.0305
G01 X24.6744 Y11.0305
G01 X25.1783 Y11.2392
G01 X25.5640 Y11.6249
G01 X25.7727 Y12.1288
G01 X25.7727 Y12.6744
G01 X25.6464 Y12.9792
G01 X25.6443 Y12.9852
G01 X25.6427 Y12.9914
G01 X25.6418 Y12.9977
G01 X25.6415 Y13.0046
G01 X25.6418 Y13.0111
G01 X25.6428 Y13.0176
G01 X25.6444 Y13.0239
G01 X25.6467 Y13.0301
G01 X25.6496 Y13.0359
G01 X25.6530 Y13.0415
G01 X25.6570 Y13.0467
G01 X25.6615 Y13.0515
G01 X25.6664 Y13.0557
G01 X25.6717 Y13.0595
G01 X25.6776 Y13.0628
G01 X25.6839 Y13.0656
G01 X25.6904 Y13.0676
G01 X25.6970 Y13.0690
G01 X25.7038 Y13.0696
G01 X25.7106 Y13.0696
G01 X25.7174 Y13.0688
G01 X25.7245 Y13.0673
G01 X25.7309 Y13.0652
G01 X25.7370 Y13.0624
G01 X25.7428 Y13.0590
G01 X25.7483 Y13.0551
G01 X25.7533 Y13.0506
G01 X28.7982 Y10.0057
G01 X28.8025 Y10.0009
G01 X28.8063 Y9.9958
G01 X28.8095 Y9.9903
G01 X28.8123 Y9.9846
G01 X28.9172 Y9.7310
G01 X29.3315 Y9.3167
G01 X29.8728 Y9.0925
G01 X32.1351 Y9.0925
G01 X32.6764 Y9.3167
G01 X33.0907 Y9.7310
G01 X33.3149 Y10.2723
G01 X33.3149 Y10.8582
G01 X33.0907 Y11.3995
G01 X32.7012 Y11.7889
G01 X32.6972 Y11.7934
G01 X32.6936 Y11.7981
G01 X32.6905 Y11.8032
G01 X32.6878 Y11.8085
G01 X32.6856 Y11.8141
G01 X32.6840 Y11.8198
G01 X32.6828 Y11.8264
G01 X32.6822 Y11.8329
G01 X32.6822 Y11.8395
G01 X32.6829 Y11.8460
G01 X32.6843 Y11.8524
G01 X32.6863 Y11.8586
G01 X32.6889 Y11.8646
G01 X32.6921 Y11.8703
G01 X32.6959 Y11.8757
G01 X32.7002 Y11.8806
G01 X33.0907 Y12.2710
G01 X33.3149 Y12.8123
G01 X33.3149 Y13.3982
G01 X33.1484 Y13.8001
G01 X33.1463 Y13.8058
G01 X33.1448 Y13.8117
G01 X33.1438 Y13.8176
G01 X33.1434 Y13.8236
G01 X33.1436 Y13.8297
G01 X33.1443 Y13.8357
G01 X33.1458 Y13.8428
G01 X33.1479 Y13.8492
G01 X33.1507 Y13.8553
G01 X33.1541 Y13.8611
G01 X33.1580 Y13.8666
G01 X33.1625 Y13.8716
G01 X34.6649 Y15.3738
G01 X34.8147 Y15.7356
G01 X34.8147 Y26.2578
G01 X34.6649 Y26.6196
G01 X32.8969 Y28.3876
G01 X32.8926 Y28.3923
G01 X32.8888 Y28.3974
G01 X32.8856 Y28.4029
G01 X32.8828 Y28.4086
G01 X32.8807 Y28.4146
G01 X32.8791 Y28.4208
G01 X32.8782 Y28.4271
G01 X32.8779 Y28.4341
G01 X32.8782 Y28.4406
G01 X32.8792 Y28.4471
G01 X32.8808 Y28.4534
G01 X32.8831 Y28.4596
G01 X32.8860 Y28.4654
G01 X32.8894 Y28.4710
G01 X32.8934 Y28.4762
G01 X32.8979 Y28.4810
G01 X32.9028 Y28.4852
G01 X32.9081 Y28.4890
G01 X32.9138 Y28.4922
G01 X32.9397 Y28.5031
G01 X33.1202 Y28.5764
G01 X33.1216 Y28.5773
G01 X33.2595 Y28.7153
G01 X33.3982 Y28.8519
G01 X33.4025 Y28.8577
G01 X33.4068 Y28.8626
G01 X34.8955 Y30.3513
G01 X34.8999 Y30.3552
G01 X34.9045 Y30.3588
G01 X34.9095 Y30.3619
G01 X34.9147 Y30.3645
G01 X34.9201 Y30.3667
G01 X34.9261 Y30.3685
G01 X34.9340 Y30.3699
G01 X34.9419 Y30.3704
G01 X35.4615 Y30.3704
G01 X36.2646 Y31.1736
G01 X36.2646 Y32.3095
G01 X35.4615 Y33.1127
G01 X34.3256 Y33.1127
G01 X33.5224 Y32.3095
G01 X33.5224 Y31.7899
G01 X33.5219 Y31.7820
G01 X33.5205 Y31.7741
G01 X33.5187 Y31.7681
G01 X33.5165 Y31.7627
G01 X33.5139 Y31.7575
G01 X33.5108 Y31.7525
G01 X33.5072 Y31.7479
G01 X33.5033 Y31.7435
G01 X32.1806 Y30.4209
G01 X32.1754 Y30.4163
G01 X32.1697 Y30.4122
G01 X32.1637 Y30.4088
G01 X32.1577 Y30.4061
G01 X32.1519 Y30.4041
G01 X32.1459 Y30.4028
G01 X32.1398 Y30.4019
G01 X32.1337 Y30.4017
G01 X28.0604 Y30.4317
G01 X28.0536 Y30.4321
G01 X28.0469 Y30.4332
G01 X28.0400 Y30.4351
G01 X28.0341 Y30.4374
G01 X28.0284 Y30.4403
G01 X28.0230 Y30.4438
G01 X28.0180 Y30.4477
G01 X28.0134 Y30.4521
G01 X28.0093 Y30.4569
G01 X28.0056 Y30.4622
G01 X28.0023 Y30.4681
G01 X27.9996 Y30.4742
G01 X27.9976 Y30.4804
G01 X27.9962 Y30.4868
G01 X27.9955 Y30.4934
G01 X27.9955 Y30.5000
G01 X27.9961 Y30.5065
G01 X27.9974 Y30.5134
G01 X27.9991 Y30.5190
G01 X28.0013 Y30.5244
G01 X28.0039 Y30.5296
G01 X28.0070 Y30.5346
G01 X28.0106 Y30.5392
G01 X28.0145 Y30.5436
G01 X28.6446 Y31.1736
G01 X28.6446 Y32.3095
G01 X27.8415 Y33.1127
G01 X27.3219 Y33.1127
G01 X27.3140 Y33.1132
G01 X27.3061 Y33.1146
G01 X27.3001 Y33.1164
G01 X27.2947 Y33.1186
G01 X27.2895 Y33.1212
G01 X27.2845 Y33.1243
G01 X27.2799 Y33.1279
G01 X27.2755 Y33.1318
G01 X26.7894 Y33.6180
G01 X26.4275 Y33.7679
G01 X12.8562 Y33.7679
G01 X12.4943 Y33.6180
G01 X11.4073 Y32.5309
G01 X11.4029 Y32.5270
G01 X11.3983 Y32.5234
G01 X11.3933 Y32.5203
G01 X11.3881 Y32.5177
G01 X11.3827 Y32.5155
G01 X11.3767 Y32.5137
G01 X11.3706 Y32.5125
G01 X11.3644 Y32.5119
G01 X11.3582 Y32.5119
G01 X11.3521 Y32.5124
G01 X11.0151 Y32.5585
G01 X10.1103 Y31.8718
G01 X9.9562 Y30.7465
G01 X10.2955 Y30.2994
G01 X10.2989 Y30.2944
G01 X10.3019 Y30.2890
G01 X10.3044 Y30.2834
G01 X10.3064 Y30.2775
G01 X10.3077 Y30.2716
G01 X10.3086 Y30.2655
G01 X10.3088 Y30.2593
G01 X10.3085 Y30.2532
G01 X10.3075 Y30.2472
G01 X10.3058 Y30.2402
G01 X10.3035 Y30.2339
G01 X10.3006 Y30.2279
G01 X10.2971 Y30.2223
G01 X10.2930 Y30.2170
G01 X10.2884 Y30.2122
G01 X10.2833 Y30.2079
G01 X10.2778 Y30.2041
G01 X10.2720 Y30.2009
G01 X10.2658 Y30.1983
G01 X10.2591 Y30.1962
G01 X10.2512 Y30.1948
G01 X10.2433 Y30.1943
G01 X6.7084 Y30.1943
G01 X6.3465 Y30.0444
G01 X1.7807 Y25.4786
G01 X1.6309 Y25.1168
G01 X1.6309 Y12.3724
G01 X1.7807 Y12.0106
G01 X8.9562 Y4.8351
G01 X9.3181 Y4.6852
G01 X12.8295 Y4.6852
G01 X12.8359 Y4.6849
G01 X12.8422 Y4.6840
G01 X12.8484 Y4.6824
G01 X12.8544 Y4.6803
G01 X12.8601 Y4.6775
G01 X12.8656 Y4.6742
G01 X12.8707 Y4.6704
G01 X12.8760 Y4.6657
G01 X12.8802 Y4.6609
G01 X12.8840 Y4.6558
G01 X12.8873 Y4.6503
G01 X12.8901 Y4.6446
G01 X12.8922 Y4.6386
G01 X12.8938 Y4.6324
G01 X12.8947 Y4.6261
G01 X12.8950 Y4.6197
G01 X12.8950 Y4.4319
G01 X13.1327 Y3.8580
G01 X13.5720 Y3.4187
G01 X14.1459 Y3.1810
G01 X14.7673 Y3.1810
G01 X15.3412 Y3.4187
G01 X15.7805 Y3.8580
G01 X16.0182 Y4.4319
G01 X16.0182 Y5.8119
G01 X16.0185 Y5.8183
G01 X16.0194 Y5.8246
G01 X16.0210 Y5.8307
G01 X16.0231 Y5.8367
G01 X16.0258 Y5.8425
G01 X16.0293 Y5.8483
G01 X16.0331 Y5.8534
G01 X16.0374 Y5.8582
G01 X16.8796 Y6.7004
G01 X17.0295 Y7.0622
G01 X17.0295 Y10.9764
G01 X17.0298 Y10.9822
G01 X17.0306 Y10.9880
G01 X17.0319 Y10.9938
G01 X17.0337 Y10.9993
G01 X17.0360 Y11.0047
G01 X17.0391 Y11.0103
G01 X17.0429 Y11.0161
G01 X17.0474 Y11.0213
G01 X17.0524 Y11.0261
G01 X17.0578 Y11.0304
G01 X17.0637 Y11.0340
G01 X17.0699 Y11.0370
G01 X17.5583 Y11.2392
G01 X17.9440 Y11.6249
G01 X18.1527 Y12.1288
G01 X18.1527 Y12.6744
G01 X17.9440 Y13.1783
G01 X17.5583 Y13.5640
G01 X17.4446 Y13.6110
G01 X17.4388 Y13.6138
G01 X17.4333 Y13.6171
G01 X17.4281 Y13.6209
G01 X17.4234 Y13.6252
G01 X17.4191 Y13.6299
G01 X17.4153 Y13.6350
G01 X17.4121 Y13.6403
G01 X17.4096 Y13.6455
G01 X17.4075 Y13.6508
G01 X17.4057 Y13.6572
G01 X17.4046 Y13.6634
G01 X17.4041 Y13.6696
G01 X17.4042 Y13.6759
G01 X17.4049 Y13.6821
G01 X17.4062 Y13.6882
G01 X17.4081 Y13.6942
G01 X17.4106 Y13.7000
G01 X17.4136 Y13.7055
G01 X17.4171 Y13.7107
G01 X17.4219 Y13.7164
G01 X17.4269 Y13.7213
G01 X17.4324 Y13.7255
G01 X17.4383 Y13.7292
G01 X17.4446 Y13.7322
G01 X17.5583 Y13.7792
G01 X17.9440 Y14.1649
G01 X18.1527 Y14.6688
G01 X18.1527 Y15.2144
G01 X17.9440 Y15.7183
G01 X17.5583 Y16.1040
G01 X17.4446 Y16.1510
G01 X17.4388 Y16.1538
G01 X17.4333 Y16.1571
G01 X17.4281 Y16.1609
G01 X17.4234 Y16.1652
G01 X17.4191 Y16.1699
G01 X17.4153 Y16.1750
G01 X17.4121 Y16.1803
G01 X17.4096 Y16.1855
G01 X17.4075 Y16.1908
G01 X17.4057 Y16.1972
G01 X17.4046 Y16.2034
G01 X17.4041 Y16.2096
G01 X17.4042 Y16.2159
G01 X17.4049 Y16.2221
G01 X17.4062 Y16.2282
G01 X17.4081 Y16.2342
G01 X17.4106 Y16.2400
G01 X17.4136 Y16.2455
G01 X17.4171 Y16.2507
G01 X17.4219 Y16.2564
G01 X17.4269 Y16.2613
G01 X17.4324 Y16.2655
G01 X17.4383 Y16.2692
G01 X17.4446 Y16.2722
G01 X17.5583 Y16.3192
G01 X17.9440 Y16.7049
G01 X18.1527 Y17.2088
G01 X18.1527 Y17.7544
G01 X17.9440 Y18.2583
G01 X17.5583 Y18.6440
G01 X17.0543 Y18.8527
G01 X15.0356 Y18.8527
G01 X14.5317 Y18.6440
G01 X14.3731 Y18.4853
G01 X14.3679 Y18.4807
G01 X14.3622 Y18.4766
G01 X14.3562 Y18.4732
G01 X14.3503 Y18.4705
G01 X14.3445 Y18.4686
G01 X14.3387 Y18.4672
G01 X14.3327 Y18.4664
G01 X14.3267 Y18.4661
G01 X11.2683 Y18.4661
G01 X11.2619 Y18.4664
G01 X11.2556 Y18.4673
G01 X11.2494 Y18.4689
G01 X11.2434 Y18.4710
G01 X11.2377 Y18.4738
G01 X11.2322 Y18.4771
G01 X11.2271 Y18.4809
G01 X11.2223 Y18.4851
G01 X11.2176 Y18.4904
G01 X11.2138 Y18.4955
G01 X11.2105 Y18.5010
G01 X11.2077 Y18.5067
G01 X11.2056 Y18.5127
G01 X11.2040 Y18.5189
G01 X11.2031 Y18.5252
G01 X11.2028 Y18.5316
G01 X11.2028 Y19.0408
G01 X10.9650 Y19.6147
G01 X10.5257 Y20.0540
G01 X9.9518 Y20.2918
G01 X7.4763 Y20.2918
G01 X6.9023 Y20.0540
G01 X6.4630 Y19.6147
G01 X6.2260 Y19.0423
G01 X6.2230 Y19.0361
G01 X6.2193 Y19.0301
G01 X6.2150 Y19.0247
G01 X6.2102 Y19.0197
G01 X6.2049 Y19.0152
G01 X6.1996 Y19.0115
G01 X6.1943 Y19.0086
G01 X6.1889 Y19.0062
G01 X6.1832 Y19.0044
G01 X6.1774 Y19.0030
G01 X6.1715 Y19.0022
G01 X6.1653 Y19.0019
G01 X6.1586 Y19.0022
G01 X6.1520 Y19.0033
G01 X6.1455 Y19.0050
G01 X6.1393 Y19.0073
G01 X6.1333 Y19.0103
G01 X6.1276 Y19.0139
G01 X6.1224 Y19.0181
G01 X6.1176 Y19.0228
G01 X6.1133 Y19.0279
G01 X6.1096 Y19.0335
G01 X6.1065 Y19.0391
G01 X6.1042 Y19.0445
G01 X6.1024 Y19.0500
G01 X6.1011 Y19.0558
G01 X6.1003 Y19.0616
G01 X6.1000 Y19.0674
G01 X6.1000 Y23.3929
G01 X6.1003 Y23.3989
G01 X6.1011 Y23.4049
G01 X6.1025 Y23.4107
G01 X6.1044 Y23.4165
G01 X6.1069 Y23.4220
G01 X6.1100 Y23.4276
G01 X6.1134 Y23.4325
G01 X6.1172 Y23.4371
G01 X6.1214 Y23.4413
G01 X6.1260 Y23.4451
G01 X6.1309 Y23.4485
G01 X6.1363 Y23.4515
G01 X6.1423 Y23.4542
G01 X6.1485 Y23.4562
G01 X6.1549 Y23.4575
G01 X6.1614 Y23.4583
G01 X6.1679 Y23.4584
G01 X6.1744 Y23.4578
G01 X6.1808 Y23.4565
G01 X6.1871 Y23.4547
G01 X6.1931 Y23.4522
G01 X6.1993 Y23.4488
G01 X6.2051 Y23.4450
G01 X6.2103 Y23.4405
G01 X6.2151 Y23.4355
G01 X6.2194 Y23.4301
G01 X6.2230 Y23.4242
G01 X6.2260 Y23.4180
G01 X6.4630 Y22.8455
G01 X6.9023 Y22.4063
G01 X7.4763 Y22.1685
G01 X9.9518 Y22.1685
G01 X10.5257 Y22.4063
G01 X10.9650 Y22.8455
G01 X11.2028 Y23.4195
G01 X11.2028 Y24.0516
G01 X11.2031 Y24.0579
G01 X11.2040 Y24.0641
G01 X11.2055 Y24.0701
G01 X11.2076 Y24.0760
G01 X11.2102 Y24.0817
G01 X11.2134 Y24.0871
G01 X11.2170 Y24.0922
G01 X11.2217 Y24.0975
G01 X11.2265 Y24.1019
G01 X11.2316 Y24.1058
G01 X11.2372 Y24.1092
G01 X11.2430 Y24.1120
G01 X11.2491 Y24.1142
G01 X11.2553 Y24.1158
G01 X11.2617 Y24.1168
G01 X11.2682 Y24.1171
G01 X14.3267 Y24.1171
G01 X14.3327 Y24.1168
G01 X14.3387 Y24.1160
G01 X14.3445 Y24.1146
G01 X14.3503 Y24.1127
G01 X14.3562 Y24.1100
G01 X14.3622 Y24.1066
G01 X14.3679 Y24.1025
G01 X14.3731 Y24.0979
G01 X14.5317 Y23.9392
G01 X15.0356 Y23.7305
G01 X17.0544 Y23.7305
G01 X17.5583 Y23.9392
G01 X17.9440 Y24.3249
G01 X18.1527 Y24.8288
G01 X18.1527 Y25.3744
G01 X17.9440 Y25.8783
G01 X17.5583 Y26.2640
G01 X17.4446 Y26.3110
G01 X17.4388 Y26.3138
G01 X17.4333 Y26.3171
G01 X17.4281 Y26.3209
G01 X17.4234 Y26.3252
G01 X17.4191 Y26.3299
G01 X17.4153 Y26.3350
G01 X17.4121 Y26.3403
G01 X17.4096 Y26.3455
G01 X17.4075 Y26.3509
G01 X17.4057 Y26.3572
G01 X17.4046 Y26.3634
G01 X17.4041 Y26.3696
G01 X17.4042 Y26.3759
G01 X17.4049 Y26.3821
G01 X17.4062 Y26.3882
G01 X17.4081 Y26.3942
G01 X17.4106 Y26.4000
G01 X17.4136 Y26.4055
G01 X17.4171 Y26.4107
G01 X17.4219 Y26.4164
G01 X17.4269 Y26.4213
G01 X17.4324 Y26.4255
G01 X17.4383 Y26.4292
G01 X17.4446 Y26.4322
G01 X17.5583 Y26.4792
G01 X17.9440 Y26.8649
G01 X18.1527 Y27.3688
G01 X18.1527 Y27.9144
G01 X17.9440 Y28.4183
G01 X17.5583 Y28.8040
G01 X17.4446 Y28.8510
G01 X17.4383 Y28.8540
G01 X17.4324 Y28.8577
G01 X17.4269 Y28.8620
G01 X17.4219 Y28.8668
G01 X17.4174 Y28.8721
G01 X17.4137 Y28.8774
G01 X17.4108 Y28.8827
G01 X17.4084 Y28.8881
G01 X17.4066 Y28.8938
G01 X17.4052 Y28.8996
G01 X17.4044 Y28.9055
G01 X17.4041 Y28.9117
G01 X17.4044 Y28.9176
G01 X17.4052 Y28.9236
G01 X17.4066 Y28.9294
G01 X17.4084 Y28.9351
G01 X17.4108 Y28.9405
G01 X17.4137 Y28.9458
G01 X17.4174 Y28.9511
G01 X17.4219 Y28.9564
G01 X17.4269 Y28.9613
G01 X17.4324 Y28.9655
G01 X17.4383 Y28.9692
G01 X17.4446 Y28.9722
G01 X17.5583 Y29.0192
G01 X17.7169 Y29.1779
G01 X17.7221 Y29.1825
G01 X17.7278 Y29.1866
G01 X17.7338 Y29.1900
G01 X17.7397 Y29.1927
G01 X17.7455 Y29.1946
G01 X17.7513 Y29.1960
G01 X17.7573 Y29.1968
G01 X17.7633 Y29.1971
G01 X21.9467 Y29.1971
G01 X21.9527 Y29.1968
G01 X21.9587 Y29.1960
G01 X21.9645 Y29.1946
G01 X21.9703 Y29.1927
G01 X21.9762 Y29.1900
G01 X21.9822 Y29.1866
G01 X21.9879 Y29.1825
G01 X21.9931 Y29.1779
G01 X22.1517 Y29.0192
G01 X22.2654 Y28.9722
G01 X22.2712 Y28.9694
G01 X22.2767 Y28.9662
G01 X22.2818 Y28.9623
G01 X22.2868 Y28.9579
G01 X22.2914 Y28.9527
G01 X22.2955 Y28.9470
G01 X22.2990 Y28.9409
G01 X22.3015 Y28.9352
G01 X22.3034 Y28.9295
G01 X22.3048 Y28.9237
G01 X22.3056 Y28.9177
G01 X22.3059 Y28.9115
G01 X22.3056 Y28.9056
G01 X22.3048 Y28.8996
G01 X22.3034 Y28.8938
G01 X22.3016 Y28.8881
G01 X22.2992 Y28.8827
G01 X22.2963 Y28.8774
G01 X22.2926 Y28.8721
G01 X22.2881 Y28.8668
G01 X22.2831 Y28.8619
G01 X22.2776 Y28.8577
G01 X22.2717 Y28.8540
G01 X22.2654 Y28.8510
G01 X22.1517 Y28.8040
G01 X21.7660 Y28.4183
G01 X21.5573 Y27.9144
G01 X21.5573 Y27.3688
G01 X21.7660 Y26.8649
G01 X22.1517 Y26.4792
G01 X22.2654 Y26.4322
G01 X22.2712 Y26.4294
G01 X22.2767 Y26.4262
G01 X22.2818 Y26.4223
G01 X22.2866 Y26.4181
G01 X22.2907 Y26.4135
G01 X22.2943 Y26.4089
G01 X22.2974 Y26.4039
G01 X22.3000 Y26.3987
G01 X22.3022 Y26.3933
G01 X22.3040 Y26.3873
G01 X22.3052 Y26.3810
G01 X22.3058 Y26.3746
G01 X22.3058 Y26.3682
G01 X22.3052 Y26.3618
G01 X22.3039 Y26.3555
G01 X22.3020 Y26.3494
G01 X22.2995 Y26.3435
G01 X22.2965 Y26.3378
G01 X22.2926 Y26.3321
G01 X22.2881 Y26.3268
G01 X22.2831 Y26.3219
G01 X22.2776 Y26.3177
G01 X22.2717 Y26.3140
G01 X22.2654 Y26.3110
G01 X22.1517 Y26.2640
G01 X21.7660 Y25.8783
G01 X21.5573 Y25.3744
G01 X21.5573 Y24.8288
G01 X21.7660 Y24.3249
G01 X22.1517 Y23.9392
G01 X22.6556 Y23.7305
G01 X24.6744 Y23.7305
G01 X25.1783 Y23.9392
G01 X25.3369 Y24.0979
G01 X25.3421 Y24.1025
G01 X25.3478 Y24.1066
G01 X25.3538 Y24.1100
G01 X25.3597 Y24.1127
G01 X25.3655 Y24.1146
G01 X25.3713 Y24.1160
G01 X25.3773 Y24.1168
G01 X25.3833 Y24.1171
G01 X28.0943 Y24.1171
G01 X28.1010 Y24.1168
G01 X28.1074 Y24.1158
G01 X28.1137 Y24.1142
G01 X28.1197 Y24.1120
G01 X28.1255 Y24.1092
G01 X28.1310 Y24.1058
G01 X28.1362 Y24.1019
G01 X28.1409 Y24.0975
G01 X28.1452 Y24.0927
G01 X28.1492 Y24.0871
G01 X28.1524 Y24.0817
G01 X28.1550 Y24.0761
G01 X28.1571 Y24.0701
G01 X28.1586 Y24.0641
G01 X28.1595 Y24.0579
G01 X28.1598 Y24.0516
G01 X28.1595 Y24.0450
G01 X28.1586 Y24.0387
G01 X28.1570 Y24.0325
G01 X28.1548 Y24.0265
G01 X28.1269 Y23.9591
G01 X28.1269 Y23.3378
G01 X28.3646 Y22.7639
G01 X28.8039 Y22.3246
G01 X29.3779 Y22.0869
G01 X31.8534 Y22.0869
G01 X32.4273 Y22.3246
G01 X32.7339 Y22.6312
G01 X32.7387 Y22.6355
G01 X32.7441 Y22.6395
G01 X32.7498 Y22.6428
G01 X32.7557 Y22.6456
G01 X32.7619 Y22.6478
G01 X32.7683 Y22.6493
G01 X32.7748 Y22.6502
G01 X32.7814 Y22.6504
G01 X32.7880 Y22.6499
G01 X32.7944 Y22.6488
G01 X32.8008 Y22.6471
G01 X32.8070 Y22.6447
G01 X32.8127 Y22.6418
G01 X32.8181 Y22.6383
G01 X32.8231 Y22.6344
G01 X32.8277 Y22.6300
G01 X32.8318 Y22.6252
G01 X32.8355 Y22.6199
G01 X32.8386 Y22.6144
G01 X32.8413 Y22.6085
G01 X32.8432 Y22.6028
G01 X32.8446 Y22.5969
G01 X32.8454 Y22.5909
G01 X32.8457 Y22.5849
G01 X32.8457 Y19.7121
G01 X32.8453 Y19.7051
G01 X32.8442 Y19.6983
G01 X32.8424 Y19.6915
G01 X32.8401 Y19.6855
G01 X32.8373 Y19.6800
G01 X32.8341 Y19.6748
G01 X32.8303 Y19.6700
G01 X32.8262 Y19.6654
G01 X32.8216 Y19.6614
G01 X32.8164 Y19.6575
G01 X32.8105 Y19.6541
G01 X32.8044 Y19.6512
G01 X32.7980 Y19.6491
G01 X32.7914 Y19.6476
G01 X32.7847 Y19.6467
G01 X32.7779 Y19.6466
G01 X32.7712 Y19.6472
G01 X32.7641 Y19.6486
G01 X32.7585 Y19.6503
G01 X32.7531 Y19.6525
G01 X32.7479 Y19.6551
G01 X32.7429 Y19.6582
G01 X32.7383 Y19.6618
G01 X32.7339 Y19.6657
G01 X32.4273 Y19.9724
G01 X31.8534 Y20.2101
G01 X29.3779 Y20.2101
G01 X28.8039 Y19.9724
G01 X28.3646 Y19.5331
G01 X28.1269 Y18.9591
G01 X28.1269 Y18.5316
G01 X28.1266 Y18.5253
G01 X28.1257 Y18.5191
G01 X28.1242 Y18.5131
G01 X28.1221 Y18.5072
G01 X28.1195 Y18.5015
G01 X28.1163 Y18.4961
G01 X28.1123 Y18.4905
G01 X28.1080 Y18.4857
G01 X28.1032 Y18.4813
G01 X28.0981 Y18.4774
G01 X28.0926 Y18.4740
G01 X28.0867 Y18.4712
G01 X28.0806 Y18.4690
G01 X28.0744 Y18.4674
G01 X28.0680 Y18.4664
G01 X28.0615 Y18.4661
G01 X25.3833 Y18.4661
G01 X25.3773 Y18.4664
G01 X25.3713 Y18.4672
G01 X25.3655 Y18.4686
G01 X25.3597 Y18.4705
G01 X25.3538 Y18.4732
G01 X25.3478 Y18.4766
G01 X25.3421 Y18.4807
G01 X25.3369 Y18.4853
G01 X25.1783 Y18.6440
G01 X24.6743 Y18.8527
G01 X22.6556 Y18.8527
G01 X22.1517 Y18.6440
G01 X21.7660 Y18.2583
G01 X21.5573 Y17.7544
G01 X21.5573 Y17.2088
G01 X21.7660 Y16.7049
G01 X22.1517 Y16.3192
G01 X22.2654 Y16.2722
G01 X22.2712 Y16.2694
G01 X22.2767 Y16.2661
G01 X22.2819 Y16.2623
G01 X22.2866 Y16.2580
G01 X22.2909 Y16.2533
G01 X22.2949 Y16.2479
G01 X22.2979 Y16.2429
G01 X22.3004 Y16.2377
G01 X22.3025 Y16.2324
G01 X22.3043 Y16.2260
G01 X22.3054 Y16.2198
G01 X22.3059 Y16.2136
G01 X22.3058 Y16.2073
G01 X22.3051 Y16.2011
G01 X22.3038 Y16.1950
G01 X22.3019 Y16.1890
G01 X22.2994 Y16.1832
G01 X22.2964 Y16.1777
G01 X22.2926 Y16.1721
G01 X22.2881 Y16.1668
G01 X22.2831 Y16.1619
G01 X22.2776 Y16.1577
G01 X22.2717 Y16.1540
G01 X22.2654 Y16.1510
G01 X22.1517 Y16.1040
G01 X21.7660 Y15.7183
G01 X21.5573 Y15.2144
G01 X21.5573 Y14.6688
G01 X21.7660 Y14.1649
G01 X22.1517 Y13.7792
G01 X22.2654 Y13.7322
G01 X22.2712 Y13.7294
G01 X22.2767 Y13.7262
G01 X22.2818 Y13.7223
G01 X22.2866 Y13.7181
G01 X22.2907 Y13.7135
G01 X22.2943 Y13.7089
G01 X22.2974 Y13.7039
G01 X22.3000 Y13.6987
G01 X22.3022 Y13.6933
G01 X22.3040 Y13.6873
G01 X22.3052 Y13.6810
G01 X22.3058 Y13.6746
G01 X22.3058 Y13.6682
G01 X22.3052 Y13.6618
G01 X22.3039 Y13.6555
G01 X22.3020 Y13.6494
G01 X22.2995 Y13.6435
G01 X22.2965 Y13.6378
G01 X22.2926 Y13.6321
G01 X22.2881 Y13.6268
G01 X22.2831 Y13.6219
G01 X22.2776 Y13.6177
G01 X22.2717 Y13.6140
G01 X22.2654 Y13.6110
G01 X22.1517 Y13.5640
G01 X21.7660 Y13.1783
G01 X21.5573 Y12.6744
G01 X21.5573 Y12.1288
G01 X21.6702 Y11.8563
G01 X21.6723 Y11.8503
G01 X21.6739 Y11.8441
G01 X21.6748 Y11.8377
G01 X21.6751 Y11.8314
G01 X21.6748 Y11.8250
G01 X21.6738 Y11.8187
G01 X21.6722 Y11.8120
G01 X21.6700 Y11.8060
G01 X21.6673 Y11.8002
G01 X21.6640 Y11.7948
G01 X21.6602 Y11.7897
G01 X21.6560 Y11.7849
G01 X18.6220 Y8.7509
G01 X18.4721 Y8.3891
G01 X18.4721 Y7.8479
G01 X18.4718 Y7.8419
G01 X18.4710 Y7.8359
G01 X18.4696 Y7.8301
G01 X18.4677 Y7.8243
G01 X18.4650 Y7.8184
G01 X18.4616 Y7.8124
G01 X18.4575 Y7.8067
G01 X18.4529 Y7.8015
G01 X18.1327 Y7.4814
G01 X17.8950 Y6.9074
G01 X17.8950 Y4.4319
G01 X18.1327 Y3.8580
G01 X18.5720 Y3.4187
G01 X19.1459 Y3.1810
G01 X19.7673 Y3.1810
G00 Z2.0000
G00 X24.0414 Y3.8422
G01 F60.00
G01 Z-0.0851
G01 F60.00
G01 X23.9916 Y3.8658
G01 X23.9859 Y3.8688
G01 X23.9079 Y3.9156
G01 X23.9026 Y3.9192
G01 X23.8294 Y3.9734
G01 X23.8245 Y3.9774
G01 X23.7571 Y4.0386
G01 X23.7526 Y4.0431
G01 X23.6914 Y4.1105
G01 X23.6874 Y4.1154
G01 X23.6332 Y4.1886
G01 X23.6296 Y4.1939
G01 X23.5828 Y4.2719
G01 X23.5798 Y4.2776
G01 X23.5409 Y4.3598
G01 X23.5384 Y4.3657
G01 X23.5078 Y4.4514
G01 X23.5059 Y4.4575
G01 X23.4838 Y4.5458
G01 X23.4826 Y4.5521
G01 X23.4692 Y4.6421
G01 X23.4686 Y4.6485
G01 X23.4640 Y4.7426
G01 X23.4640 Y5.2545
G01 X23.3410 Y5.2545
G01 X23.3410 Y4.6548
G01 X23.3684 Y4.4813
G01 X23.4227 Y4.3144
G01 X23.5024 Y4.1579
G01 X23.6057 Y4.0159
G01 X23.7299 Y3.8917
G01 X23.8719 Y3.7884
G01 X24.0283 Y3.7087
G01 X24.0414 Y3.7045
G01 X24.0414 Y3.8422
G00 Z2.0000
G00 X24.8718 Y3.8422
G01 F60.00
G01 Z-0.0851
G01 F60.00
G01 X24.8718 Y3.7045
G01 X24.8849 Y3.7087
G01 X25.0413 Y3.7884
G01 X25.1833 Y3.8917
G01 X25.3075 Y4.0159
G01 X25.4108 Y4.1579
G01 X25.4905 Y4.3143
G01 X25.5447 Y4.4813
G01 X25.5722 Y4.6548
G01 X25.5722 Y5.2545
G01 X25.4492 Y5.2545
G01 X25.4492 Y4.7426
G01 X25.4446 Y4.6485
G01 X25.4440 Y4.6421
G01 X25.4306 Y4.5521
G01 X25.4294 Y4.5458
G01 X25.4073 Y4.4575
G01 X25.4054 Y4.4514
G01 X25.3748 Y4.3657
G01 X25.3723 Y4.3598
G01 X25.3334 Y4.2776
G01 X25.3304 Y4.2719
G01 X25.2836 Y4.1939
G01 X25.2800 Y4.1886
G01 X25.2258 Y4.1154
G01 X25.2218 Y4.1105
G01 X25.1606 Y4.0431
G01 X25.1561 Y4.0386
G01 X25.0887 Y3.9774
G01 X25.0838 Y3.9734
G01 X25.0106 Y3.9192
G01 X25.0053 Y3.9156
G01 X24.9273 Y3.8688
G01 X24.9216 Y3.8658
G01 X24.8718 Y3.8422
G00 Z2.0000
G00 X23.3410 Y6.0849
G01 F60.00
G01 Z-0.0851
G01 F60.00
G01 X23.4640 Y6.0849
G01 X23.4640 Y6.5968
G01 X23.4686 Y6.6909
G01 X23.4692 Y6.6973
G01 X23.4826 Y6.7873
G01 X23.4838 Y6.7936
G01 X23.5059 Y6.8819
G01 X23.5078 Y6.8880
G01 X23.5384 Y6.9737
G01 X23.5409 Y6.9796
G01 X23.5798 Y7.0618
G01 X23.5828 Y7.0675
G01 X23.6296 Y7.1455
G01 X23.6332 Y7.1508
G01 X23.6874 Y7.2240
G01 X23.6914 Y7.2289
G01 X23.7526 Y7.2963
G01 X23.7571 Y7.3008
G01 X23.8245 Y7.3620
G01 X23.8294 Y7.3660
G01 X23.9026 Y7.4202
G01 X23.9079 Y7.4238
G01 X23.9859 Y7.4706
G01 X23.9916 Y7.4736
G01 X24.0414 Y7.4972
G01 X24.0414 Y7.6349
G01 X24.0283 Y7.6307
G01 X23.8719 Y7.5510
G01 X23.7299 Y7.4477
G01 X23.6057 Y7.3235
G01 X23.5024 Y7.1815
G01 X23.4227 Y7.0250
G01 X23.3684 Y6.8581
G01 X23.3410 Y6.6846
G01 X23.3410 Y6.0849
G00 Z2.0000
G00 X24.8718 Y7.6349
G01 F60.00
G01 Z-0.0851
G01 F60.00
G01 X24.8718 Y7.4972
G01 X24.9216 Y7.4736
G01 X24.9273 Y7.4706
G01 X25.0053 Y7.4238
G01 X25.0106 Y7.4202
G01 X25.0838 Y7.3660
G01 X25.0887 Y7.3620
G01 X25.1561 Y7.3008
G01 X25.1606 Y7.2963
G01 X25.2218 Y7.2289
G01 X25.2258 Y7.2240
G01 X25.2800 Y7.1508
G01 X25.2836 Y7.1455
G01 X25.3304 Y7.0675
G01 X25.3334 Y7.0618
G01 X25.3723 Y6.9796
G01 X25.3748 Y6.9737
G01 X25.4054 Y6.8880
G01 X25.4073 Y6.8819
G01 X25.4294 Y6.7936
G01 X25.4306 Y6.7873
G01 X25.4440 Y6.6973
G01 X25.4446 Y6.6909
G01 X25.4492 Y6.5968
G01 X25.4492 Y6.0849
G01 X25.5722 Y6.0849
G01 X25.5722 Y6.6846
G01 X25.5447 Y6.8581
G01 X25.4905 Y7.0251
G01 X25.4108 Y7.1815
G01 X25.3075 Y7.3235
G01 X25.1833 Y7.4477
G01 X25.0413 Y7.5510
G01 X24.8849 Y7.6307
G01 X24.8718 Y7.6349
G00 Z2.0000
G00 X25.0930 Y15.3463
G01 F60.00
G01 Z-0.0851
G01 F60.00
G01 X25.0701 Y15.3845
G01 X25.0666 Y15.3898
G01 X25.0235 Y15.4478
G01 X25.0194 Y15.4528
G01 X24.9709 Y15.5064
G01 X24.9664 Y15.5109
G01 X24.9128 Y15.5594
G01 X24.9078 Y15.5635
G01 X24.8498 Y15.6066
G01 X24.8445 Y15.6101
G01 X24.7824 Y15.6473
G01 X24.7768 Y15.6503
G01 X24.7114 Y15.6812
G01 X24.7055 Y15.6837
G01 X24.6374 Y15.7080
G01 X24.6313 Y15.7099
G01 X24.5612 Y15.7275
G01 X24.5549 Y15.7287
G01 X24.4834 Y15.7393
G01 X24.4770 Y15.7399
G01 X24.4016 Y15.7436
G01 X22.9284 Y15.7436
G01 X22.8530 Y15.7399
G01 X22.8466 Y15.7393
G01 X22.7751 Y15.7287
G01 X22.7688 Y15.7275
G01 X22.6987 Y15.7099
G01 X22.6926 Y15.7080
G01 X22.6245 Y15.6837
G01 X22.6186 Y15.6812
G01 X22.5532 Y15.6503
G01 X22.5476 Y15.6473
G01 X22.4855 Y15.6101
G01 X22.4802 Y15.6066
G01 X22.4222 Y15.5635
G01 X22.4172 Y15.5594
G01 X22.3636 Y15.5109
G01 X22.3591 Y15.5064
G01 X22.3106 Y15.4528
G01 X22.3065 Y15.4478
G01 X22.2634 Y15.3898
G01 X22.2599 Y15.3845
G01 X22.2227 Y15.3224
G01 X22.2197 Y15.3168
G01 X22.1888 Y15.2514
G01 X22.1863 Y15.2455
G01 X22.1620 Y15.1774
G01 X22.1601 Y15.1713
G01 X22.1425 Y15.1012
G01 X22.1413 Y15.0949
G01 X22.1307 Y15.0234
G01 X22.1301 Y15.0170
G01 X22.1265 Y14.9448
G01 X22.1265 Y14.9384
G01 X22.1301 Y14.8662
G01 X22.1307 Y14.8598
G01 X22.1413 Y14.7883
G01 X22.1425 Y14.7820
G01 X22.1601 Y14.7119
G01 X22.1620 Y14.7058
G01 X22.1863 Y14.6377
G01 X22.1888 Y14.6318
G01 X22.2197 Y14.5664
G01 X22.2227 Y14.5608
G01 X22.2599 Y14.4987
G01 X22.2634 Y14.4934
G01 X22.3065 Y14.4354
G01 X22.3106 Y14.4304
G01 X22.3591 Y14.3768
G01 X22.3636 Y14.3723
G01 X22.4172 Y14.3238
G01 X22.4222 Y14.3197
G01 X22.4802 Y14.2766
G01 X22.4855 Y14.2731
G01 X22.5476 Y14.2359
G01 X22.5532 Y14.2329
G01 X22.6186 Y14.2020
G01 X22.6245 Y14.1995
G01 X22.6926 Y14.1752
G01 X22.6987 Y14.1733
G01 X22.7688 Y14.1557
G01 X22.7751 Y14.1545
G01 X22.8466 Y14.1439
G01 X22.8530 Y14.1433
G01 X22.9284 Y14.1396
G01 X24.4016 Y14.1396
G01 X24.4770 Y14.1433
G01 X24.4834 Y14.1439
G01 X24.5549 Y14.1545
G01 X24.5612 Y14.1557
G01 X24.6313 Y14.1733
G01 X24.6374 Y14.1752
G01 X24.7055 Y14.1995
G01 X24.7114 Y14.2020
G01 X24.7768 Y14.2329
G01 X24.7824 Y14.2359
G01 X24.8445 Y14.2731
G01 X24.8498 Y14.2766
G01 X24.9078 Y14.3197
G01 X24.9128 Y14.3238
G01 X24.9664 Y14.3723
G01 X24.9709 Y14.3768
G01 X25.0194 Y14.4304
G01 X25.0235 Y14.4354
G01 X25.0666 Y14.4934
G01 X25.0804 Y14.5159
G01 X25.0931 Y14.5159
G01 X29.2993 Y10.3097
G01 X29.3021 Y10.3000
G01 X29.3298 Y10.2225
G01 X29.3323 Y10.2166
G01 X29.3674 Y10.1422
G01 X29.3705 Y10.1366
G01 X29.4128 Y10.0660
G01 X29.4163 Y10.0607
G01 X29.4653 Y9.9946
G01 X29.4694 Y9.9896
G01 X29.5246 Y9.9287
G01 X29.5292 Y9.9241
G01 X29.5901 Y9.8689
G01 X29.5951 Y9.8648
G01 X29.6612 Y9.8158
G01 X29.6665 Y9.8123
G01 X29.7371 Y9.7700
G01 X29.7427 Y9.7669
G01 X29.8171 Y9.7318
G01 X29.8230 Y9.7293
G01 X29.9005 Y9.7016
G01 X29.9066 Y9.6997
G01 X29.9864 Y9.6797
G01 X29.9927 Y9.6785
G01 X30.0741 Y9.6664
G01 X30.0804 Y9.6658
G01 X30.1626 Y9.6618
G01 X31.8422 Y9.6617
G01 X31.9276 Y9.6658
G01 X31.9339 Y9.6664
G01 X32.0153 Y9.6785
G01 X32.0216 Y9.6797
G01 X32.1014 Y9.6997
G01 X32.1075 Y9.7016
G01 X32.1850 Y9.7293
G01 X32.1909 Y9.7318
G01 X32.2653 Y9.7669
G01 X32.2709 Y9.7700
G01 X32.3415 Y9.8123
G01 X32.3468 Y9.8158
G01 X32.4129 Y9.8648
G01 X32.4179 Y9.8689
G01 X32.4788 Y9.9241
G01 X32.4834 Y9.9287
G01 X32.5386 Y9.9896
G01 X32.5427 Y9.9946
G01 X32.5917 Y10.0607
G01 X32.5952 Y10.0660
G01 X32.6375 Y10.1366
G01 X32.6406 Y10.1422
G01 X32.6757 Y10.2166
G01 X32.6782 Y10.2225
G01 X32.7059 Y10.3000
G01 X32.7078 Y10.3061
G01 X32.7278 Y10.3859
G01 X32.7290 Y10.3922
G01 X32.7411 Y10.4736
G01 X32.7417 Y10.4799
G01 X32.7457 Y10.5621
G01 X32.7457 Y10.5685
G01 X32.7417 Y10.6507
G01 X32.7411 Y10.6570
G01 X32.7290 Y10.7384
G01 X32.7278 Y10.7447
G01 X32.7078 Y10.8245
G01 X32.7059 Y10.8306
G01 X32.6782 Y10.9081
G01 X32.6757 Y10.9140
G01 X32.6406 Y10.9884
G01 X32.6375 Y10.9940
G01 X32.5952 Y11.0646
G01 X32.5917 Y11.0699
G01 X32.5427 Y11.1360
G01 X32.5386 Y11.1410
G01 X32.4834 Y11.2019
G01 X32.4788 Y11.2065
G01 X32.4179 Y11.2617
G01 X32.4129 Y11.2658
G01 X32.3468 Y11.3148
G01 X32.3415 Y11.3183
G01 X32.2709 Y11.3606
G01 X32.2653 Y11.3637
G01 X32.1909 Y11.3988
G01 X32.1850 Y11.4013
G01 X32.1075 Y11.4290
G01 X32.1014 Y11.4309
G01 X32.0216 Y11.4509
G01 X32.0153 Y11.4521
G01 X31.9339 Y11.4642
G01 X31.9276 Y11.4648
G01 X31.8422 Y11.4689
G01 X30.1626 Y11.4688
G01 X30.0804 Y11.4648
G01 X30.0741 Y11.4642
G01 X29.9927 Y11.4521
G01 X29.9864 Y11.4509
G01 X29.9066 Y11.4309
G01 X29.9005 Y11.4290
G01 X29.8230 Y11.4013
G01 X29.8171 Y11.3988
G01 X29.7427 Y11.3637
G01 X29.7371 Y11.3606
G01 X29.6665 Y11.3183
G01 X29.6612 Y11.3148
G01 X29.5951 Y11.2658
G01 X29.5901 Y11.2617
G01 X29.5542 Y11.2292
G01 X25.5564 Y15.2269
G01 X25.5309 Y15.2500
G01 X25.5260 Y15.2540
G01 X25.4984 Y15.2745
G01 X25.4931 Y15.2780
G01 X25.4636 Y15.2957
G01 X25.4580 Y15.2987
G01 X25.4269 Y15.3134
G01 X25.4210 Y15.3158
G01 X25.3886 Y15.3274
G01 X25.3825 Y15.3292
G01 X25.3492 Y15.3376
G01 X25.3430 Y15.3388
G01 X25.3090 Y15.3439
G01 X25.3026 Y15.3445
G01 X25.2651 Y15.3463
G01 X25.0930 Y15.3463
G00 Z2.0000
G00 X24.4927 Y19.0965
G01 F60.00
G01 Z-0.0851
G01 F60.00
G01 X24.6714 Y19.1320
G01 X24.8398 Y19.2018
G01 X24.9914 Y19.3030
G01 X25.1202 Y19.4318
G01 X25.2214 Y19.5834
G01 X25.2309 Y19.6064
G01 X25.0867 Y19.6064
G01 X25.0701 Y19.5787
G01 X25.0666 Y19.5734
G01 X25.0235 Y19.5154
G01 X25.0194 Y19.5104
G01 X24.9709 Y19.4568
G01 X24.9664 Y19.4523
G01 X24.9128 Y19.4038
G01 X24.9078 Y19.3997
G01 X24.8498 Y19.3566
G01 X24.8445 Y19.3531
G01 X24.7824 Y19.3159
G01 X24.7768 Y19.3129
G01 X24.7114 Y19.2820
G01 X24.7055 Y19.2795
G01 X24.6374 Y19.2552
G01 X24.6313 Y19.2533
G01 X24.5612 Y19.2357
G01 X24.5549 Y19.2345
G01 X24.4834 Y19.2239
G01 X24.4770 Y19.2233
G01 X24.4048 Y19.2197
G01 X23.7305 Y19.2196
G01 X23.7305 Y19.0965
G01 X24.4927 Y19.0965
G00 Z2.0000
G00 X23.5995 Y19.0965
G01 F60.00
G01 Z-0.0851
G01 F60.00
G01 X23.5995 Y19.2196
G01 X22.9252 Y19.2197
G01 X22.8530 Y19.2233
G01 X22.8466 Y19.2239
G01 X22.7751 Y19.2345
G01 X22.7688 Y19.2357
G01 X22.6987 Y19.2533
G01 X22.6926 Y19.2552
G01 X22.6245 Y19.2795
G01 X22.6186 Y19.2820
G01 X22.5532 Y19.3129
G01 X22.5476 Y19.3159
G01 X22.4855 Y19.3531
G01 X22.4802 Y19.3566
G01 X22.4222 Y19.3997
G01 X22.4172 Y19.4038
G01 X22.3636 Y19.4523
G01 X22.3591 Y19.4568
G01 X22.3106 Y19.5104
G01 X22.3065 Y19.5154
G01 X22.2634 Y19.5734
G01 X22.2599 Y19.5787
G01 X22.2433 Y19.6064
G01 X22.0990 Y19.6064
G01 X22.1085 Y19.5834
G01 X22.2098 Y19.4318
G01 X22.3386 Y19.3030
G01 X22.4902 Y19.2018
G01 X22.6586 Y19.1320
G01 X22.8373 Y19.0965
G01 X23.5995 Y19.0965
G00 Z2.0000
G00 X24.0802 Y20.9467
G01 F60.00
G01 Z-0.0851
G01 F60.00
G01 X24.0802 Y20.8236
G01 X24.4016 Y20.8236
G01 X24.4770 Y20.8199
G01 X24.4834 Y20.8193
G01 X24.5549 Y20.8087
G01 X24.5612 Y20.8075
G01 X24.6313 Y20.7899
G01 X24.6374 Y20.7880
G01 X24.7055 Y20.7637
G01 X24.7114 Y20.7612
G01 X24.7768 Y20.7303
G01 X24.7824 Y20.7273
G01 X24.8445 Y20.6901
G01 X24.8498 Y20.6866
G01 X24.9078 Y20.6435
G01 X24.9128 Y20.6394
G01 X24.9664 Y20.5909
G01 X24.9709 Y20.5864
G01 X25.0194 Y20.5328
G01 X25.0235 Y20.5278
G01 X25.0666 Y20.4698
G01 X25.0701 Y20.4645
G01 X25.0867 Y20.4368
G01 X25.2309 Y20.4368
G01 X25.2214 Y20.4598
G01 X25.1202 Y20.6114
G01 X24.9914 Y20.7402
G01 X24.8398 Y20.8414
G01 X24.6714 Y20.9112
G01 X24.4927 Y20.9467
G01 X24.0802 Y20.9467
G00 Z2.0000
G00 X24.4927 Y21.6365
G01 F60.00
G01 Z-0.0851
G01 F60.00
G01 X24.6714 Y21.6720
G01 X24.8398 Y21.7418
G01 X24.9914 Y21.8430
G01 X25.1202 Y21.9718
G01 X25.2214 Y22.1234
G01 X25.2309 Y22.1464
G01 X25.0867 Y22.1464
G01 X25.0701 Y22.1187
G01 X25.0666 Y22.1134
G01 X25.0235 Y22.0554
G01 X25.0194 Y22.0504
G01 X24.9709 Y21.9968
G01 X24.9664 Y21.9923
G01 X24.9128 Y21.9438
G01 X24.9078 Y21.9397
G01 X24.8498 Y21.8966
G01 X24.8445 Y21.8931
G01 X24.7824 Y21.8559
G01 X24.7768 Y21.8529
G01 X24.7114 Y21.8220
G01 X24.7055 Y21.8195
G01 X24.6374 Y21.7952
G01 X24.6313 Y21.7933
G01 X24.5612 Y21.7757
G01 X24.5549 Y21.7745
G01 X24.4834 Y21.7639
G01 X24.4770 Y21.7633
G01 X24.4016 Y21.7596
G01 X24.0802 Y21.7596
G01 X24.0802 Y21.6365
G01 X24.4927 Y21.6365
G00 Z2.0000
G00 X23.2498 Y21.6365
G01 F60.00
G01 Z-0.0851
G01 F60.00
G01 X23.2498 Y21.7596
G01 X22.9284 Y21.7596
G01 X22.8530 Y21.7633
G01 X22.8466 Y21.7639
G01 X22.7751 Y21.7745
G01 X22.7688 Y21.7757
G01 X22.6987 Y21.7933
G01 X22.6926 Y21.7952
G01 X22.6245 Y21.8195
G01 X22.6186 Y21.8220
G01 X22.5532 Y21.8529
G01 X22.5476 Y21.8559
G01 X22.4855 Y21.8931
G01 X22.4802 Y21.8966
G01 X22.4222 Y21.9397
G01 X22.4172 Y21.9438
G01 X22.3636 Y21.9923
G01 X22.3591 Y21.9968
G01 X22.3106 Y22.0504
G01 X22.3065 Y22.0554
G01 X22.2634 Y22.1134
G01 X22.2599 Y22.1187
G01 X22.2433 Y22.1464
G01 X22.0990 Y22.1464
G01 X22.1085 Y22.1234
G01 X22.2098 Y21.9718
G01 X22.3386 Y21.8430
G01 X22.4902 Y21.7418
G01 X22.6586 Y21.6720
G01 X22.8373 Y21.6365
G01 X23.2498 Y21.6365
G00 Z2.0000
G00 X22.0990 Y20.4368
G01 F60.00
G01 Z-0.0851
G01 F60.00
G01 X22.2433 Y20.4368
G01 X22.2599 Y20.4645
G01 X22.2634 Y20.4698
G01 X22.3065 Y20.5278
G01 X22.3106 Y20.5328
G01 X22.3591 Y20.5864
G01 X22.3636 Y20.5909
G01 X22.4172 Y20.6394
G01 X22.4222 Y20.6435
G01 X22.4802 Y20.6866
G01 X22.4855 Y20.6901
G01 X22.5476 Y20.7273
G01 X22.5532 Y20.7303
G01 X22.6186 Y20.7612
G01 X22.6245 Y20.7637
G01 X22.6926 Y20.7880
G01 X22.6987 Y20.7899
G01 X22.7688 Y20.8075
G01 X22.7751 Y20.8087
G01 X22.8466 Y20.8193
G01 X22.8530 Y20.8199
G01 X22.9284 Y20.8236
G01 X23.2498 Y20.8236
G01 X23.2498 Y20.9467
G01 X22.8373 Y20.9467
G01 X22.6586 Y20.9112
G01 X22.4902 Y20.8414
G01 X22.3386 Y20.7402
G01 X22.2098 Y20.6114
G01 X22.1085 Y20.4598
G01 X22.0990 Y20.4368
G00 Z2.0000
G00 X22.0990 Y22.9768
G01 F60.00
G01 Z-0.0851
G01 F60.00
G01 X22.2433 Y22.9768
G01 X22.2599 Y23.0045
G01 X22.2634 Y23.0098
G01 X22.3065 Y23.0678
G01 X22.3106 Y23.0728
G01 X22.3591 Y23.1264
G01 X22.3636 Y23.1309
G01 X22.4172 Y23.1794
G01 X22.4222 Y23.1835
G01 X22.4802 Y23.2266
G01 X22.4855 Y23.2301
G01 X22.5476 Y23.2673
G01 X22.5532 Y23.2703
G01 X22.6186 Y23.3012
G01 X22.6245 Y23.3037
G01 X22.6926 Y23.3280
G01 X22.6987 Y23.3299
G01 X22.7688 Y23.3475
G01 X22.7751 Y23.3487
G01 X22.8466 Y23.3593
G01 X22.8530 Y23.3599
G01 X22.9252 Y23.3635
G01 X23.5995 Y23.3636
G01 X23.5995 Y23.4867
G01 X22.8373 Y23.4867
G01 X22.6586 Y23.4512
G01 X22.4902 Y23.3814
G01 X22.3386 Y23.2802
G01 X22.2098 Y23.1514
G01 X22.1085 Y22.9998
G01 X22.0990 Y22.9768
G00 Z2.0000
G00 X23.7305 Y23.3636
G01 F60.00
G01 Z-0.0851
G01 F60.00
G01 X24.4048 Y23.3635
G01 X24.4770 Y23.3599
G01 X24.4834 Y23.3593
G01 X24.5549 Y23.3487
G01 X24.5612 Y23.3475
G01 X24.6313 Y23.3299
G01 X24.6374 Y23.3280
G01 X24.7055 Y23.3037
G01 X24.7114 Y23.3012
G01 X24.7768 Y23.2703
G01 X24.7824 Y23.2673
G01 X24.8445 Y23.2301
G01 X24.8498 Y23.2266
G01 X24.9078 Y23.1835
G01 X24.9128 Y23.1794
G01 X24.9664 Y23.1309
G01 X24.9709 Y23.1264
G01 X25.0194 Y23.0728
G01 X25.0235 Y23.0678
G01 X25.0666 Y23.0098
G01 X25.0701 Y23.0045
G01 X25.0867 Y22.9768
G01 X25.2309 Y22.9768
G01 X25.2214 Y22.9998
G01 X25.1202 Y23.1514
G01 X24.9914 Y23.2802
G01 X24.8398 Y23.3814
G01 X24.6714 Y23.4512
G01 X24.4927 Y23.4867
G01 X23.7305 Y23.4867
G01 X23.7305 Y23.3636
G00 Z2.0000
G00 X29.1783 Y24.4986
G01 F60.00
G01 Z-0.0851
G01 F60.00
G01 X29.1398 Y24.4755
G01 X29.1345 Y24.4719
G01 X29.0613 Y24.4177
G01 X29.0564 Y24.4137
G01 X28.9890 Y24.3525
G01 X28.9845 Y24.3480
G01 X28.9233 Y24.2806
G01 X28.9193 Y24.2757
G01 X28.8651 Y24.2025
G01 X28.8615 Y24.1972
G01 X28.8147 Y24.1192
G01 X28.8117 Y24.1135
G01 X28.7728 Y24.0313
G01 X28.7703 Y24.0254
G01 X28.7397 Y23.9397
G01 X28.7378 Y23.9336
G01 X28.7157 Y23.8453
G01 X28.7145 Y23.8390
G01 X28.7011 Y23.7490
G01 X28.7005 Y23.7426
G01 X28.6960 Y23.6517
G01 X28.6960 Y23.6453
G01 X28.7005 Y23.5544
G01 X28.7011 Y23.5480
G01 X28.7145 Y23.4580
G01 X28.7157 Y23.4517
G01 X28.7378 Y23.3634
G01 X28.7397 Y23.3573
G01 X28.7703 Y23.2716
G01 X28.7728 Y23.2657
G01 X28.8117 Y23.1835
G01 X28.8147 Y23.1778
G01 X28.8615 Y23.0998
G01 X28.8651 Y23.0945
G01 X28.9193 Y23.0213
G01 X28.9233 Y23.0164
G01 X28.9845 Y22.9490
G01 X28.9890 Y22.9445
G01 X29.0564 Y22.8833
G01 X29.0613 Y22.8793
G01 X29.1345 Y22.8251
G01 X29.1398 Y22.8215
G01 X29.2178 Y22.7747
G01 X29.2235 Y22.7717
G01 X29.3057 Y22.7328
G01 X29.3116 Y22.7303
G01 X29.3973 Y22.6997
G01 X29.4034 Y22.6978
G01 X29.4917 Y22.6757
G01 X29.4980 Y22.6745
G01 X29.5880 Y22.6611
G01 X29.5944 Y22.6605
G01 X29.6885 Y22.6559
G01 X31.5427 Y22.6559
G01 X31.6368 Y22.6605
G01 X31.6432 Y22.6611
G01 X31.7332 Y22.6745
G01 X31.7395 Y22.6757
G01 X31.8278 Y22.6978
G01 X31.8339 Y22.6997
G01 X31.9196 Y22.7303
G01 X31.9255 Y22.7328
G01 X32.0077 Y22.7717
G01 X32.0134 Y22.7747
G01 X32.0914 Y22.8215
G01 X32.0967 Y22.8251
G01 X32.1699 Y22.8793
G01 X32.1748 Y22.8833
G01 X32.2422 Y22.9445
G01 X32.2467 Y22.9490
G01 X32.3079 Y23.0164
G01 X32.3119 Y23.0213
G01 X32.3661 Y23.0945
G01 X32.3697 Y23.0998
G01 X32.4165 Y23.1778
G01 X32.4195 Y23.1835
G01 X32.4584 Y23.2657
G01 X32.4609 Y23.2716
G01 X32.4915 Y23.3573
G01 X32.4934 Y23.3634
G01 X32.5155 Y23.4517
G01 X32.5167 Y23.4580
G01 X32.5301 Y23.5480
G01 X32.5307 Y23.5544
G01 X32.5352 Y23.6453
G01 X32.5352 Y23.6517
G01 X32.5307 Y23.7426
G01 X32.5301 Y23.7490
G01 X32.5167 Y23.8390
G01 X32.5155 Y23.8453
G01 X32.4934 Y23.9336
G01 X32.4915 Y23.9397
G01 X32.4609 Y24.0254
G01 X32.4584 Y24.0313
G01 X32.4195 Y24.1135
G01 X32.4165 Y24.1192
G01 X32.3697 Y24.1972
G01 X32.3661 Y24.2025
G01 X32.3119 Y24.2757
G01 X32.3079 Y24.2806
G01 X32.2467 Y24.3480
G01 X32.2422 Y24.3525
G01 X32.1748 Y24.4137
G01 X32.1699 Y24.4177
G01 X32.0967 Y24.4719
G01 X32.0914 Y24.4755
G01 X32.0134 Y24.5223
G01 X32.0077 Y24.5253
G01 X31.9255 Y24.5642
G01 X31.9196 Y24.5667
G01 X31.8339 Y24.5973
G01 X31.8278 Y24.5992
G01 X31.7395 Y24.6213
G01 X31.7332 Y24.6225
G01 X31.6432 Y24.6359
G01 X31.6368 Y24.6365
G01 X31.5427 Y24.6411
G01 X30.2102 Y24.6411
G01 X29.4561 Y25.3952
G01 X29.4283 Y25.4205
G01 X29.4234 Y25.4245
G01 X29.3958 Y25.4450
G01 X29.3905 Y25.4485
G01 X29.3610 Y25.4662
G01 X29.3554 Y25.4692
G01 X29.3243 Y25.4839
G01 X29.3184 Y25.4863
G01 X29.2860 Y25.4979
G01 X29.2799 Y25.4997
G01 X29.2466 Y25.5081
G01 X29.2404 Y25.5093
G01 X29.2064 Y25.5144
G01 X29.2000 Y25.5150
G01 X29.1625 Y25.5168
G01 X25.0867 Y25.5168
G01 X25.0701 Y25.5445
G01 X25.0666 Y25.5498
G01 X25.0235 Y25.6078
G01 X25.0194 Y25.6128
G01 X24.9709 Y25.6664
G01 X24.9664 Y25.6709
G01 X24.9128 Y25.7194
G01 X24.9078 Y25.7235
G01 X24.8498 Y25.7666
G01 X24.8445 Y25.7701
G01 X24.7824 Y25.8073
G01 X24.7768 Y25.8103
G01 X24.7114 Y25.8412
G01 X24.7055 Y25.8437
G01 X24.6374 Y25.8680
G01 X24.6313 Y25.8699
G01 X24.5612 Y25.8875
G01 X24.5549 Y25.8887
G01 X24.4834 Y25.8993
G01 X24.4770 Y25.8999
G01 X24.4016 Y25.9036
G01 X22.9252 Y25.9035
G01 X22.8530 Y25.8999
G01 X22.8466 Y25.8993
G01 X22.7751 Y25.8887
G01 X22.7688 Y25.8875
G01 X22.6987 Y25.8699
G01 X22.6926 Y25.8680
G01 X22.6245 Y25.8437
G01 X22.6186 Y25.8412
G01 X22.5532 Y25.8103
G01 X22.5476 Y25.8073
G01 X22.4855 Y25.7701
G01 X22.4802 Y25.7666
G01 X22.4222 Y25.7235
G01 X22.4172 Y25.7194
G01 X22.3636 Y25.6709
G01 X22.3591 Y25.6664
G01 X22.3106 Y25.6128
G01 X22.3065 Y25.6078
G01 X22.2634 Y25.5498
G01 X22.2599 Y25.5445
G01 X22.2227 Y25.4824
G01 X22.2197 Y25.4768
G01 X22.1888 Y25.4114
G01 X22.1863 Y25.4055
G01 X22.1620 Y25.3374
G01 X22.1601 Y25.3313
G01 X22.1425 Y25.2612
G01 X22.1413 Y25.2549
G01 X22.1307 Y25.1834
G01 X22.1301 Y25.1770
G01 X22.1265 Y25.1048
G01 X22.1265 Y25.0984
G01 X22.1301 Y25.0262
G01 X22.1307 Y25.0198
G01 X22.1413 Y24.9483
G01 X22.1425 Y24.9420
G01 X22.1601 Y24.8719
G01 X22.1620 Y24.8658
G01 X22.1863 Y24.7977
G01 X22.1888 Y24.7918
G01 X22.2197 Y24.7264
G01 X22.2227 Y24.7208
G01 X22.2599 Y24.6587
G01 X22.2634 Y24.6534
G01 X22.3065 Y24.5954
G01 X22.3106 Y24.5904
G01 X22.3591 Y24.5368
G01 X22.3636 Y24.5323
G01 X22.4172 Y24.4838
G01 X22.4222 Y24.4797
G01 X22.4802 Y24.4366
G01 X22.4855 Y24.4331
G01 X22.5476 Y24.3959
G01 X22.5532 Y24.3929
G01 X22.6186 Y24.3620
G01 X22.6245 Y24.3595
G01 X22.6926 Y24.3352
G01 X22.6987 Y24.3333
G01 X22.7688 Y24.3157
G01 X22.7751 Y24.3145
G01 X22.8466 Y24.3039
G01 X22.8530 Y24.3033
G01 X22.9284 Y24.2996
G01 X24.4016 Y24.2996
G01 X24.4770 Y24.3033
G01 X24.4834 Y24.3039
G01 X24.5549 Y24.3145
G01 X24.5612 Y24.3157
G01 X24.6313 Y24.3333
G01 X24.6374 Y24.3352
G01 X24.7055 Y24.3595
G01 X24.7114 Y24.3620
G01 X24.7768 Y24.3929
G01 X24.7824 Y24.3959
G01 X24.8445 Y24.4331
G01 X24.8498 Y24.4366
G01 X24.9078 Y24.4797
G01 X24.9128 Y24.4838
G01 X24.9664 Y24.5323
G01 X24.9709 Y24.5368
G01 X25.0194 Y24.5904
G01 X25.0235 Y24.5954
G01 X25.0666 Y24.6534
G01 X25.0701 Y24.6587
G01 X25.0867 Y24.6864
G01 X28.9905 Y24.6864
G01 X29.1783 Y24.4986
G00 Z2.0000
G00 X29.0416 Y17.8968
G01 F60.00
G01 Z-0.0851
G01 F60.00
G01 X25.0867 Y17.8968
G01 X25.0701 Y17.9245
G01 X25.0666 Y17.9298
G01 X25.0235 Y17.9878
G01 X25.0194 Y17.9928
G01 X24.9709 Y18.0464
G01 X24.9664 Y18.0509
G01 X24.9128 Y18.0994
G01 X24.9078 Y18.1035
G01 X24.8498 Y18.1466
G01 X24.8445 Y18.1501
G01 X24.7824 Y18.1873
G01 X24.7768 Y18.1903
G01 X24.7114 Y18.2212
G01 X24.7055 Y18.2237
G01 X24.6374 Y18.2480
G01 X24.6313 Y18.2499
G01 X24.5612 Y18.2675
G01 X24.5549 Y18.2687
G01 X24.4834 Y18.2793
G01 X24.4770 Y18.2799
G01 X24.4016 Y18.2836
G01 X22.9284 Y18.2836
G01 X22.8530 Y18.2799
G01 X22.8466 Y18.2793
G01 X22.7751 Y18.2687
G01 X22.7688 Y18.2675
G01 X22.6987 Y18.2499
G01 X22.6926 Y18.2480
G01 X22.6245 Y18.2237
G01 X22.6186 Y18.2212
G01 X22.5532 Y18.1903
G01 X22.5476 Y18.1873
G01 X22.4855 Y18.1501
G01 X22.4802 Y18.1466
G01 X22.4222 Y18.1035
G01 X22.4172 Y18.0994
G01 X22.3636 Y18.0509
G01 X22.3591 Y18.0464
G01 X22.3106 Y17.9928
G01 X22.3065 Y17.9878
G01 X22.2634 Y17.9298
G01 X22.2599 Y17.9245
G01 X22.2227 Y17.8624
G01 X22.2197 Y17.8568
G01 X22.1888 Y17.7914
G01 X22.1863 Y17.7855
G01 X22.1620 Y17.7174
G01 X22.1601 Y17.7113
G01 X22.1425 Y17.6412
G01 X22.1413 Y17.6349
G01 X22.1307 Y17.5634
G01 X22.1301 Y17.5570
G01 X22.1265 Y17.4848
G01 X22.1265 Y17.4784
G01 X22.1301 Y17.4062
G01 X22.1307 Y17.3998
G01 X22.1413 Y17.3283
G01 X22.1425 Y17.3220
G01 X22.1601 Y17.2519
G01 X22.1620 Y17.2458
G01 X22.1863 Y17.1777
G01 X22.1888 Y17.1718
G01 X22.2197 Y17.1064
G01 X22.2227 Y17.1008
G01 X22.2599 Y17.0387
G01 X22.2634 Y17.0334
G01 X22.3065 Y16.9754
G01 X22.3106 Y16.9704
G01 X22.3591 Y16.9168
G01 X22.3636 Y16.9123
G01 X22.4172 Y16.8638
G01 X22.4222 Y16.8597
G01 X22.4802 Y16.8166
G01 X22.4855 Y16.8131
G01 X22.5476 Y16.7759
G01 X22.5532 Y16.7729
G01 X22.6186 Y16.7420
G01 X22.6245 Y16.7395
G01 X22.6926 Y16.7152
G01 X22.6987 Y16.7133
G01 X22.7688 Y16.6957
G01 X22.7751 Y16.6945
G01 X22.8466 Y16.6839
G01 X22.8530 Y16.6833
G01 X22.9252 Y16.6797
G01 X24.4016 Y16.6796
G01 X24.4770 Y16.6833
G01 X24.4834 Y16.6839
G01 X24.5549 Y16.6945
G01 X24.5612 Y16.6957
G01 X24.6313 Y16.7133
G01 X24.6374 Y16.7152
G01 X24.7055 Y16.7395
G01 X24.7114 Y16.7420
G01 X24.7768 Y16.7729
G01 X24.7824 Y16.7759
G01 X24.8445 Y16.8131
G01 X24.8498 Y16.8166
G01 X24.9078 Y16.8597
G01 X24.9128 Y16.8638
G01 X24.9664 Y16.9123
G01 X24.9709 Y16.9168
G01 X25.0194 Y16.9704
G01 X25.0235 Y16.9754
G01 X25.0666 Y17.0334
G01 X25.0701 Y17.0387
G01 X25.0867 Y17.0664
G01 X29.4487 Y17.0664
G01 X29.4862 Y17.0682
G01 X29.4926 Y17.0688
G01 X29.5266 Y17.0739
G01 X29.5328 Y17.0751
G01 X29.5661 Y17.0835
G01 X29.5722 Y17.0853
G01 X29.6046 Y17.0969
G01 X29.6105 Y17.0993
G01 X29.6416 Y17.1140
G01 X29.6472 Y17.1170
G01 X29.6767 Y17.1347
G01 X29.6820 Y17.1382
G01 X29.7096 Y17.1587
G01 X29.7145 Y17.1627
G01 X29.7423 Y17.1880
G01 X30.2102 Y17.6559
G01 X31.5427 Y17.6559
G01 X31.6368 Y17.6605
G01 X31.6432 Y17.6611
G01 X31.7332 Y17.6745
G01 X31.7395 Y17.6757
G01 X31.8278 Y17.6978
G01 X31.8339 Y17.6997
G01 X31.9196 Y17.7303
G01 X31.9255 Y17.7328
G01 X32.0077 Y17.7717
G01 X32.0134 Y17.7747
G01 X32.0914 Y17.8215
G01 X32.0967 Y17.8251
G01 X32.1699 Y17.8793
G01 X32.1748 Y17.8833
G01 X32.2422 Y17.9445
G01 X32.2467 Y17.9490
G01 X32.3079 Y18.0164
G01 X32.3119 Y18.0213
G01 X32.3661 Y18.0945
G01 X32.3697 Y18.0998
G01 X32.4165 Y18.1778
G01 X32.4195 Y18.1835
G01 X32.4584 Y18.2657
G01 X32.4609 Y18.2716
G01 X32.4915 Y18.3573
G01 X32.4934 Y18.3634
G01 X32.5155 Y18.4517
G01 X32.5167 Y18.4580
G01 X32.5301 Y18.5480
G01 X32.5307 Y18.5544
G01 X32.5352 Y18.6453
G01 X32.5352 Y18.6517
G01 X32.5307 Y18.7426
G01 X32.5301 Y18.7490
G01 X32.5167 Y18.8390
G01 X32.5155 Y18.8453
G01 X32.4934 Y18.9336
G01 X32.4915 Y18.9397
G01 X32.4609 Y19.0254
G01 X32.4584 Y19.0313
G01 X32.4195 Y19.1135
G01 X32.4165 Y19.1192
G01 X32.3697 Y19.1972
G01 X32.3661 Y19.2025
G01 X32.3119 Y19.2757
G01 X32.3079 Y19.2806
G01 X32.2467 Y19.3480
G01 X32.2422 Y19.3525
G01 X32.1748 Y19.4137
G01 X32.1699 Y19.4177
G01 X32.0967 Y19.4719
G01 X32.0914 Y19.4755
G01 X32.0134 Y19.5223
G01 X32.0077 Y19.5253
G01 X31.9255 Y19.5642
G01 X31.9196 Y19.5667
G01 X31.8339 Y19.5973
G01 X31.8278 Y19.5992
G01 X31.7395 Y19.6213
G01 X31.7332 Y19.6225
G01 X31.6432 Y19.6359
G01 X31.6368 Y19.6365
G01 X31.5427 Y19.6411
G01 X29.6885 Y19.6411
G01 X29.5944 Y19.6365
G01 X29.5880 Y19.6359
G01 X29.4980 Y19.6225
G01 X29.4917 Y19.6213
G01 X29.4034 Y19.5992
G01 X29.3973 Y19.5973
G01 X29.3116 Y19.5667
G01 X29.3057 Y19.5642
G01 X29.2235 Y19.5253
G01 X29.2178 Y19.5223
G01 X29.1398 Y19.4755
G01 X29.1345 Y19.4719
G01 X29.0613 Y19.4177
G01 X29.0564 Y19.4137
G01 X28.9890 Y19.3525
G01 X28.9845 Y19.3480
G01 X28.9233 Y19.2806
G01 X28.9193 Y19.2757
G01 X28.8651 Y19.2025
G01 X28.8615 Y19.1972
G01 X28.8147 Y19.1192
G01 X28.8117 Y19.1135
G01 X28.7728 Y19.0313
G01 X28.7703 Y19.0254
G01 X28.7397 Y18.9397
G01 X28.7378 Y18.9336
G01 X28.7157 Y18.8453
G01 X28.7145 Y18.8390
G01 X28.7011 Y18.7490
G01 X28.7005 Y18.7426
G01 X28.6960 Y18.6517
G01 X28.6960 Y18.6453
G01 X28.7005 Y18.5544
G01 X28.7011 Y18.5480
G01 X28.7145 Y18.4580
G01 X28.7157 Y18.4517
G01 X28.7378 Y18.3634
G01 X28.7397 Y18.3573
G01 X28.7703 Y18.2716
G01 X28.7728 Y18.2657
G01 X28.8117 Y18.1835
G01 X28.8147 Y18.1778
G01 X28.8615 Y18.0998
G01 X28.8651 Y18.0945
G01 X28.9193 Y18.0213
G01 X28.9233 Y18.0164
G01 X28.9845 Y17.9490
G01 X28.9890 Y17.9445
G01 X29.0416 Y17.8968
G00 Z2.0000
G00 X32.3431 Y13.8573
G01 F60.00
G01 Z-0.0851
G01 F60.00
G01 X34.1260 Y15.6402
G01 X34.1491 Y15.6657
G01 X34.1531 Y15.6706
G01 X34.1736 Y15.6982
G01 X34.1771 Y15.7035
G01 X34.1948 Y15.7330
G01 X34.1978 Y15.7386
G01 X34.2125 Y15.7697
G01 X34.2149 Y15.7756
G01 X34.2265 Y15.8080
G01 X34.2283 Y15.8141
G01 X34.2367 Y15.8474
G01 X34.2379 Y15.8536
G01 X34.2430 Y15.8876
G01 X34.2436 Y15.8940
G01 X34.2454 Y15.9315
G01 X34.2454 Y26.0619
G01 X34.2436 Y26.0994
G01 X34.2430 Y26.1058
G01 X34.2379 Y26.1398
G01 X34.2367 Y26.1460
G01 X34.2283 Y26.1793
G01 X34.2265 Y26.1854
G01 X34.2149 Y26.2178
G01 X34.2125 Y26.2237
G01 X34.1978 Y26.2548
G01 X34.1948 Y26.2604
G01 X34.1771 Y26.2899
G01 X34.1736 Y26.2952
G01 X34.1531 Y26.3228
G01 X34.1491 Y26.3277
G01 X34.1238 Y26.3555
G01 X32.5419 Y27.9374
G01 X32.5164 Y27.9604
G01 X32.5115 Y27.9645
G01 X32.4839 Y27.9850
G01 X32.4786 Y27.9885
G01 X32.4491 Y28.0062
G01 X32.4435 Y28.0092
G01 X32.4124 Y28.0239
G01 X32.4065 Y28.0263
G01 X32.3742 Y28.0379
G01 X32.3680 Y28.0397
G01 X32.3347 Y28.0481
G01 X32.3285 Y28.0493
G01 X32.2945 Y28.0544
G01 X32.2881 Y28.0550
G01 X32.2506 Y28.0568
G01 X25.0867 Y28.0568
G01 X25.0701 Y28.0845
G01 X25.0666 Y28.0898
G01 X25.0235 Y28.1478
G01 X25.0194 Y28.1528
G01 X24.9709 Y28.2064
G01 X24.9664 Y28.2109
G01 X24.9128 Y28.2594
G01 X24.9078 Y28.2635
G01 X24.8498 Y28.3066
G01 X24.8445 Y28.3101
G01 X24.7824 Y28.3473
G01 X24.7768 Y28.3503
G01 X24.7114 Y28.3812
G01 X24.7055 Y28.3837
G01 X24.6374 Y28.4080
G01 X24.6313 Y28.4099
G01 X24.5612 Y28.4275
G01 X24.5549 Y28.4287
G01 X24.4834 Y28.4393
G01 X24.4770 Y28.4399
G01 X24.4048 Y28.4435
G01 X22.9284 Y28.4436
G01 X22.8530 Y28.4399
G01 X22.8466 Y28.4393
G01 X22.7751 Y28.4287
G01 X22.7688 Y28.4275
G01 X22.6987 Y28.4099
G01 X22.6926 Y28.4080
G01 X22.6245 Y28.3837
G01 X22.6186 Y28.3812
G01 X22.5532 Y28.3503
G01 X22.5476 Y28.3473
G01 X22.4855 Y28.3101
G01 X22.4802 Y28.3066
G01 X22.4222 Y28.2635
G01 X22.4172 Y28.2594
G01 X22.3636 Y28.2109
G01 X22.3591 Y28.2064
G01 X22.3106 Y28.1528
G01 X22.3065 Y28.1478
G01 X22.2634 Y28.0898
G01 X22.2599 Y28.0845
G01 X22.2227 Y28.0224
G01 X22.2197 Y28.0168
G01 X22.1888 Y27.9514
G01 X22.1863 Y27.9455
G01 X22.1620 Y27.8774
G01 X22.1601 Y27.8713
G01 X22.1425 Y27.8012
G01 X22.1413 Y27.7949
G01 X22.1307 Y27.7234
G01 X22.1301 Y27.7170
G01 X22.1265 Y27.6448
G01 X22.1265 Y27.6384
G01 X22.1301 Y27.5662
G01 X22.1307 Y27.5598
G01 X22.1413 Y27.4883
G01 X22.1425 Y27.4820
G01 X22.1601 Y27.4119
G01 X22.1620 Y27.4058
G01 X22.1863 Y27.3377
G01 X22.1888 Y27.3318
G01 X22.2197 Y27.2664
G01 X22.2227 Y27.2608
G01 X22.2599 Y27.1987
G01 X22.2634 Y27.1934
G01 X22.3065 Y27.1354
G01 X22.3106 Y27.1304
G01 X22.3591 Y27.0768
G01 X22.3636 Y27.0723
G01 X22.4172 Y27.0238
G01 X22.4222 Y27.0197
G01 X22.4802 Y26.9766
G01 X22.4855 Y26.9731
G01 X22.5476 Y26.9359
G01 X22.5532 Y26.9329
G01 X22.6186 Y26.9020
G01 X22.6245 Y26.8995
G01 X22.6926 Y26.8752
G01 X22.6987 Y26.8733
G01 X22.7688 Y26.8557
G01 X22.7751 Y26.8545
G01 X22.8466 Y26.8439
G01 X22.8530 Y26.8433
G01 X22.9284 Y26.8396
G01 X24.4016 Y26.8396
G01 X24.4770 Y26.8433
G01 X24.4834 Y26.8439
G01 X24.5549 Y26.8545
G01 X24.5612 Y26.8557
G01 X24.6313 Y26.8733
G01 X24.6374 Y26.8752
G01 X24.7055 Y26.8995
G01 X24.7114 Y26.9020
G01 X24.7768 Y26.9329
G01 X24.7824 Y26.9359
G01 X24.8445 Y26.9731
G01 X24.8498 Y26.9766
G01 X24.9078 Y27.0197
G01 X24.9128 Y27.0238
G01 X24.9664 Y27.0723
G01 X24.9709 Y27.0768
G01 X25.0194 Y27.1304
G01 X25.0235 Y27.1354
G01 X25.0666 Y27.1934
G01 X25.0701 Y27.1987
G01 X25.0867 Y27.2264
G01 X32.0786 Y27.2264
G01 X33.4150 Y25.8899
G01 X33.4150 Y16.1035
G01 X31.3205 Y14.0089
G01 X30.1658 Y14.0089
G01 X30.0804 Y14.0048
G01 X30.0741 Y14.0042
G01 X29.9927 Y13.9921
G01 X29.9864 Y13.9909
G01 X29.9066 Y13.9709
G01 X29.9005 Y13.9690
G01 X29.8230 Y13.9413
G01 X29.8171 Y13.9388
G01 X29.7427 Y13.9037
G01 X29.7371 Y13.9006
G01 X29.6665 Y13.8583
G01 X29.6612 Y13.8548
G01 X29.5951 Y13.8058
G01 X29.5901 Y13.8017
G01 X29.5292 Y13.7465
G01 X29.5246 Y13.7419
G01 X29.4694 Y13.6810
G01 X29.4653 Y13.6760
G01 X29.4163 Y13.6099
G01 X29.4128 Y13.6046
G01 X29.3705 Y13.5340
G01 X29.3674 Y13.5284
G01 X29.3323 Y13.4540
G01 X29.3298 Y13.4481
G01 X29.3021 Y13.3706
G01 X29.3002 Y13.3645
G01 X29.2802 Y13.2847
G01 X29.2790 Y13.2784
G01 X29.2669 Y13.1970
G01 X29.2663 Y13.1907
G01 X29.2623 Y13.1085
G01 X29.2623 Y13.1021
G01 X29.2663 Y13.0199
G01 X29.2669 Y13.0136
G01 X29.2790 Y12.9322
G01 X29.2802 Y12.9259
G01 X29.3002 Y12.8461
G01 X29.3021 Y12.8400
G01 X29.3298 Y12.7625
G01 X29.3323 Y12.7566
G01 X29.3674 Y12.6822
G01 X29.3705 Y12.6766
G01 X29.4128 Y12.6060
G01 X29.4163 Y12.6007
G01 X29.4653 Y12.5346
G01 X29.4694 Y12.5296
G01 X29.5246 Y12.4687
G01 X29.5292 Y12.4641
G01 X29.5901 Y12.4089
G01 X29.5951 Y12.4048
G01 X29.6612 Y12.3558
G01 X29.6665 Y12.3523
G01 X29.7371 Y12.3100
G01 X29.7427 Y12.3069
G01 X29.8171 Y12.2718
G01 X29.8230 Y12.2693
G01 X29.9005 Y12.2416
G01 X29.9066 Y12.2397
G01 X29.9864 Y12.2197
G01 X29.9927 Y12.2185
G01 X30.0741 Y12.2064
G01 X30.0804 Y12.2058
G01 X30.1658 Y12.2017
G01 X31.8422 Y12.2017
G01 X31.9276 Y12.2058
G01 X31.9339 Y12.2064
G01 X32.0153 Y12.2185
G01 X32.0216 Y12.2197
G01 X32.1014 Y12.2397
G01 X32.1075 Y12.2416
G01 X32.1850 Y12.2693
G01 X32.1909 Y12.2718
G01 X32.2653 Y12.3069
G01 X32.2709 Y12.3100
G01 X32.3415 Y12.3523
G01 X32.3468 Y12.3558
G01 X32.4129 Y12.4048
G01 X32.4179 Y12.4089
G01 X32.4788 Y12.4641
G01 X32.4834 Y12.4687
G01 X32.5386 Y12.5296
G01 X32.5427 Y12.5346
G01 X32.5917 Y12.6007
G01 X32.5952 Y12.6060
G01 X32.6375 Y12.6766
G01 X32.6406 Y12.6822
G01 X32.6757 Y12.7566
G01 X32.6782 Y12.7625
G01 X32.7059 Y12.8400
G01 X32.7078 Y12.8461
G01 X32.7278 Y12.9259
G01 X32.7290 Y12.9322
G01 X32.7411 Y13.0136
G01 X32.7417 Y13.0199
G01 X32.7457 Y13.1021
G01 X32.7457 Y13.1085
G01 X32.7417 Y13.1907
G01 X32.7411 Y13.1970
G01 X32.7290 Y13.2784
G01 X32.7278 Y13.2847
G01 X32.7078 Y13.3645
G01 X32.7059 Y13.3706
G01 X32.6782 Y13.4481
G01 X32.6757 Y13.4540
G01 X32.6406 Y13.5284
G01 X32.6375 Y13.5340
G01 X32.5952 Y13.6046
G01 X32.5917 Y13.6099
G01 X32.5427 Y13.6760
G01 X32.5386 Y13.6810
G01 X32.4834 Y13.7419
G01 X32.4788 Y13.7465
G01 X32.4179 Y13.8017
G01 X32.4129 Y13.8058
G01 X32.3431 Y13.8573
G00 Z2.0000
G00 X16.8727 Y19.0965
G01 F60.00
G01 Z-0.0851
G01 F60.00
G01 X17.0514 Y19.1320
G01 X17.2198 Y19.2018
G01 X17.3714 Y19.3030
G01 X17.5002 Y19.4318
G01 X17.6014 Y19.5834
G01 X17.6109 Y19.6064
G01 X17.4667 Y19.6064
G01 X17.4501 Y19.5787
G01 X17.4466 Y19.5734
G01 X17.4035 Y19.5154
G01 X17.3994 Y19.5104
G01 X17.3509 Y19.4568
G01 X17.3464 Y19.4523
G01 X17.2928 Y19.4038
G01 X17.2878 Y19.3997
G01 X17.2298 Y19.3566
G01 X17.2245 Y19.3531
G01 X17.1624 Y19.3159
G01 X17.1568 Y19.3129
G01 X17.0914 Y19.2820
G01 X17.0855 Y19.2795
G01 X17.0174 Y19.2552
G01 X17.0113 Y19.2533
G01 X16.9412 Y19.2357
G01 X16.9349 Y19.2345
G01 X16.8634 Y19.2239
G01 X16.8570 Y19.2233
G01 X16.7848 Y19.2197
G01 X16.1105 Y19.2196
G01 X16.1105 Y19.0965
G01 X16.8727 Y19.0965
G00 Z2.0000
G00 X15.9795 Y19.0965
G01 F60.00
G01 Z-0.0851
G01 F60.00
G01 X15.9795 Y19.2196
G01 X15.3052 Y19.2197
G01 X15.2330 Y19.2233
G01 X15.2266 Y19.2239
G01 X15.1551 Y19.2345
G01 X15.1488 Y19.2357
G01 X15.0787 Y19.2533
G01 X15.0726 Y19.2552
G01 X15.0045 Y19.2795
G01 X14.9986 Y19.2820
G01 X14.9332 Y19.3129
G01 X14.9276 Y19.3159
G01 X14.8655 Y19.3531
G01 X14.8602 Y19.3566
G01 X14.8022 Y19.3997
G01 X14.7972 Y19.4038
G01 X14.7436 Y19.4523
G01 X14.7391 Y19.4568
G01 X14.6906 Y19.5104
G01 X14.6865 Y19.5154
G01 X14.6434 Y19.5734
G01 X14.6399 Y19.5787
G01 X14.6233 Y19.6064
G01 X14.4790 Y19.6064
G01 X14.4885 Y19.5834
G01 X14.5898 Y19.4318
G01 X14.7186 Y19.3030
G01 X14.8702 Y19.2018
G01 X15.0386 Y19.1320
G01 X15.2173 Y19.0965
G01 X15.9795 Y19.0965
G00 Z2.0000
G00 X16.4602 Y20.9467
G01 F60.00
G01 Z-0.0851
G01 F60.00
G01 X16.4602 Y20.8236
G01 X16.7816 Y20.8236
G01 X16.8570 Y20.8199
G01 X16.8634 Y20.8193
G01 X16.9349 Y20.8087
G01 X16.9412 Y20.8075
G01 X17.0113 Y20.7899
G01 X17.0174 Y20.7880
G01 X17.0855 Y20.7637
G01 X17.0914 Y20.7612
G01 X17.1568 Y20.7303
G01 X17.1624 Y20.7273
G01 X17.2245 Y20.6901
G01 X17.2298 Y20.6866
G01 X17.2878 Y20.6435
G01 X17.2928 Y20.6394
G01 X17.3464 Y20.5909
G01 X17.3509 Y20.5864
G01 X17.3994 Y20.5328
G01 X17.4035 Y20.5278
G01 X17.4466 Y20.4698
G01 X17.4501 Y20.4645
G01 X17.4667 Y20.4368
G01 X17.6109 Y20.4368
G01 X17.6014 Y20.4598
G01 X17.5002 Y20.6114
G01 X17.3714 Y20.7402
G01 X17.2198 Y20.8414
G01 X17.0514 Y20.9112
G01 X16.8727 Y20.9467
G01 X16.4602 Y20.9467
G00 Z2.0000
G00 X16.8727 Y21.6365
G01 F60.00
G01 Z-0.0851
G01 F60.00
G01 X17.0514 Y21.6720
G01 X17.2198 Y21.7418
G01 X17.3714 Y21.8430
G01 X17.5002 Y21.9718
G01 X17.6014 Y22.1234
G01 X17.6109 Y22.1464
G01 X17.4667 Y22.1464
G01 X17.4501 Y22.1187
G01 X17.4466 Y22.1134
G01 X17.4035 Y22.0554
G01 X17.3994 Y22.0504
G01 X17.3509 Y21.9968
G01 X17.3464 Y21.9923
G01 X17.2928 Y21.9438
G01 X17.2878 Y21.9397
G01 X17.2298 Y21.8966
G01 X17.2245 Y21.8931
G01 X17.1624 Y21.8559
G01 X17.1568 Y21.8529
G01 X17.0914 Y21.8220
G01 X17.0855 Y21.8195
G01 X17.0174 Y21.7952
G01 X17.0113 Y21.7933
G01 X16.9412 Y21.7757
G01 X16.9349 Y21.7745
G01 X16.8634 Y21.7639
G01 X16.8570 Y21.7633
G01 X16.7816 Y21.7596
G01 X16.4602 Y21.7596
G01 X16.4602 Y21.6365
G01 X16.8727 Y21.6365
G00 Z2.0000
G00 X15.6298 Y21.6365
G01 F60.00
G01 Z-0.0851
G01 F60.00
G01 X15.6298 Y21.7596
G01 X15.3084 Y21.7596
G01 X15.2330 Y21.7633
G01 X15.2266 Y21.7639
G01 X15.1551 Y21.7745
G01 X15.1488 Y21.7757
G01 X15.0787 Y21.7933
G01 X15.0726 Y21.7952
G01 X15.0045 Y21.8195
G01 X14.9986 Y21.8220
G01 X14.9332 Y21.8529
G01 X14.9276 Y21.8559
G01 X14.8655 Y21.8931
G01 X14.8602 Y21.8966
G01 X14.8022 Y21.9397
G01 X14.7972 Y21.9438
G01 X14.7436 Y21.9923
G01 X14.7391 Y21.9968
G01 X14.6906 Y22.0504
G01 X14.6865 Y22.0554
G01 X14.6434 Y22.1134
G01 X14.6399 Y22.1187
G01 X14.6233 Y22.1464
G01 X14.4790 Y22.1464
G01 X14.4885 Y22.1234
G01 X14.5898 Y21.9718
G01 X14.7186 Y21.8430
G01 X14.8702 Y21.7418
G01 X15.0386 Y21.6720
G01 X15.2173 Y21.6365
G01 X15.6298 Y21.6365
G00 Z2.0000
G00 X14.4790 Y20.4368
G01 F60.00
G01 Z-0.0851
G01 F60.00
G01 X14.6233 Y20.4368
G01 X14.6399 Y20.4645
G01 X14.6434 Y20.4698
G01 X14.6865 Y20.5278
G01 X14.6906 Y20.5328
G01 X14.7391 Y20.5864
G01 X14.7436 Y20.5909
G01 X14.7972 Y20.6394
G01 X14.8022 Y20.6435
G01 X14.8602 Y20.6866
G01 X14.8655 Y20.6901
G01 X14.9276 Y20.7273
G01 X14.9332 Y20.7303
G01 X14.9986 Y20.7612
G01 X15.0045 Y20.7637
G01 X15.0726 Y20.7880
G01 X15.0787 Y20.7899
G01 X15.1488 Y20.8075
G01 X15.1551 Y20.8087
G01 X15.2266 Y20.8193
G01 X15.2330 Y20.8199
G01 X15.3084 Y20.8236
G01 X15.6298 Y20.8236
G01 X15.6298 Y20.9467
G01 X15.2173 Y20.9467
G01 X15.0386 Y20.9112
G01 X14.8702 Y20.8414
G01 X14.7186 Y20.7402
G01 X14.5898 Y20.6114
G01 X14.4885 Y20.4598
G01 X14.4790 Y20.4368
G00 Z2.0000
G00 X14.4790 Y22.9768
G01 F60.00
G01 Z-0.0851
G01 F60.00
G01 X14.6233 Y22.9768
G01 X14.6399 Y23.0045
G01 X14.6434 Y23.0098
G01 X14.6865 Y23.0678
G01 X14.6906 Y23.0728
G01 X14.7391 Y23.1264
G01 X14.7436 Y23.1309
G01 X14.7972 Y23.1794
G01 X14.8022 Y23.1835
G01 X14.8602 Y23.2266
G01 X14.8655 Y23.2301
G01 X14.9276 Y23.2673
G01 X14.9332 Y23.2703
G01 X14.9986 Y23.3012
G01 X15.0045 Y23.3037
G01 X15.0726 Y23.3280
G01 X15.0787 Y23.3299
G01 X15.1488 Y23.3475
G01 X15.1551 Y23.3487
G01 X15.2266 Y23.3593
G01 X15.2330 Y23.3599
G01 X15.3052 Y23.3635
G01 X15.9795 Y23.3636
G01 X15.9795 Y23.4867
G01 X15.2173 Y23.4867
G01 X15.0386 Y23.4512
G01 X14.8702 Y23.3814
G01 X14.7186 Y23.2802
G01 X14.5898 Y23.1514
G01 X14.4885 Y22.9998
G01 X14.4790 Y22.9768
G00 Z2.0000
G00 X16.1105 Y23.3636
G01 F60.00
G01 Z-0.0851
G01 F60.00
G01 X16.7848 Y23.3635
G01 X16.8570 Y23.3599
G01 X16.8634 Y23.3593
G01 X16.9349 Y23.3487
G01 X16.9412 Y23.3475
G01 X17.0113 Y23.3299
G01 X17.0174 Y23.3280
G01 X17.0855 Y23.3037
G01 X17.0914 Y23.3012
G01 X17.1568 Y23.2703
G01 X17.1624 Y23.2673
G01 X17.2245 Y23.2301
G01 X17.2298 Y23.2266
G01 X17.2878 Y23.1835
G01 X17.2928 Y23.1794
G01 X17.3464 Y23.1309
G01 X17.3509 Y23.1264
G01 X17.3994 Y23.0728
G01 X17.4035 Y23.0678
G01 X17.4466 Y23.0098
G01 X17.4501 Y23.0045
G01 X17.4667 Y22.9768
G01 X17.6109 Y22.9768
G01 X17.6014 Y22.9998
G01 X17.5002 Y23.1514
G01 X17.3714 Y23.2802
G01 X17.2198 Y23.3814
G01 X17.0514 Y23.4512
G01 X16.8727 Y23.4867
G01 X16.1105 Y23.4867
G01 X16.1105 Y23.3636
G00 Z2.0000
G00 X10.1513 Y24.5802
G01 F60.00
G01 Z-0.0851
G01 F60.00
G01 X10.2575 Y24.6864
G01 X14.6233 Y24.6864
G01 X14.6399 Y24.6587
G01 X14.6434 Y24.6534
G01 X14.6865 Y24.5954
G01 X14.6906 Y24.5904
G01 X14.7391 Y24.5368
G01 X14.7436 Y24.5323
G01 X14.7972 Y24.4838
G01 X14.8022 Y24.4797
G01 X14.8602 Y24.4366
G01 X14.8655 Y24.4331
G01 X14.9276 Y24.3959
G01 X14.9332 Y24.3929
G01 X14.9986 Y24.3620
G01 X15.0045 Y24.3595
G01 X15.0726 Y24.3352
G01 X15.0787 Y24.3333
G01 X15.1488 Y24.3157
G01 X15.1551 Y24.3145
G01 X15.2266 Y24.3039
G01 X15.2330 Y24.3033
G01 X15.3084 Y24.2996
G01 X16.7816 Y24.2996
G01 X16.8570 Y24.3033
G01 X16.8634 Y24.3039
G01 X16.9349 Y24.3145
G01 X16.9412 Y24.3157
G01 X17.0113 Y24.3333
G01 X17.0174 Y24.3352
G01 X17.0855 Y24.3595
G01 X17.0914 Y24.3620
G01 X17.1568 Y24.3929
G01 X17.1624 Y24.3959
G01 X17.2245 Y24.4331
G01 X17.2298 Y24.4366
G01 X17.2878 Y24.4797
G01 X17.2928 Y24.4838
G01 X17.3464 Y24.5323
G01 X17.3509 Y24.5368
G01 X17.3994 Y24.5904
G01 X17.4035 Y24.5954
G01 X17.4466 Y24.6534
G01 X17.4501 Y24.6587
G01 X17.4873 Y24.7208
G01 X17.4903 Y24.7264
G01 X17.5212 Y24.7918
G01 X17.5237 Y24.7977
G01 X17.5480 Y24.8658
G01 X17.5499 Y24.8719
G01 X17.5675 Y24.9420
G01 X17.5687 Y24.9483
G01 X17.5793 Y25.0198
G01 X17.5799 Y25.0262
G01 X17.5835 Y25.0984
G01 X17.5835 Y25.1048
G01 X17.5799 Y25.1770
G01 X17.5793 Y25.1834
G01 X17.5687 Y25.2549
G01 X17.5675 Y25.2612
G01 X17.5499 Y25.3313
G01 X17.5480 Y25.3374
G01 X17.5237 Y25.4055
G01 X17.5212 Y25.4114
G01 X17.4903 Y25.4768
G01 X17.4873 Y25.4824
G01 X17.4501 Y25.5445
G01 X17.4466 Y25.5498
G01 X17.4035 Y25.6078
G01 X17.3994 Y25.6128
G01 X17.3509 Y25.6664
G01 X17.3464 Y25.6709
G01 X17.2928 Y25.7194
G01 X17.2878 Y25.7235
G01 X17.2298 Y25.7666
G01 X17.2245 Y25.7701
G01 X17.1624 Y25.8073
G01 X17.1568 Y25.8103
G01 X17.0914 Y25.8412
G01 X17.0855 Y25.8437
G01 X17.0174 Y25.8680
G01 X17.0113 Y25.8699
G01 X16.9412 Y25.8875
G01 X16.9349 Y25.8887
G01 X16.8634 Y25.8993
G01 X16.8570 Y25.8999
G01 X16.7848 Y25.9035
G01 X15.3084 Y25.9036
G01 X15.2330 Y25.8999
G01 X15.2266 Y25.8993
G01 X15.1551 Y25.8887
G01 X15.1488 Y25.8875
G01 X15.0787 Y25.8699
G01 X15.0726 Y25.8680
G01 X15.0045 Y25.8437
G01 X14.9986 Y25.8412
G01 X14.9332 Y25.8103
G01 X14.9276 Y25.8073
G01 X14.8655 Y25.7701
G01 X14.8602 Y25.7666
G01 X14.8022 Y25.7235
G01 X14.7972 Y25.7194
G01 X14.7436 Y25.6709
G01 X14.7391 Y25.6664
G01 X14.6906 Y25.6128
G01 X14.6865 Y25.6078
G01 X14.6434 Y25.5498
G01 X14.6399 Y25.5445
G01 X14.6233 Y25.5168
G01 X10.0855 Y25.5168
G01 X10.0480 Y25.5150
G01 X10.0416 Y25.5144
G01 X10.0076 Y25.5093
G01 X10.0014 Y25.5081
G01 X9.9681 Y25.4997
G01 X9.9620 Y25.4979
G01 X9.9296 Y25.4863
G01 X9.9237 Y25.4839
G01 X9.8926 Y25.4692
G01 X9.8870 Y25.4662
G01 X9.8575 Y25.4485
G01 X9.8522 Y25.4450
G01 X9.8246 Y25.4245
G01 X9.8197 Y25.4205
G01 X9.7919 Y25.3952
G01 X9.1194 Y24.7227
G01 X7.7869 Y24.7227
G01 X7.6928 Y24.7181
G01 X7.6864 Y24.7175
G01 X7.5964 Y24.7041
G01 X7.5901 Y24.7029
G01 X7.5018 Y24.6808
G01 X7.4957 Y24.6789
G01 X7.4100 Y24.6483
G01 X7.4041 Y24.6458
G01 X7.3219 Y24.6069
G01 X7.3162 Y24.6039
G01 X7.2382 Y24.5571
G01 X7.2329 Y24.5535
G01 X7.1597 Y24.4993
G01 X7.1548 Y24.4953
G01 X7.0874 Y24.4341
G01 X7.0829 Y24.4296
G01 X7.0217 Y24.3622
G01 X7.0177 Y24.3573
G01 X6.9635 Y24.2841
G01 X6.9599 Y24.2788
G01 X6.9131 Y24.2008
G01 X6.9101 Y24.1951
G01 X6.8712 Y24.1129
G01 X6.8687 Y24.1070
G01 X6.8381 Y24.0213
G01 X6.8362 Y24.0152
G01 X6.8141 Y23.9269
G01 X6.8129 Y23.9206
G01 X6.7995 Y23.8306
G01 X6.7989 Y23.8242
G01 X6.7944 Y23.7333
G01 X6.7944 Y23.7269
G01 X6.7989 Y23.6360
G01 X6.7995 Y23.6296
G01 X6.8129 Y23.5396
G01 X6.8141 Y23.5333
G01 X6.8362 Y23.4450
G01 X6.8381 Y23.4389
G01 X6.8687 Y23.3532
G01 X6.8712 Y23.3473
G01 X6.9101 Y23.2651
G01 X6.9131 Y23.2594
G01 X6.9599 Y23.1814
G01 X6.9635 Y23.1761
G01 X7.0177 Y23.1029
G01 X7.0217 Y23.0980
G01 X7.0829 Y23.0306
G01 X7.0874 Y23.0261
G01 X7.1548 Y22.9649
G01 X7.1597 Y22.9609
G01 X7.2329 Y22.9067
G01 X7.2382 Y22.9031
G01 X7.3162 Y22.8563
G01 X7.3219 Y22.8533
G01 X7.4041 Y22.8144
G01 X7.4100 Y22.8119
G01 X7.4957 Y22.7813
G01 X7.5018 Y22.7794
G01 X7.5901 Y22.7573
G01 X7.5964 Y22.7561
G01 X7.6864 Y22.7427
G01 X7.6928 Y22.7421
G01 X7.7869 Y22.7375
G01 X9.6411 Y22.7375
G01 X9.7352 Y22.7421
G01 X9.7416 Y22.7427
G01 X9.8316 Y22.7561
G01 X9.8379 Y22.7573
G01 X9.9262 Y22.7794
G01 X9.9323 Y22.7813
G01 X10.0180 Y22.8119
G01 X10.0239 Y22.8144
G01 X10.1061 Y22.8533
G01 X10.1118 Y22.8563
G01 X10.1898 Y22.9031
G01 X10.1951 Y22.9067
G01 X10.2683 Y22.9609
G01 X10.2732 Y22.9649
G01 X10.3406 Y23.0261
G01 X10.3451 Y23.0306
G01 X10.4063 Y23.0980
G01 X10.4103 Y23.1029
G01 X10.4645 Y23.1761
G01 X10.4681 Y23.1814
G01 X10.5149 Y23.2594
G01 X10.5179 Y23.2651
G01 X10.5568 Y23.3473
G01 X10.5593 Y23.3532
G01 X10.5899 Y23.4389
G01 X10.5918 Y23.4450
G01 X10.6139 Y23.5333
G01 X10.6151 Y23.5396
G01 X10.6285 Y23.6296
G01 X10.6291 Y23.6360
G01 X10.6336 Y23.7269
G01 X10.6336 Y23.7333
G01 X10.6291 Y23.8242
G01 X10.6285 Y23.8306
G01 X10.6151 Y23.9206
G01 X10.6139 Y23.9269
G01 X10.5918 Y24.0152
G01 X10.5899 Y24.0213
G01 X10.5593 Y24.1070
G01 X10.5568 Y24.1129
G01 X10.5179 Y24.1951
G01 X10.5149 Y24.2008
G01 X10.4681 Y24.2788
G01 X10.4645 Y24.2841
G01 X10.4103 Y24.3573
G01 X10.4063 Y24.3622
G01 X10.3451 Y24.4296
G01 X10.3406 Y24.4341
G01 X10.2732 Y24.4953
G01 X10.2683 Y24.4993
G01 X10.1951 Y24.5535
G01 X10.1898 Y24.5571
G01 X10.1513 Y24.5802
G00 Z2.0000
G00 X9.3147 Y28.0272
G01 F60.00
G01 Z-0.0851
G01 F60.00
G01 X7.5043 Y28.0271
G01 X7.4700 Y28.0254
G01 X7.4636 Y28.0248
G01 X7.4296 Y28.0197
G01 X7.4234 Y28.0185
G01 X7.3901 Y28.0101
G01 X7.3840 Y28.0083
G01 X7.3516 Y27.9967
G01 X7.3457 Y27.9943
G01 X7.3146 Y27.9796
G01 X7.3090 Y27.9766
G01 X7.2795 Y27.9589
G01 X7.2742 Y27.9554
G01 X7.2466 Y27.9349
G01 X7.2417 Y27.9309
G01 X7.2139 Y27.9056
G01 X4.8218 Y25.5135
G01 X4.7965 Y25.4857
G01 X4.7925 Y25.4808
G01 X4.7720 Y25.4532
G01 X4.7685 Y25.4479
G01 X4.7508 Y25.4184
G01 X4.7478 Y25.4128
G01 X4.7331 Y25.3817
G01 X4.7307 Y25.3758
G01 X4.7191 Y25.3434
G01 X4.7173 Y25.3373
G01 X4.7089 Y25.3040
G01 X4.7077 Y25.2978
G01 X4.7026 Y25.2638
G01 X4.7020 Y25.2574
G01 X4.7002 Y25.2199
G01 X4.7002 Y14.6660
G01 X4.7020 Y14.6285
G01 X4.7026 Y14.6221
G01 X4.7077 Y14.5881
G01 X4.7089 Y14.5819
G01 X4.7173 Y14.5486
G01 X4.7191 Y14.5424
G01 X4.7307 Y14.5101
G01 X4.7331 Y14.5042
G01 X4.7478 Y14.4731
G01 X4.7508 Y14.4675
G01 X4.7685 Y14.4380
G01 X4.7720 Y14.4327
G01 X4.7925 Y14.4051
G01 X4.7966 Y14.4002
G01 X4.8218 Y14.3724
G01 X6.2912 Y12.9031
G01 X6.3190 Y12.8778
G01 X6.3239 Y12.8738
G01 X6.3515 Y12.8533
G01 X6.3568 Y12.8498
G01 X6.3863 Y12.8321
G01 X6.3919 Y12.8291
G01 X6.4230 Y12.8144
G01 X6.4289 Y12.8120
G01 X6.4613 Y12.8004
G01 X6.4674 Y12.7985
G01 X6.5007 Y12.7902
G01 X6.5070 Y12.7890
G01 X6.5409 Y12.7839
G01 X6.5473 Y12.7833
G01 X6.5848 Y12.7815
G01 X7.4154 Y12.7815
G01 X7.4222 Y12.7680
G01 X7.4645 Y12.6974
G01 X7.4680 Y12.6921
G01 X7.5170 Y12.6260
G01 X7.5211 Y12.6210
G01 X7.5763 Y12.5601
G01 X7.5809 Y12.5555
G01 X7.6418 Y12.5003
G01 X7.6468 Y12.4962
G01 X7.7129 Y12.4472
G01 X7.7182 Y12.4437
G01 X7.7888 Y12.4014
G01 X7.7944 Y12.3983
G01 X7.8688 Y12.3632
G01 X7.8747 Y12.3607
G01 X7.9522 Y12.3330
G01 X7.9583 Y12.3311
G01 X8.0381 Y12.3111
G01 X8.0444 Y12.3099
G01 X8.1258 Y12.2978
G01 X8.1321 Y12.2972
G01 X8.2175 Y12.2931
G01 X9.8971 Y12.2932
G01 X9.9793 Y12.2972
G01 X9.9856 Y12.2978
G01 X10.0670 Y12.3099
G01 X10.0733 Y12.3111
G01 X10.1531 Y12.3311
G01 X10.1592 Y12.3330
G01 X10.2367 Y12.3607
G01 X10.2426 Y12.3632
G01 X10.3170 Y12.3983
G01 X10.3226 Y12.4014
G01 X10.3932 Y12.4437
G01 X10.3985 Y12.4472
G01 X10.4646 Y12.4962
G01 X10.4696 Y12.5003
G01 X10.5305 Y12.5555
G01 X10.5351 Y12.5601
G01 X10.5903 Y12.6210
G01 X10.5944 Y12.6260
G01 X10.6434 Y12.6921
G01 X10.6469 Y12.6974
G01 X10.6892 Y12.7680
G01 X10.6923 Y12.7736
G01 X10.7274 Y12.8480
G01 X10.7299 Y12.8539
G01 X10.7576 Y12.9314
G01 X10.7595 Y12.9375
G01 X10.7795 Y13.0173
G01 X10.7807 Y13.0236
G01 X10.7928 Y13.1050
G01 X10.7934 Y13.1113
G01 X10.7974 Y13.1935
G01 X10.7974 Y13.1999
G01 X10.7934 Y13.2821
G01 X10.7928 Y13.2884
G01 X10.7807 Y13.3698
G01 X10.7795 Y13.3761
G01 X10.7595 Y13.4559
G01 X10.7576 Y13.4620
G01 X10.7299 Y13.5395
G01 X10.7274 Y13.5454
G01 X10.6923 Y13.6198
G01 X10.6892 Y13.6254
G01 X10.6469 Y13.6960
G01 X10.6434 Y13.7013
G01 X10.5944 Y13.7674
G01 X10.5903 Y13.7724
G01 X10.5351 Y13.8333
G01 X10.5305 Y13.8379
G01 X10.4696 Y13.8931
G01 X10.4646 Y13.8972
G01 X10.3985 Y13.9462
G01 X10.3932 Y13.9497
G01 X10.3226 Y13.9920
G01 X10.3170 Y13.9951
G01 X10.2426 Y14.0302
G01 X10.2367 Y14.0327
G01 X10.1592 Y14.0604
G01 X10.1531 Y14.0623
G01 X10.0733 Y14.0823
G01 X10.0670 Y14.0835
G01 X9.9856 Y14.0956
G01 X9.9793 Y14.0962
G01 X9.8939 Y14.1003
G01 X8.2175 Y14.1003
G01 X8.1321 Y14.0962
G01 X8.1258 Y14.0956
G01 X8.0444 Y14.0835
G01 X8.0381 Y14.0823
G01 X7.9583 Y14.0623
G01 X7.9522 Y14.0604
G01 X7.8747 Y14.0327
G01 X7.8688 Y14.0302
G01 X7.7944 Y13.9951
G01 X7.7888 Y13.9920
G01 X7.7182 Y13.9497
G01 X7.7129 Y13.9462
G01 X7.6468 Y13.8972
G01 X7.6418 Y13.8931
G01 X7.5809 Y13.8379
G01 X7.5763 Y13.8333
G01 X7.5211 Y13.7724
G01 X7.5170 Y13.7674
G01 X7.4680 Y13.7013
G01 X7.4645 Y13.6960
G01 X7.4222 Y13.6254
G01 X7.4154 Y13.6119
G01 X6.7568 Y13.6119
G01 X5.5306 Y14.8380
G01 X5.5306 Y25.0479
G01 X7.6795 Y27.1968
G01 X9.4386 Y27.1968
G01 X9.4760 Y27.1986
G01 X9.4824 Y27.1992
G01 X9.5163 Y27.2042
G01 X9.5225 Y27.2055
G01 X9.5558 Y27.2138
G01 X9.5619 Y27.2156
G01 X9.5922 Y27.2264
G01 X14.6233 Y27.2264
G01 X14.6399 Y27.1987
G01 X14.6434 Y27.1934
G01 X14.6865 Y27.1354
G01 X14.6906 Y27.1304
G01 X14.7391 Y27.0768
G01 X14.7436 Y27.0723
G01 X14.7972 Y27.0238
G01 X14.8022 Y27.0197
G01 X14.8602 Y26.9766
G01 X14.8655 Y26.9731
G01 X14.9276 Y26.9359
G01 X14.9332 Y26.9329
G01 X14.9986 Y26.9020
G01 X15.0045 Y26.8995
G01 X15.0726 Y26.8752
G01 X15.0787 Y26.8733
G01 X15.1488 Y26.8557
G01 X15.1551 Y26.8545
G01 X15.2266 Y26.8439
G01 X15.2330 Y26.8433
G01 X15.3084 Y26.8396
G01 X16.7848 Y26.8397
G01 X16.8570 Y26.8433
G01 X16.8634 Y26.8439
G01 X16.9349 Y26.8545
G01 X16.9412 Y26.8557
G01 X17.0113 Y26.8733
G01 X17.0174 Y26.8752
G01 X17.0855 Y26.8995
G01 X17.0914 Y26.9020
G01 X17.1568 Y26.9329
G01 X17.1624 Y26.9359
G01 X17.2245 Y26.9731
G01 X17.2298 Y26.9766
G01 X17.2878 Y27.0197
G01 X17.2928 Y27.0238
G01 X17.3464 Y27.0723
G01 X17.3509 Y27.0768
G01 X17.3994 Y27.1304
G01 X17.4035 Y27.1354
G01 X17.4466 Y27.1934
G01 X17.4501 Y27.1987
G01 X17.4873 Y27.2608
G01 X17.4903 Y27.2664
G01 X17.5212 Y27.3318
G01 X17.5237 Y27.3377
G01 X17.5480 Y27.4058
G01 X17.5499 Y27.4119
G01 X17.5675 Y27.4820
G01 X17.5687 Y27.4883
G01 X17.5793 Y27.5598
G01 X17.5799 Y27.5662
G01 X17.5835 Y27.6384
G01 X17.5835 Y27.6448
G01 X17.5799 Y27.7170
G01 X17.5793 Y27.7234
G01 X17.5687 Y27.7949
G01 X17.5675 Y27.8012
G01 X17.5499 Y27.8713
G01 X17.5480 Y27.8774
G01 X17.5237 Y27.9455
G01 X17.5212 Y27.9514
G01 X17.4903 Y28.0168
G01 X17.4873 Y28.0224
G01 X17.4501 Y28.0845
G01 X17.4466 Y28.0898
G01 X17.4035 Y28.1478
G01 X17.3994 Y28.1528
G01 X17.3509 Y28.2064
G01 X17.3464 Y28.2109
G01 X17.2928 Y28.2594
G01 X17.2878 Y28.2635
G01 X17.2298 Y28.3066
G01 X17.2245 Y28.3101
G01 X17.1624 Y28.3473
G01 X17.1568 Y28.3503
G01 X17.0914 Y28.3812
G01 X17.0855 Y28.3837
G01 X17.0174 Y28.4080
G01 X17.0113 Y28.4099
G01 X16.9412 Y28.4275
G01 X16.9349 Y28.4287
G01 X16.8634 Y28.4393
G01 X16.8570 Y28.4399
G01 X16.7816 Y28.4436
G01 X15.3084 Y28.4436
G01 X15.2330 Y28.4399
G01 X15.2266 Y28.4393
G01 X15.1551 Y28.4287
G01 X15.1488 Y28.4275
G01 X15.0787 Y28.4099
G01 X15.0726 Y28.4080
G01 X15.0045 Y28.3837
G01 X14.9986 Y28.3812
G01 X14.9332 Y28.3503
G01 X14.9276 Y28.3473
G01 X14.8655 Y28.3101
G01 X14.8602 Y28.3066
G01 X14.8022 Y28.2635
G01 X14.7972 Y28.2594
G01 X14.7436 Y28.2109
G01 X14.7391 Y28.2064
G01 X14.6906 Y28.1528
G01 X14.6865 Y28.1478
G01 X14.6434 Y28.0898
G01 X14.6399 Y28.0845
G01 X14.6233 Y28.0568
G01 X9.4683 Y28.0568
G01 X9.4309 Y28.0550
G01 X9.4245 Y28.0544
G01 X9.3906 Y28.0494
G01 X9.3844 Y28.0481
G01 X9.3511 Y28.0398
G01 X9.3450 Y28.0380
G01 X9.3147 Y28.0272
G00 Z2.0000
G00 X9.2904 Y30.6487
G01 F60.00
G01 Z-0.0851
G01 F60.00
G01 X9.2917 Y30.6225
G01 X9.7398 Y30.9626
G01 X9.7829 Y31.2773
G01 X9.6605 Y31.2941
G01 X9.6280 Y31.0567
G01 X9.6268 Y31.0505
G01 X9.6250 Y31.0443
G01 X9.6226 Y31.0384
G01 X9.6197 Y31.0328
G01 X9.6162 Y31.0274
G01 X9.6122 Y31.0224
G01 X9.6078 Y31.0179
G01 X9.6029 Y31.0138
G01 X9.2904 Y30.7766
G01 X9.2904 Y30.6487
G00 Z2.0000
G00 X8.4600 Y30.7158
G01 F60.00
G01 Z-0.0851
G01 F60.00
G01 X8.4517 Y30.7180
G01 X8.4458 Y30.7204
G01 X8.4402 Y30.7233
G01 X8.4348 Y30.7268
G01 X8.4298 Y30.7308
G01 X8.4253 Y30.7352
G01 X8.4212 Y30.7401
G01 X8.1840 Y31.0526
G01 X8.0289 Y31.0526
G01 X8.3700 Y30.6032
G01 X8.4610 Y30.5908
G01 X8.4600 Y30.6117
G01 X8.4600 Y30.7158
G00 Z2.0000
G00 X7.9983 Y31.8830
G01 F60.00
G01 Z-0.0851
G01 F60.00
G01 X8.1232 Y31.8830
G01 X8.1254 Y31.8913
G01 X8.1278 Y31.8972
G01 X8.1307 Y31.9028
G01 X8.1342 Y31.9082
G01 X8.1382 Y31.9132
G01 X8.1426 Y31.9177
G01 X8.1475 Y31.9218
G01 X8.4600 Y32.1590
G01 X8.4600 Y32.3141
G01 X8.0106 Y31.9730
G01 X7.9983 Y31.8830
G00 Z2.0000
G00 X9.2904 Y32.2198
G01 F60.00
G01 Z-0.0851
G01 F60.00
G01 X9.2987 Y32.2176
G01 X9.3046 Y32.2152
G01 X9.3102 Y32.2123
G01 X9.3156 Y32.2088
G01 X9.3206 Y32.2048
G01 X9.3251 Y32.2004
G01 X9.3292 Y32.1955
G01 X9.6982 Y31.7094
G01 X9.7018 Y31.7042
G01 X9.7048 Y31.6986
G01 X9.7073 Y31.6927
G01 X9.7093 Y31.6866
G01 X9.7106 Y31.6804
G01 X9.7113 Y31.6740
G01 X9.7113 Y31.6677
G01 X9.7108 Y31.6613
G01 X9.6783 Y31.4239
G01 X9.8006 Y31.4071
G01 X9.8437 Y31.7218
G01 X9.3804 Y32.3324
G01 X9.2904 Y32.3447
G01 X9.2904 Y32.2198
G00 Z2.0000
G00 X8.1426 Y34.4387
G01 F60.00
G01 Z-0.0851
G01 F60.00
G01 X1.0132 Y34.4495
G01 X1.0068 Y34.4492
G01 X1.0005 Y34.4483
G01 X0.9943 Y34.4467
G01 X0.9883 Y34.4446
G01 X0.9825 Y34.4418
G01 X0.9770 Y34.4386
G01 X0.9719 Y34.4348
G01 X0.9666 Y34.4300
G01 X0.9624 Y34.4253
G01 X0.9586 Y34.4202
G01 X0.9553 Y34.4147
G01 X0.9526 Y34.4090
G01 X0.9504 Y34.4030
G01 X0.9489 Y34.3968
G01 X0.9479 Y34.3905
G01 X0.9476 Y34.3842
G01 X0.8508 Y1.0718
G01 X0.8511 Y1.0649
G01 X0.8521 Y1.0586
G01 X0.8537 Y1.0523
G01 X0.8559 Y1.0462
G01 X0.8587 Y1.0404
G01 X0.8621 Y1.0349
G01 X0.8660 Y1.0298
G01 X0.8704 Y1.0250
G01 X0.8752 Y1.0207
G01 X0.8808 Y1.0167
G01 X0.8861 Y1.0135
G01 X0.8918 Y1.0109
G01 X0.8977 Y1.0088
G01 X0.9038 Y1.0073
G01 X0.9100 Y1.0064
G01 X0.9162 Y1.0061
G01 X36.8272 Y0.9520
G01 X36.8340 Y0.9523
G01 X36.8403 Y0.9533
G01 X36.8466 Y0.9549
G01 X36.8527 Y0.9571
G01 X36.8585 Y0.9599
G01 X36.8640 Y0.9633
G01 X36.8691 Y0.9672
G01 X36.8739 Y0.9716
G01 X36.8782 Y0.9764
G01 X36.8822 Y0.9819
G01 X36.8854 Y0.9873
G01 X36.8880 Y0.9930
G01 X36.8901 Y0.9989
G01 X36.8916 Y1.0049
G01 X36.8925 Y1.0111
G01 X36.8928 Y1.0173
G01 X36.9896 Y34.3297
G01 X36.9893 Y34.3365
G01 X36.9883 Y34.3429
G01 X36.9867 Y34.3491
G01 X36.9845 Y34.3552
G01 X36.9817 Y34.3610
G01 X36.9783 Y34.3666
G01 X36.9744 Y34.3717
G01 X36.9700 Y34.3765
G01 X36.9652 Y34.3808
G01 X36.9596 Y34.3848
G01 X36.9543 Y34.3880
G01 X36.9486 Y34.3906
G01 X36.9427 Y34.3927
G01 X36.9366 Y34.3942
G01 X36.9305 Y34.3951
G01 X36.9242 Y34.3954
G01 X8.1426 Y34.4387
G00 Z2.0000
G00 X12.2170 Y31.3613
G01 F60.00
G01 Z-0.0851
G01 F60.00
G01 X13.2240 Y32.3682
G01 X26.0597 Y32.3682
G01 X26.4719 Y31.9561
G01 X26.4719 Y31.4365
G01 X26.4722 Y31.4301
G01 X26.4732 Y31.4238
G01 X26.4747 Y31.4176
G01 X26.4768 Y31.4116
G01 X26.4796 Y31.4059
G01 X26.4829 Y31.4004
G01 X26.4867 Y31.3953
G01 X26.4909 Y31.3905
G01 X26.9224 Y30.9590
G01 X26.9272 Y30.9548
G01 X26.9323 Y30.9510
G01 X26.9378 Y30.9477
G01 X26.9435 Y30.9449
G01 X26.9495 Y30.9428
G01 X26.9557 Y30.9413
G01 X26.9620 Y30.9403
G01 X26.9684 Y30.9400
G01 X27.5786 Y30.9400
G01 X27.5850 Y30.9403
G01 X27.5913 Y30.9413
G01 X27.5975 Y30.9428
G01 X27.6035 Y30.9449
G01 X27.6092 Y30.9477
G01 X27.6147 Y30.9510
G01 X27.6198 Y30.9548
G01 X27.6246 Y30.9590
G01 X28.0561 Y31.3905
G01 X28.0603 Y31.3953
G01 X28.0641 Y31.4004
G01 X28.0674 Y31.4059
G01 X28.0702 Y31.4116
G01 X28.0723 Y31.4176
G01 X28.0738 Y31.4238
G01 X28.0748 Y31.4301
G01 X28.0751 Y31.4365
G01 X28.0751 Y32.0467
G01 X28.0748 Y32.0531
G01 X28.0738 Y32.0594
G01 X28.0723 Y32.0656
G01 X28.0702 Y32.0716
G01 X28.0674 Y32.0773
G01 X28.0641 Y32.0828
G01 X28.0603 Y32.0879
G01 X28.0561 Y32.0927
G01 X27.6246 Y32.5242
G01 X27.6198 Y32.5284
G01 X27.6147 Y32.5322
G01 X27.6092 Y32.5355
G01 X27.6035 Y32.5383
G01 X27.5975 Y32.5404
G01 X27.5913 Y32.5419
G01 X27.5850 Y32.5429
G01 X27.5786 Y32.5432
G01 X27.0590 Y32.5432
G01 X26.5253 Y33.0770
G01 X26.4975 Y33.1023
G01 X26.4926 Y33.1063
G01 X26.4650 Y33.1268
G01 X26.4597 Y33.1303
G01 X26.4302 Y33.1480
G01 X26.4246 Y33.1510
G01 X26.3935 Y33.1657
G01 X26.3876 Y33.1681
G01 X26.3552 Y33.1797
G01 X26.3491 Y33.1815
G01 X26.3158 Y33.1899
G01 X26.3096 Y33.1911
G01 X26.2756 Y33.1962
G01 X26.2692 Y33.1968
G01 X26.2317 Y33.1986
G01 X13.0488 Y33.1985
G01 X13.0145 Y33.1968
G01 X13.0081 Y33.1962
G01 X12.9741 Y33.1911
G01 X12.9679 Y33.1899
G01 X12.9346 Y33.1815
G01 X12.9285 Y33.1797
G01 X12.8961 Y33.1681
G01 X12.8902 Y33.1657
G01 X12.8591 Y33.1510
G01 X12.8535 Y33.1480
G01 X12.8240 Y33.1303
G01 X12.8187 Y33.1268
G01 X12.7911 Y33.1063
G01 X12.7862 Y33.1023
G01 X12.7584 Y33.0770
G01 X11.5869 Y31.9054
G01 X11.1982 Y31.9587
G01 X11.1918 Y31.9592
G01 X11.1855 Y31.9592
G01 X11.1791 Y31.9585
G01 X11.1729 Y31.9572
G01 X11.1668 Y31.9552
G01 X11.1609 Y31.9527
G01 X11.1553 Y31.9497
G01 X11.1501 Y31.9461
G01 X10.6640 Y31.5771
G01 X10.6591 Y31.5730
G01 X10.6547 Y31.5685
G01 X10.6507 Y31.5635
G01 X10.6472 Y31.5581
G01 X10.6443 Y31.5525
G01 X10.6419 Y31.5466
G01 X10.6401 Y31.5404
G01 X10.6389 Y31.5342
G01 X10.5561 Y30.9296
G01 X10.5556 Y30.9232
G01 X10.5556 Y30.9169
G01 X10.5563 Y30.9105
G01 X10.5576 Y30.9043
G01 X10.5596 Y30.8982
G01 X10.5621 Y30.8923
G01 X10.5651 Y30.8867
G01 X10.5687 Y30.8815
G01 X10.9377 Y30.3954
G01 X10.9418 Y30.3905
G01 X10.9463 Y30.3861
G01 X10.9513 Y30.3821
G01 X10.9567 Y30.3786
G01 X10.9623 Y30.3757
G01 X10.9682 Y30.3733
G01 X10.9744 Y30.3715
G01 X10.9806 Y30.3703
G01 X11.5852 Y30.2875
G01 X11.5916 Y30.2870
G01 X11.5979 Y30.2870
G01 X11.6043 Y30.2877
G01 X11.6105 Y30.2890
G01 X11.6166 Y30.2910
G01 X11.6225 Y30.2935
G01 X11.6281 Y30.2965
G01 X11.6333 Y30.3001
G01 X12.1194 Y30.6691
G01 X12.1243 Y30.6732
G01 X12.1287 Y30.6777
G01 X12.1327 Y30.6827
G01 X12.1362 Y30.6881
G01 X12.1391 Y30.6937
G01 X12.1415 Y30.6996
G01 X12.1433 Y30.7058
G01 X12.1445 Y30.7120
G01 X12.2273 Y31.3166
G01 X12.2278 Y31.3230
G01 X12.2278 Y31.3293
G01 X12.2271 Y31.3357
G01 X12.2258 Y31.3419
G01 X12.2238 Y31.3480
G01 X12.2213 Y31.3539
G01 X12.2170 Y31.3613
G00 Z2.0000
G00 X10.1793 Y17.8968
G01 F60.00
G01 Z-0.0851
G01 F60.00
G01 X10.1951 Y17.9067
G01 X10.2683 Y17.9609
G01 X10.2732 Y17.9649
G01 X10.3406 Y18.0261
G01 X10.3451 Y18.0306
G01 X10.4063 Y18.0980
G01 X10.4103 Y18.1029
G01 X10.4645 Y18.1761
G01 X10.4681 Y18.1814
G01 X10.5149 Y18.2594
G01 X10.5179 Y18.2651
G01 X10.5568 Y18.3473
G01 X10.5593 Y18.3532
G01 X10.5899 Y18.4389
G01 X10.5918 Y18.4450
G01 X10.6139 Y18.5333
G01 X10.6151 Y18.5396
G01 X10.6285 Y18.6296
G01 X10.6291 Y18.6360
G01 X10.6336 Y18.7269
G01 X10.6336 Y18.7333
G01 X10.6291 Y18.8242
G01 X10.6285 Y18.8306
G01 X10.6151 Y18.9206
G01 X10.6139 Y18.9269
G01 X10.5918 Y19.0152
G01 X10.5899 Y19.0213
G01 X10.5593 Y19.1070
G01 X10.5568 Y19.1129
G01 X10.5179 Y19.1951
G01 X10.5149 Y19.2008
G01 X10.4681 Y19.2788
G01 X10.4645 Y19.2841
G01 X10.4103 Y19.3573
G01 X10.4063 Y19.3622
G01 X10.3451 Y19.4296
G01 X10.3406 Y19.4341
G01 X10.2732 Y19.4953
G01 X10.2683 Y19.4993
G01 X10.1951 Y19.5535
G01 X10.1898 Y19.5571
G01 X10.1118 Y19.6039
G01 X10.1061 Y19.6069
G01 X10.0239 Y19.6458
